;FLAVOR:Marlin
;TIME:2102
;Filament used: 0.670232m
;Layer height: 0.1
;MINX:89.667
;MINY:85.76
;MINZ:0.1
;MAXX:120.346
;MAXY:123.55
;MAXZ:11.075
;Generated with Cura_SteamEngine master
M140 S60
M105
M190 S60
M104 S200
M105
M109 S200
M82 ;absolute extrusion mode
; Sliced for AnyCubic Mega S
;
G21 ;metric values
G90 ;absolute positioning
M82 ;set extruder to absolute mode
M107 ;start with the fan off
G28 X0 Y0 ;move X/Y to min endstops
G28 Z0 ;move Z to min endstops
G1 Z15.0 F50 ;move the platform down 15mm
G92 E0 ;zero the extruded length
G1 F200 E3 ;extrude 3mm of feed stock
G92 E0 ;zero the extruded length again
G1 F50
M117 Printing...
G5
G92 E0
G92 E0
G1 F2400 E-6
;LAYER_COUNT:110
;LAYER:0
M106 S255
M204 S3000
M205 X10 Y10
G1 F600 Z0.175
G0 F1500 X92.283 Y87.588 Z0.175
M204 S1800
M205 X8 Y8
;TYPE:SKIRT
G1 F600 Z0.1
G1 F2400 E0
G1 X92.822 Y87.118 E0.01665
G1 X93.41 Y86.711 E0.0333
G1 X94.04 Y86.372 E0.04996
G1 X94.704 Y86.106 E0.06661
G1 X95.393 Y85.915 E0.08326
G1 X96.1 Y85.802 E0.09993
G1 X96.572 Y85.772 E0.11094
G1 X96.891 Y85.763 E0.11837
G1 X97.071 Y85.76 E0.12256
G1 X97.336 Y85.76 E0.12873
G1 X97.428 Y85.761 E0.13087
G1 X98.126 Y85.771 E0.14712
G1 X98.839 Y85.821 E0.16376
G1 X99.543 Y85.95 E0.18043
G1 X100.227 Y86.158 E0.19707
G1 X101.174 Y86.593 E0.22133
G1 X101.437 Y86.741 E0.22836
G1 X103.822 Y88.071 E0.29194
G1 X106.178 Y89.299 E0.3538
G1 X108.579 Y90.465 E0.41594
G1 X110.978 Y91.547 E0.47721
G1 X113.406 Y92.562 E0.53848
G1 X116.22 Y93.64 E0.60864
G1 X116.873 Y93.933 E0.6253
G1 X117.489 Y94.297 E0.64196
G1 X118.06 Y94.727 E0.6586
G1 X118.58 Y95.218 E0.67525
G1 X119.041 Y95.765 E0.69191
G1 X119.439 Y96.359 E0.70856
G1 X119.768 Y96.994 E0.72521
G1 X120.024 Y97.662 E0.74186
G1 X120.204 Y98.354 E0.75851
G1 X120.322 Y99.302 E0.78075
G1 X120.338 Y99.628 E0.78835
G1 X120.346 Y99.942 E0.79566
G1 X120.346 Y114.576 E1.13637
G1 X120.337 Y115.303 E1.1533
G1 X120.288 Y116.017 E1.16996
G1 X120.16 Y116.721 E1.18662
G1 X119.954 Y117.406 E1.20328
G1 X119.673 Y118.063 E1.21991
G1 X119.32 Y118.686 E1.23658
G1 X118.9 Y119.265 E1.25324
G1 X118.418 Y119.793 E1.26988
G1 X117.881 Y120.265 E1.28653
G1 X117.293 Y120.673 E1.30319
G1 X116.664 Y121.014 E1.31985
G1 X116.001 Y121.282 E1.3365
G1 X115.312 Y121.474 E1.35315
G1 X114.485 Y121.601 E1.37263
G1 X113.349 Y121.699 E1.39918
G1 X110.684 Y121.967 E1.46154
G1 X108.081 Y122.303 E1.52264
G1 X106.796 Y122.506 E1.55293
G1 X106.701 Y122.52 E1.55517
G1 X105.338 Y122.715 E1.58722
G1 X105.251 Y122.727 E1.58927
G1 X103.843 Y122.909 E1.62232
G1 X101.528 Y123.271 E1.67688
G1 X100.658 Y123.418 E1.69742
G1 X100.312 Y123.466 E1.70555
G1 X99.985 Y123.503 E1.71321
G1 X99.794 Y123.522 E1.71768
G1 X99.553 Y123.542 E1.72331
G1 X98.6 Y123.55 E1.7455
G1 X98.359 Y123.534 E1.75112
G1 X98.07 Y123.508 E1.75788
G1 X97.722 Y123.469 E1.76603
G1 X96.722 Y123.276 E1.78974
G1 X96.452 Y123.201 E1.79627
G1 X96.213 Y123.129 E1.80208
G1 X95.932 Y123.039 E1.80895
G1 X94.971 Y122.643 E1.83315
G1 X94.746 Y122.528 E1.83903
G1 X94.543 Y122.419 E1.8444
G1 X94.256 Y122.259 E1.85205
G1 X93.446 Y121.723 E1.87466
G1 X93.24 Y121.563 E1.88073
G1 X93.03 Y121.393 E1.88702
G1 X92.795 Y121.194 E1.89419
G1 X92.062 Y120.463 E1.91829
G1 X91.888 Y120.259 E1.92454
G1 X91.74 Y120.08 E1.92994
G1 X91.542 Y119.83 E1.93737
G1 X90.972 Y118.978 E1.96124
G1 X90.834 Y118.731 E1.96782
G1 X90.724 Y118.526 E1.97324
G1 X90.596 Y118.276 E1.97978
G1 X90.233 Y117.418 E2.00147
G1 X90.163 Y117.212 E2.00653
G1 X90.07 Y116.914 E2.0138
G1 X89.969 Y116.561 E2.02235
G1 X89.769 Y115.577 E2.04573
G1 X89.74 Y115.34 E2.05129
G1 X89.717 Y115.117 E2.05651
G1 X89.688 Y114.783 E2.06431
G1 X89.667 Y114.037 E2.08169
G1 X89.68 Y113.603 E2.0918
G1 X89.683 Y113.524 E2.09364
G1 X89.763 Y111.629 E2.1378
G1 X89.801 Y108.984 E2.19938
G1 X89.763 Y106.35 E2.26071
G1 X89.669 Y104.001 E2.31545
G1 X89.682 Y103.264 E2.33261
G1 X89.703 Y102.985 E2.33912
G1 X89.717 Y102.828 E2.34279
G1 X90.006 Y99.939 E2.41039
G1 X90.192 Y97.315 E2.47164
G1 X90.335 Y93.258 E2.56615
G1 X90.353 Y92.073 E2.59374
G1 X90.403 Y91.359 E2.61041
G1 X90.533 Y90.656 E2.62705
G1 X90.741 Y89.971 E2.64372
G1 X91.024 Y89.314 E2.66037
G1 X91.378 Y88.693 E2.67702
G1 X91.8 Y88.115 E2.69368
G1 X92.283 Y87.588 E2.71032
M204 S3000
M205 X10 Y10
G0 F1500 X92.83 Y87.842
M204 S1800
M205 X8 Y8
G1 F2400 X93.362 Y87.414 E2.72622
G1 X93.941 Y87.05 E2.74214
G1 X94.558 Y86.757 E2.75804
G1 X95.205 Y86.538 E2.77395
G1 X95.873 Y86.396 E2.78985
G1 X96.587 Y86.331 E2.80654
G1 X96.906 Y86.322 E2.81397
G1 X97.071 Y86.32 E2.81781
G1 X97.336 Y86.32 E2.82398
G1 X97.42 Y86.321 E2.82594
G1 X98.118 Y86.331 E2.84219
G1 X98.799 Y86.38 E2.85809
G1 X99.47 Y86.509 E2.87399
G1 X100.121 Y86.716 E2.8899
G1 X100.899 Y87.081 E2.90991
G1 X101.185 Y87.242 E2.91755
G1 X101.185 Y87.243 E2.91757
G1 X103.541 Y88.557 E2.98038
G1 X105.925 Y89.799 E3.04296
G1 X108.312 Y90.959 E3.10475
G1 X110.753 Y92.059 E3.16709
G1 X113.215 Y93.088 E3.22921
G1 X116.02 Y94.163 E3.29915
G1 X116.642 Y94.444 E3.31504
G1 X117.228 Y94.796 E3.33096
G1 X117.768 Y95.214 E3.34686
G1 X118.256 Y95.693 E3.36278
G1 X118.685 Y96.225 E3.37869
G1 X119.048 Y96.803 E3.39458
G1 X119.342 Y97.42 E3.41049
G1 X119.561 Y98.068 E3.42642
G1 X119.703 Y98.736 E3.44232
G1 X119.763 Y99.33 E3.45622
G1 X119.779 Y99.656 E3.46382
G1 X119.786 Y99.942 E3.47048
G1 X119.786 Y114.569 E3.81102
G1 X119.777 Y115.296 E3.82795
G1 X119.728 Y115.978 E3.84387
G1 X119.6 Y116.649 E3.85977
G1 X119.395 Y117.301 E3.87569
G1 X119.115 Y117.924 E3.89159
G1 X118.765 Y118.51 E3.90748
G1 X118.348 Y119.052 E3.9234
G1 X117.871 Y119.541 E3.93931
G1 X117.34 Y119.97 E3.9552
G1 X116.762 Y120.335 E3.97112
G1 X116.146 Y120.63 E3.98702
G1 X115.499 Y120.851 E4.00294
G1 X114.831 Y120.995 E4.01885
G1 X114.437 Y121.043 E4.02809
G1 X113.314 Y121.139 E4.05433
G1 X110.63 Y121.409 E4.11713
G1 X107.987 Y121.751 E4.17918
G1 X106.708 Y121.953 E4.20933
G1 X106.622 Y121.966 E4.21135
G1 X105.259 Y122.161 E4.24341
G1 X105.18 Y122.172 E4.24526
G1 X103.759 Y122.355 E4.27862
G1 X101.365 Y122.73 E4.33504
G1 X100.565 Y122.865 E4.35393
G1 X100.249 Y122.91 E4.36136
G1 X99.922 Y122.947 E4.36902
G1 X99.748 Y122.964 E4.37309
G1 X99.507 Y122.984 E4.37872
G1 X98.637 Y122.991 E4.39898
G1 X98.396 Y122.975 E4.4046
G1 X98.133 Y122.952 E4.41075
G1 X97.785 Y122.913 E4.4189
G1 X96.872 Y122.736 E4.44055
G1 X96.602 Y122.661 E4.44708
G1 X96.384 Y122.596 E4.45237
G1 X96.103 Y122.506 E4.45924
G1 X95.226 Y122.144 E4.48133
G1 X95.001 Y122.029 E4.48722
G1 X94.815 Y121.93 E4.49212
G1 X94.528 Y121.77 E4.49977
G1 X93.79 Y121.281 E4.52038
G1 X93.584 Y121.121 E4.52646
G1 X93.392 Y120.966 E4.5322
G1 X93.157 Y120.767 E4.53937
G1 X92.488 Y120.1 E4.56137
G1 X92.314 Y119.896 E4.56761
G1 X92.179 Y119.732 E4.57255
G1 X91.981 Y119.482 E4.57998
G1 X91.461 Y118.704 E4.60176
G1 X91.323 Y118.457 E4.60835
G1 X91.223 Y118.271 E4.61327
G1 X91.095 Y118.021 E4.61981
G1 X90.764 Y117.238 E4.6396
G1 X90.694 Y117.032 E4.64467
G1 X90.608 Y116.759 E4.65133
G1 X90.507 Y116.406 E4.65988
G1 X90.325 Y115.509 E4.68119
G1 X90.296 Y115.272 E4.68675
G1 X90.275 Y115.068 E4.69152
G1 X90.246 Y114.734 E4.69933
G1 X90.227 Y114.054 E4.71516
G1 X90.24 Y113.62 E4.72527
G1 X90.242 Y113.548 E4.72695
G1 X90.323 Y111.626 E4.77174
G1 X90.361 Y108.985 E4.83323
G1 X90.323 Y106.32 E4.89529
G1 X90.229 Y103.979 E4.94983
G1 X90.24 Y103.306 E4.9655
G1 X90.261 Y103.027 E4.97202
G1 X90.274 Y102.884 E4.97536
G1 X90.568 Y99.942 E5.0442
G1 X90.752 Y97.345 E5.10481
G1 X90.895 Y93.286 E5.19937
G1 X90.913 Y92.081 E5.22743
G1 X90.963 Y91.4 E5.24333
G1 X91.092 Y90.729 E5.25924
G1 X91.299 Y90.078 E5.27514
G1 X91.581 Y89.455 E5.29106
G1 X91.933 Y88.87 E5.30696
G1 X92.351 Y88.33 E5.32286
G1 X92.83 Y87.842 E5.33878
M204 S3000
M205 X10 Y10
G0 F1500 X92.902 Y88.556
M204 S1800
M205 X8 Y8
G1 F2400 X93.375 Y88.11 E5.35391
G1 X93.899 Y87.726 E5.36904
G1 X94.466 Y87.409 E5.38416
G1 X95.068 Y87.165 E5.39929
G1 X95.695 Y86.996 E5.41441
G1 X96.603 Y86.891 E5.43569
G1 X96.922 Y86.882 E5.44312
G1 X97.071 Y86.88 E5.44659
G1 X97.336 Y86.88 E5.45276
G1 X97.412 Y86.881 E5.45453
G1 X98.11 Y86.891 E5.47078
G1 X98.757 Y86.94 E5.48588
G1 X99.394 Y87.068 E5.50101
G1 X100.01 Y87.274 E5.51613
G1 X100.624 Y87.569 E5.53199
G1 X100.892 Y87.72 E5.53916
G1 X103.302 Y89.064 E5.6034
G1 X105.671 Y90.299 E5.6656
G1 X108.073 Y91.466 E5.72778
G1 X110.527 Y92.572 E5.79044
G1 X113.007 Y93.608 E5.85302
G1 X115.819 Y94.686 E5.92313
G1 X116.411 Y94.955 E5.93827
G1 X116.964 Y95.295 E5.95339
G1 X117.472 Y95.7 E5.96851
G1 X117.926 Y96.165 E5.98364
G1 X118.32 Y96.682 E5.99878
G1 X118.647 Y97.243 E6.0139
G1 X118.902 Y97.84 E6.02901
G1 X119.083 Y98.464 E6.04414
G1 X119.204 Y99.357 E6.06512
G1 X119.22 Y99.683 E6.07272
G1 X119.226 Y99.942 E6.07875
G1 X119.226 Y114.562 E6.41913
G1 X119.217 Y115.289 E6.43606
G1 X119.169 Y115.937 E6.45119
G1 X119.041 Y116.574 E6.46632
G1 X118.837 Y117.191 E6.48145
G1 X118.558 Y117.778 E6.49658
G1 X118.21 Y118.326 E6.51169
G1 X117.797 Y118.827 E6.52681
G1 X117.325 Y119.274 E6.54194
G1 X116.802 Y119.659 E6.55706
G1 X116.236 Y119.977 E6.57218
G1 X115.634 Y120.224 E6.58733
G1 X115.008 Y120.394 E6.60243
G1 X114.389 Y120.485 E6.617
G1 X113.236 Y120.584 E6.64394
G1 X110.607 Y120.848 E6.70546
G1 X107.896 Y121.198 E6.7691
G1 X106.62 Y121.4 E6.79918
G1 X106.543 Y121.412 E6.80099
G1 X105.18 Y121.607 E6.83305
G1 X105.108 Y121.617 E6.83474
G1 X103.675 Y121.802 E6.86838
G1 X101.278 Y122.177 E6.92487
G1 X100.472 Y122.313 E6.9439
G1 X100.186 Y122.354 E6.95062
G1 X99.859 Y122.391 E6.95828
G1 X99.702 Y122.406 E6.96196
G1 X99.461 Y122.426 E6.96759
G1 X98.674 Y122.432 E6.98591
G1 X98.433 Y122.416 E6.99153
G1 X98.195 Y122.395 E6.9971
G1 X97.847 Y122.356 E7.00525
G1 X97.022 Y122.196 E7.02481
G1 X96.752 Y122.121 E7.03134
G1 X96.554 Y122.062 E7.03615
G1 X96.273 Y121.972 E7.04302
G1 X95.481 Y121.645 E7.06297
G1 X95.256 Y121.53 E7.06885
G1 X95.088 Y121.441 E7.07328
G1 X94.801 Y121.281 E7.08093
G1 X94.133 Y120.839 E7.09958
G1 X93.927 Y120.679 E7.10565
G1 X93.754 Y120.538 E7.11085
G1 X93.519 Y120.339 E7.11801
G1 X92.914 Y119.736 E7.1379
G1 X92.74 Y119.532 E7.14414
G1 X92.618 Y119.384 E7.14861
G1 X92.42 Y119.134 E7.15604
G1 X91.95 Y118.431 E7.17572
G1 X91.812 Y118.184 E7.18231
G1 X91.721 Y118.015 E7.18678
G1 X91.593 Y117.765 E7.19332
G1 X91.294 Y117.058 E7.21119
G1 X91.224 Y116.852 E7.21626
G1 X91.147 Y116.605 E7.22228
G1 X91.046 Y116.252 E7.23083
G1 X90.881 Y115.441 E7.2501
G1 X90.852 Y115.204 E7.25566
G1 X90.833 Y115.02 E7.25996
G1 X90.804 Y114.686 E7.26777
G1 X90.786 Y114.071 E7.28209
G1 X90.799 Y113.637 E7.2922
G1 X90.802 Y113.571 E7.29374
G1 X90.883 Y111.656 E7.33836
G1 X90.921 Y108.985 E7.40056
G1 X90.883 Y106.327 E7.46245
G1 X90.788 Y103.956 E7.51769
G1 X90.799 Y103.348 E7.53185
G1 X90.82 Y103.069 E7.53837
G1 X90.831 Y102.939 E7.5414
G1 X91.123 Y100.025 E7.60959
G1 X91.31 Y97.377 E7.67139
G1 X91.456 Y93.246 E7.76763
G1 X91.473 Y92.09 E7.79455
G1 X91.522 Y91.442 E7.80968
G1 X91.651 Y90.805 E7.82481
G1 X91.857 Y90.189 E7.83993
G1 X92.137 Y89.603 E7.85505
G1 X92.487 Y89.056 E7.87017
G1 X92.902 Y88.556 E7.8853
M204 S3000
M205 X10 Y10
G1 F2400 E1.8853
;MESH:fork_lift.STL
G0 F1500 X96.112 Y100.866
G0 X96.873 Y100.851
G0 X98.485 Y101.128
G0 X99.985 Y101.352
G0 X100.025 Y101.26
M204 S1800
M205 X8 Y8
;TYPE:WALL-OUTER
G1 F2400 E7.8853
G1 F1200 X100.487 Y101.507 E7.8975
G1 X100.892 Y101.839 E7.90969
G1 X101.223 Y102.242 E7.92183
G1 X101.47 Y102.704 E7.93403
G1 X101.62 Y103.203 E7.94616
G1 X101.672 Y103.725 E7.95837
G1 X101.62 Y104.248 E7.97061
G1 X101.47 Y104.746 E7.98272
G1 X101.223 Y105.208 E7.99492
G1 X100.891 Y105.612 E8.00709
G1 X100.487 Y105.944 E8.01926
G1 X100.025 Y106.191 E8.03146
G1 X99.527 Y106.343 E8.04358
G1 X99.004 Y106.393 E8.05582
G1 X98.482 Y106.343 E8.06802
G1 X97.983 Y106.191 E8.08017
G1 X97.521 Y105.944 E8.09237
G1 X97.117 Y105.612 E8.10454
G1 X96.785 Y105.208 E8.11672
G1 X96.539 Y104.746 E8.1289
G1 X96.388 Y104.248 E8.14102
G1 X96.336 Y103.725 E8.15325
G1 X96.388 Y103.203 E8.16547
G1 X96.539 Y102.704 E8.17761
G1 X96.785 Y102.242 E8.18979
G1 X97.116 Y101.839 E8.20193
G1 X97.521 Y101.507 E8.21413
G1 X97.983 Y101.26 E8.22632
G1 X98.482 Y101.109 E8.23846
G1 X99.004 Y101.057 E8.25067
G1 X99.527 Y101.109 E8.26291
G1 X100.025 Y101.26 E8.27503
M204 S3000
M205 X10 Y10
G0 F1500 X100.201 Y101.354
G0 X100.153 Y101.441
G0 X98.216 Y101.96
G0 X97.598 Y102.396
G0 X97.007 Y103.73
G0 X97.106 Y103.729
M204 S1800
M205 X8 Y8
G1 F1200 X97.156 Y104.146 E8.28481
G1 X97.274 Y104.499 E8.29347
G1 X97.459 Y104.821 E8.30212
G1 X97.701 Y105.101 E8.31073
G1 X97.995 Y105.329 E8.3194
G1 X98.329 Y105.495 E8.32808
G1 X98.686 Y105.593 E8.3367
G1 X99.057 Y105.619 E8.34536
G1 X99.426 Y105.572 E8.35402
G1 X99.778 Y105.455 E8.36265
G1 X100.1 Y105.272 E8.37128
G1 X100.381 Y105.027 E8.37996
G1 X100.607 Y104.734 E8.38857
G1 X100.774 Y104.402 E8.39722
G1 X100.872 Y104.043 E8.40589
G1 X100.898 Y103.672 E8.41455
G1 X100.851 Y103.304 E8.42318
G1 X100.734 Y102.952 E8.43182
G1 X100.55 Y102.629 E8.44048
G1 X100.306 Y102.348 E8.44914
G1 X100.012 Y102.122 E8.45777
G1 X99.681 Y101.956 E8.46639
G1 X99.322 Y101.858 E8.47506
G1 X98.951 Y101.832 E8.48372
G1 X98.583 Y101.879 E8.49235
G1 X98.232 Y101.996 E8.50097
G1 X97.909 Y102.179 E8.50961
G1 X97.627 Y102.423 E8.51829
G1 X97.401 Y102.716 E8.52691
G1 X97.234 Y103.049 E8.53558
G1 X97.136 Y103.403 E8.54413
G1 X97.106 Y103.729 E8.55176
M204 S3000
M205 X10 Y10
G0 F1500 X97.129 Y103.928
G0 X96.734 Y103.805
M204 S1800
M205 X8 Y8
;TYPE:SKIN
G1 F1200 X96.74 Y103.528 E8.5544
G1 X96.903 Y102.842 E8.56111
G1 X97.348 Y102.157 E8.5689
G1 X98.004 Y101.681 E8.57662
G1 X98.65 Y101.479 E8.58307
G1 X99.198 Y101.461 E8.58829
G1 X99.541 Y101.521 E8.59161
G1 X100.033 Y101.73 E8.5967
G1 X100.658 Y102.072 E8.60349
G1 X101.02 Y102.717 E8.61054
G1 X101.264 Y103.526 E8.61859
G1 X101.198 Y104.309 E8.62608
G1 X100.831 Y105.073 E8.63415
G1 X100.254 Y105.628 E8.64178
G1 X99.448 Y105.953 E8.65006
G1 X98.598 Y105.952 E8.65816
G1 X98.196 Y105.833 E8.66215
G1 X97.404 Y105.323 E8.67113
G1 X96.894 Y104.531 E8.6801
G1 X96.771 Y104.124 E8.68415
M204 S3000
M205 X10 Y10
G0 F1500 X96.574 Y104.005
G1 F2400 E2.68415
G0 F1500 X97.598 Y102.396
G0 X98.216 Y101.96
G0 X98.95 Y101.793
G0 X101.207 Y102.253
G0 X103.359 Y100.897
G0 X103.624 Y100.919
M204 S1800
M205 X8 Y8
;TYPE:WALL-INNER
G1 F2400 E8.68415
G1 F1200 X103.353 Y100.921 E8.69046
G1 X103.34 Y100.902 E8.691
G1 X103.34 Y100.631 E8.69731
G1 X103.34 Y98.9 E8.73761
G1 X104.088 Y98.9 E8.75503
G1 X104.088 Y100.914 E8.80192
G1 X103.624 Y100.919 E8.81272
M204 S3000
M205 X10 Y10
G0 F1500 X103.624 Y100.818
G0 X104.62 Y98.954
G0 X104.648 Y98.982
M204 S1800
M205 X8 Y8
;TYPE:WALL-OUTER
G1 F1200 X104.648 Y101.468 E8.8706
G1 X103.093 Y101.484 E8.9068
G1 X103.061 Y101.484 E8.90755
G1 X102.78 Y101.076 E8.91908
G1 X102.78 Y101.044 E8.91983
G1 X102.78 Y98.982 E8.96784
G1 X97.021 Y98.982 E9.10192
G1 X97.021 Y92.44 E9.25423
G1 X97.763 Y92.44 E9.2715
G1 X97.763 Y98.34 E9.40887
G1 X105.648 Y98.34 E9.59245
G1 X105.648 Y98.968 E9.60707
G1 X104.954 Y98.982 E9.62323
G1 X104.648 Y98.982 E9.63035
M204 S3000
M205 X10 Y10
G0 F1500 X104.648 Y99.182
G0 X103.756 Y99.23
M204 S1800
M205 X8 Y8
;TYPE:SKIN
G1 F1200 X103.713 Y99.47 E9.63254
G1 X103.683 Y100.572 E9.64239
M204 S3000
M205 X10 Y10
G0 F1500 X103.753 Y100.641
G0 X102.69 Y98.706
G0 X102.903 Y98.66
M204 S1800
M205 X8 Y8
G1 F1200 X102.62 Y98.66 E9.64414
G1 X97.811 Y98.66 E9.67389
G1 X97.435 Y98.566 E9.67629
G1 X97.391 Y97.108 E9.68531
G1 X97.391 Y92.866 E9.71155
M204 S3000
M205 X10 Y10
G0 F1500 X97.218 Y92.77
G1 F2400 E3.71155
G0 F1500 X97.764 Y98.339
G0 X98.696 Y97.407
G0 X106.581 Y97.407
G0 X111.483 Y100.466
G0 X113.002 Y100.466
G0 X112.988 Y101.124
M204 S1800
M205 X8 Y8
;TYPE:WALL-INNER
G1 F2400 E9.71155
G1 F1200 X112.988 Y100.452 E9.72719
G1 X113.106 Y100.452 E9.72994
G1 X113.106 Y101.124 E9.73324
G1 X113.106 Y101.162 E9.73412
G1 X112.988 Y101.124 E9.73554
M204 S3000
M205 X10 Y10
G0 F1500 X113.301 Y101.814
M204 S1800
M205 X8 Y8
;TYPE:WALL-OUTER
G1 F1200 X112.428 Y101.532 E9.7569
G1 X112.428 Y99.892 E9.79508
G1 X113.666 Y99.892 E9.8239
G1 X113.666 Y101.547 E9.86243
G1 X113.666 Y101.548 E9.86246
G1 X113.666 Y101.931 E9.87137
