;FLAVOR:Marlin
;TIME:14046
;Filament used: 24.0514m
;Layer height: 0.3
;MINX:24.839
;MINY:37.844
;MINZ:0.3
;MAXX:185.161
;MAXY:172.157
;MAXZ:21.9
;Generated with Cura_SteamEngine master
M140 S60
M105
M190 S60
M104 S200
M105
M109 S200
M82 ;absolute extrusion mode
; Sliced at:       Sun 29-09-2019 17:24:48
G21 ;metric values
G90 ;absolute positioning
M82 ;set extruder to absolute mode
M107 ;start with the fan off
G28 X0 Y0 ;move X/Y to min endstops
G28 Z0 ;move Z to min endstops
G1 Z15.0 F100 ;move the platform down 15mm
G92 E0 ;zero the extruded length
G1 F200 E3 ;extrude 3mm of feed stock
G92 E0 ;zero the extruded length again
G1 F100
M117 Printing...
G5
M141 S28
G92 E0
G92 E0
G1 F2400 E-6
;LAYER_COUNT:73
;LAYER:0
M106 S255
M204 S3000
M205 X10 Y10
G0 F3000 X27.848 Y39.187 Z0.3
M204 S1800
M205 X8 Y8
;TYPE:SKIRT
G1 F2400 E0
G1 X28.268 Y38.919 E0.0348
G1 X28.497 Y38.785 E0.05333
G1 X29.133 Y38.459 E0.10325
G1 X29.802 Y38.206 E0.15321
G1 X30.302 Y38.07 E0.1894
G1 X30.525 Y38.019 E0.20538
G1 X31.23 Y37.899 E0.25533
G1 X31.847 Y37.859 E0.29851
G1 X32.642 Y37.846 E0.35405
G1 X32.747 Y37.845 E0.36138
G1 X101.374 Y37.844 E5.15472
G1 X101.476 Y37.845 E5.16185
G1 X103.908 Y37.884 E5.33173
G1 X106.723 Y37.878 E5.52835
G1 X108.644 Y37.846 E5.66255
G1 X108.751 Y37.845 E5.67002
G1 X177.373 Y37.844 E10.46301
G1 X177.464 Y37.845 E10.46937
G1 X178.169 Y37.855 E10.51861
G1 X178.882 Y37.905 E10.56854
G1 X179.586 Y38.034 E10.61853
G1 X180.022 Y38.156 E10.65015
G1 X180.32 Y38.251 E10.672
G1 X180.988 Y38.506 E10.72194
G1 X181.624 Y38.834 E10.77192
G1 X182.219 Y39.231 E10.82188
G1 X182.669 Y39.602 E10.86261
G1 X182.899 Y39.81 E10.88427
G1 X183.402 Y40.319 E10.93426
G1 X183.845 Y40.88 E10.98418
G1 X184.222 Y41.488 E11.03415
G1 X184.44 Y41.925 E11.06826
G1 X184.565 Y42.202 E11.08949
G1 X184.822 Y42.869 E11.13941
G1 X185.003 Y43.561 E11.18937
G1 X185.106 Y44.269 E11.23935
G1 X185.129 Y44.664 E11.26698
G1 X185.142 Y45.152 E11.30108
G1 X185.144 Y45.32 E11.31281
G1 X185.16 Y89.433 E14.39394
G1 X185.16 Y89.435 E14.39408
G1 X185.161 Y164.259 E19.62026
G1 X185.16 Y164.347 E19.62641
G1 X185.15 Y165.078 E19.67747
G1 X185.101 Y165.791 E19.72739
G1 X185.015 Y166.303 E19.76365
G1 X184.95 Y166.613 E19.78577
G1 X184.764 Y167.304 E19.83575
G1 X184.503 Y167.97 E19.88572
G1 X184.168 Y168.602 E19.93568
G1 X183.871 Y169.052 E19.97334
G1 X183.685 Y169.309 E19.9955
G1 X183.234 Y169.864 E20.04545
G1 X182.723 Y170.366 E20.09548
G1 X182.16 Y170.807 E20.14543
G1 X181.728 Y171.084 E20.18127
G1 X181.478 Y171.23 E20.20149
G1 X180.841 Y171.555 E20.25144
G1 X180.171 Y171.808 E20.30146
G1 X179.674 Y171.943 E20.33744
G1 X179.525 Y171.977 E20.34811
G1 X178.82 Y172.097 E20.39806
G1 X178.226 Y172.136 E20.43964
G1 X177.25 Y172.155 E20.50782
G1 X177.125 Y172.156 E20.51655
G1 X108.625 Y172.156 E25.30102
G1 X108.536 Y172.155 E25.30724
G1 X107.021 Y172.134 E25.41307
G1 X106.929 Y172.132 E25.41949
G1 X105.799 Y172.1 E25.49845
G1 X103.093 Y172.102 E25.68746
G1 X102.361 Y172.118 E25.7386
G1 X102.273 Y172.12 E25.74474
G1 X101.905 Y172.123 E25.77045
G1 X101.858 Y172.123 E25.77373
G1 X57.945 Y172.157 E28.84089
G1 X57.94 Y172.157 E28.84124
G1 X32.626 Y172.156 E30.60933
G1 X32.535 Y172.155 E30.61569
G1 X31.833 Y172.145 E30.66472
G1 X31.119 Y172.095 E30.71472
G1 X30.416 Y171.966 E30.76464
G1 X29.982 Y171.844 E30.79613
G1 X29.69 Y171.751 E30.81753
G1 X29.021 Y171.496 E30.86754
G1 X28.386 Y171.169 E30.91743
G1 X27.791 Y170.772 E30.96739
G1 X27.4 Y170.454 E31.00259
G1 X27.164 Y170.246 E31.02456
G1 X26.655 Y169.744 E31.07449
G1 X26.205 Y169.188 E31.12445
G1 X25.82 Y168.586 E31.17436
G1 X25.565 Y168.084 E31.21369
G1 X25.436 Y167.799 E31.23554
G1 X25.178 Y167.132 E31.28549
G1 X24.996 Y166.44 E31.33547
G1 X24.871 Y165.393 E31.40912
G1 X24.863 Y165.173 E31.42449
G1 X24.859 Y165.006 E31.43616
G1 X24.856 Y164.715 E31.45649
G1 X24.856 Y164.651 E31.46096
G1 X24.84 Y120.567 E34.54006
G1 X24.84 Y120.565 E34.5402
G1 X24.839 Y45.707 E39.76876
G1 X24.84 Y45.615 E39.77518
G1 X24.85 Y44.918 E39.82387
G1 X24.9 Y44.205 E39.87379
G1 X24.993 Y43.66 E39.91241
G1 X25.061 Y43.345 E39.93492
G1 X25.251 Y42.655 E39.9849
G1 X25.516 Y41.991 E40.03484
G1 X25.854 Y41.36 E40.08484
G1 X26.138 Y40.934 E40.1206
G1 X26.321 Y40.682 E40.14235
G1 X26.773 Y40.128 E40.19229
G1 X27.284 Y39.628 E40.24223
G1 X27.848 Y39.187 E40.29223
M204 S3000
M205 X10 Y10
G0 F3000 X28.243 Y39.595
M204 S1800
M205 X8 Y8
G1 F2400 X28.551 Y39.403 E40.31758
G1 X28.78 Y39.269 E40.33611
G1 X29.388 Y38.959 E40.38378
G1 X30.029 Y38.722 E40.43152
G1 X30.427 Y38.616 E40.46028
G1 X30.65 Y38.565 E40.47626
G1 X31.324 Y38.452 E40.52399
G1 X31.857 Y38.419 E40.56129
G1 X32.652 Y38.406 E40.61683
G1 X32.747 Y38.405 E40.62346
G1 X101.374 Y38.404 E45.41681
G1 X101.467 Y38.405 E45.4233
G1 X103.901 Y38.444 E45.59333
G1 X106.733 Y38.438 E45.79113
G1 X108.653 Y38.406 E45.92526
G1 X108.751 Y38.405 E45.9321
G1 X177.373 Y38.404 E50.72509
G1 X177.456 Y38.405 E50.73089
G1 X178.161 Y38.415 E50.78014
G1 X178.842 Y38.464 E50.82783
G1 X179.513 Y38.593 E50.87555
G1 X179.852 Y38.69 E50.90018
G1 X180.15 Y38.785 E50.92203
G1 X180.787 Y39.03 E50.9697
G1 X181.392 Y39.348 E51.01743
G1 X181.956 Y39.735 E51.06521
G1 X182.293 Y40.018 E51.09595
G1 X182.523 Y40.226 E51.11761
G1 X183.002 Y40.713 E51.16532
G1 X183.421 Y41.252 E51.213
G1 X183.774 Y41.837 E51.26072
G1 X183.929 Y42.155 E51.28543
G1 X184.054 Y42.432 E51.30666
G1 X184.298 Y43.07 E51.35437
G1 X184.466 Y43.732 E51.40207
G1 X184.569 Y44.678 E51.46854
G1 X184.582 Y45.166 E51.50264
G1 X184.584 Y45.32 E51.51339
G1 X184.6 Y89.433 E54.59452
G1 X184.6 Y89.435 E54.59466
G1 X184.601 Y164.259 E59.82084
G1 X184.6 Y164.339 E59.82643
G1 X184.59 Y165.07 E59.87749
G1 X184.541 Y165.751 E59.92518
G1 X184.467 Y166.188 E59.95614
G1 X184.402 Y166.498 E59.97826
G1 X184.223 Y167.158 E60.02602
G1 X183.968 Y167.792 E60.07375
G1 X183.641 Y168.392 E60.12148
G1 X183.417 Y168.724 E60.14945
G1 X183.231 Y168.981 E60.17161
G1 X182.799 Y169.51 E60.21932
G1 X182.308 Y169.985 E60.26703
G1 X181.764 Y170.399 E60.31478
G1 X181.445 Y170.6 E60.34112
G1 X181.195 Y170.746 E60.36134
G1 X180.586 Y171.055 E60.40904
G1 X179.945 Y171.292 E60.45677
G1 X179.549 Y171.397 E60.48538
G1 X179.4 Y171.431 E60.49606
G1 X178.726 Y171.543 E60.54378
G1 X178.215 Y171.576 E60.57955
G1 X177.239 Y171.595 E60.64773
G1 X177.125 Y171.596 E60.65569
G1 X108.625 Y171.596 E65.44016
G1 X108.544 Y171.595 E65.44582
G1 X107.029 Y171.574 E65.55165
G1 X106.945 Y171.573 E65.55752
G1 X105.78 Y171.54 E65.63892
G1 X103.128 Y171.542 E65.82415
G1 X102.349 Y171.559 E65.87857
G1 X102.269 Y171.56 E65.88416
G1 X101.901 Y171.563 E65.90987
G1 X101.858 Y171.563 E65.91287
G1 X57.945 Y171.597 E68.98003
G1 X57.94 Y171.597 E68.98038
G1 X32.626 Y171.596 E70.74847
G1 X32.543 Y171.595 E70.75427
G1 X31.841 Y171.585 E70.8033
G1 X31.159 Y171.536 E70.85106
G1 X30.488 Y171.407 E70.89879
G1 X30.152 Y171.311 E70.92319
G1 X29.86 Y171.218 E70.9446
G1 X29.222 Y170.973 E70.99233
G1 X28.617 Y170.655 E71.04007
G1 X28.054 Y170.268 E71.08779
G1 X27.771 Y170.034 E71.11344
G1 X27.535 Y169.826 E71.13541
G1 X27.049 Y169.345 E71.18317
G1 X26.624 Y168.811 E71.23084
G1 X26.263 Y168.231 E71.27856
G1 X26.076 Y167.853 E71.30801
G1 X25.947 Y167.568 E71.32986
G1 X25.702 Y166.93 E71.3776
G1 X25.533 Y166.268 E71.42532
G1 X25.431 Y165.372 E71.48831
G1 X25.423 Y165.152 E71.50368
G1 X25.419 Y165 E71.5143
G1 X25.416 Y164.709 E71.53463
G1 X25.416 Y164.651 E71.53868
G1 X25.4 Y120.567 E74.61778
G1 X25.4 Y120.565 E74.61792
G1 X25.399 Y45.707 E79.84648
G1 X25.4 Y45.623 E79.85234
G1 X25.41 Y44.926 E79.90103
G1 X25.459 Y44.245 E79.94872
G1 X25.54 Y43.778 E79.98182
G1 X25.608 Y43.463 E80.00433
G1 X25.791 Y42.804 E80.0521
G1 X26.05 Y42.172 E80.09981
G1 X26.381 Y41.574 E80.14755
G1 X26.592 Y41.263 E80.1738
G1 X26.775 Y41.011 E80.19555
G1 X27.208 Y40.483 E80.24325
G1 X27.7 Y40.009 E80.29096
G1 X28.243 Y39.595 E80.33866
M204 S3000
M205 X10 Y10
G0 F3000 X28.833 Y39.886
M204 S1800
M205 X8 Y8
G1 F2400 X29.062 Y39.752 E80.35719
G1 X29.642 Y39.459 E80.40257
G1 X30.552 Y39.162 E80.46943
G1 X30.775 Y39.111 E80.48541
G1 X31.416 Y39.005 E80.53079
G1 X31.866 Y38.979 E80.56227
G1 X32.661 Y38.966 E80.61781
G1 X32.747 Y38.965 E80.62382
G1 X101.374 Y38.964 E85.41716
G1 X101.458 Y38.965 E85.42303
G1 X103.893 Y39.004 E85.59312
G1 X106.744 Y38.998 E85.79226
G1 X108.663 Y38.966 E85.92631
G1 X108.751 Y38.965 E85.93246
G1 X177.373 Y38.964 E90.72545
G1 X177.448 Y38.965 E90.73069
G1 X178.153 Y38.975 E90.77993
G1 X178.801 Y39.024 E90.82532
G1 X179.682 Y39.223 E90.88841
G1 X179.98 Y39.318 E90.91025
G1 X180.585 Y39.553 E90.95559
G1 X181.157 Y39.861 E91.00096
G1 X181.918 Y40.433 E91.06746
G1 X182.148 Y40.641 E91.08912
G1 X182.602 Y41.105 E91.13446
G1 X182.995 Y41.622 E91.17982
G1 X183.419 Y42.385 E91.24078
G1 X183.544 Y42.662 E91.26201
G1 X183.774 Y43.27 E91.30741
G1 X183.928 Y43.901 E91.35278
G1 X184.009 Y44.693 E91.40839
G1 X184.022 Y45.181 E91.44248
G1 X184.024 Y45.32 E91.45219
G1 X184.04 Y89.433 E94.53332
G1 X184.04 Y89.435 E94.53346
G1 X184.041 Y164.259 E99.75964
G1 X184.041 Y164.331 E99.76467
G1 X184.031 Y165.062 E99.81573
G1 X183.982 Y165.71 E99.86112
G1 X183.919 Y166.074 E99.88692
G1 X183.854 Y166.384 E99.90905
G1 X183.681 Y167.01 E99.95441
G1 X183.434 Y167.61 E99.99973
G1 X182.963 Y168.396 E100.06373
G1 X182.777 Y168.653 E100.08589
G1 X182.365 Y169.154 E100.1312
G1 X181.894 Y169.602 E100.1766
G1 X181.163 Y170.116 E100.23901
G1 X180.913 Y170.262 E100.25924
G1 X180.333 Y170.555 E100.30462
G1 X179.425 Y170.851 E100.37133
G1 X179.276 Y170.885 E100.382
G1 X178.635 Y170.99 E100.42737
G1 X178.204 Y171.016 E100.45753
G1 X177.228 Y171.035 E100.52571
G1 X177.125 Y171.036 E100.53291
G1 X108.625 Y171.036 E105.31738
G1 X108.552 Y171.035 E105.32248
G1 X107.037 Y171.014 E105.4283
G1 X106.961 Y171.013 E105.43361
G1 X105.796 Y170.98 E105.51502
G1 X103.116 Y170.982 E105.7022
G1 X102.337 Y170.999 E105.75663
G1 X102.264 Y171 E105.76173
G1 X101.896 Y171.003 E105.78743
G1 X101.857 Y171.003 E105.79015
G1 X57.944 Y171.037 E108.85732
G1 X57.94 Y171.037 E108.85759
G1 X32.626 Y171.036 E110.62568
G1 X32.551 Y171.035 E110.63092
G1 X31.849 Y171.025 E110.67996
G1 X31.201 Y170.976 E110.72535
G1 X30.322 Y170.777 E110.7883
G1 X30.03 Y170.684 E110.8097
G1 X29.424 Y170.449 E110.8551
G1 X28.852 Y170.142 E110.90044
G1 X28.141 Y169.614 E110.9623
G1 X27.905 Y169.406 E110.98427
G1 X27.445 Y168.947 E111.02966
G1 X27.045 Y168.436 E111.07499
G1 X26.586 Y167.622 E111.14026
G1 X26.457 Y167.337 E111.16211
G1 X26.226 Y166.73 E111.20747
G1 X26.071 Y166.099 E111.25285
G1 X25.99 Y165.352 E111.30533
G1 X25.982 Y165.132 E111.32071
G1 X25.979 Y164.994 E111.33035
G1 X25.976 Y164.703 E111.35068
G1 X25.976 Y164.651 E111.35431
G1 X25.96 Y120.567 E114.43341
G1 X25.96 Y120.565 E114.43355
G1 X25.959 Y45.707 E119.66211
G1 X25.96 Y45.631 E119.66742
G1 X25.97 Y44.934 E119.7161
G1 X26.019 Y44.287 E119.76142
G1 X26.088 Y43.896 E119.78916
G1 X26.156 Y43.581 E119.81166
G1 X26.332 Y42.956 E119.85702
G1 X26.583 Y42.356 E119.90244
G1 X27.045 Y41.592 E119.9648
G1 X27.228 Y41.34 E119.98656
G1 X27.641 Y40.839 E120.03191
G1 X28.113 Y40.393 E120.07726
G1 X28.833 Y39.886 E120.13877
M204 S3000
M205 X10 Y10
G1 F2400 E114.13877
;MESH:josh-box.stl
G0 F3000 X31.324 Y43.765
G0 X32.098 Y45.091
G0 X101.361 Y164.323
M204 S1800
M205 X8 Y8
;TYPE:WALL-INNER
G1 F2400 E120.13877
G1 F1800 X57.94 Y164.357 E123.17157
G1 X32.656 Y164.356 E124.93756
G1 X32.64 Y120.529 E127.99871
G1 X32.639 Y45.645 E133.22908
G1 X101.344 Y45.644 E138.02787
G1 X101.36 Y89.471 E141.08902
G1 X101.361 Y164.323 E146.31716
M204 S3000
M205 X10 Y10
G0 F3000 X101.921 Y164.883
M204 S1800
M205 X8 Y8
G1 F1800 X57.94 Y164.917 E149.38907
G1 X32.096 Y164.916 E151.19418
G1 X32.08 Y120.529 E154.29444
G1 X32.079 Y45.09 E159.56358
G1 X32.08 Y45.085 E159.56393
G1 X101.904 Y45.084 E164.44088
G1 X101.92 Y89.471 E167.54115
G1 X101.921 Y164.883 E172.80839
M204 S3000
M205 X10 Y10
G0 F3000 X101.851 Y164.813
G0 X101.834 Y45.154
G0 X102.384 Y44.722
M204 S1800
M205 X8 Y8
;TYPE:WALL-OUTER
G1 F1800 X102.464 Y44.901 E172.82209
G1 X102.48 Y89.471 E175.93514
G1 X102.481 Y164.969 E181.20839
G1 X102.432 Y165.193 E181.22441
G1 X102.317 Y165.351 E181.23806
G1 X102.159 Y165.443 E181.25083
G1 X57.94 Y165.477 E184.33936
G1 X31.967 Y165.476 E186.15348
G1 X31.762 Y165.41 E186.16852
G1 X31.616 Y165.278 E186.18227
G1 X31.536 Y165.099 E186.19596
G1 X31.52 Y120.529 E189.30901
G1 X31.519 Y45.031 E194.58227
G1 X31.568 Y44.807 E194.59828
G1 X31.683 Y44.649 E194.61193
G1 X31.867 Y44.541 E194.62683
G1 X31.948 Y44.525 E194.6326
G1 X102.038 Y44.524 E199.52813
G1 X102.236 Y44.588 E199.54266
G1 X102.384 Y44.722 E199.55661
M204 S3000
M205 X10 Y10
G0 F3000 X102.464 Y44.901
G0 X102.464 Y44.905
G0 X101.834 Y45.154
G0 X100.794 Y46.194
M204 S1800
M205 X8 Y8
;TYPE:SKIN
G1 F1800 X100.81 Y89.471 E202.57934
G1 X100.811 Y163.773 E207.76906
G1 X57.94 Y163.807 E210.76344
G1 X33.206 Y163.806 E212.49102
G1 X33.19 Y120.529 E215.51376
G1 X33.189 Y46.195 E220.70571
G1 X100.794 Y46.194 E225.42767
M204 S3000
M205 X10 Y10
G0 F3000 X100.307 Y46.454
M204 S1800
M205 X8 Y8
G1 F1800 X100.534 Y46.681 E225.45009
M204 S3000
M205 X10 Y10
G0 F3000 X100.534 Y47.473
M204 S1800
M205 X8 Y8
G1 F1800 X99.515 Y46.454 E225.55075
M204 S3000
M205 X10 Y10
G0 F3000 X98.723 Y46.454
M204 S1800
M205 X8 Y8
G1 F1800 X100.534 Y48.264 E225.72958
M204 S3000
M205 X10 Y10
G0 F3000 X100.535 Y49.057
M204 S1800
M205 X8 Y8
G1 F1800 X97.931 Y46.454 E225.98675
M204 S3000
M205 X10 Y10
G0 F3000 X97.139 Y46.454
M204 S1800
M205 X8 Y8
G1 F1800 X100.535 Y49.849 E226.32215
M204 S3000
M205 X10 Y10
G0 F3000 X100.535 Y50.642
M204 S1800
M205 X8 Y8
G1 F1800 X96.347 Y46.454 E226.73583
M204 S3000
M205 X10 Y10
G0 F3000 X95.555 Y46.454
M204 S1800
M205 X8 Y8
G1 F1800 X100.535 Y51.434 E227.22774
M204 S3000
M205 X10 Y10
G0 F3000 X100.536 Y52.226
M204 S1800
M205 X8 Y8
G1 F1800 X94.763 Y46.454 E227.79794
M204 S3000
M205 X10 Y10
G0 F3000 X93.971 Y46.454
M204 S1800
M205 X8 Y8
G1 F1800 X100.536 Y53.018 E228.44636
M204 S3000
M205 X10 Y10
G0 F3000 X100.536 Y53.81
M204 S1800
M205 X8 Y8
G1 F1800 X93.179 Y46.454 E229.17302
M204 S3000
M205 X10 Y10
G0 F3000 X92.387 Y46.454
M204 S1800
M205 X8 Y8
G1 F1800 X100.537 Y54.603 E229.97801
M204 S3000
M205 X10 Y10
G0 F3000 X100.537 Y55.395
M204 S1800
M205 X8 Y8
G1 F1800 X91.595 Y46.454 E230.86123
M204 S3000
M205 X10 Y10
G0 F3000 X90.803 Y46.454
M204 S1800
M205 X8 Y8
G1 F1800 X100.537 Y56.188 E231.82273
M204 S3000
M205 X10 Y10
G0 F3000 X100.537 Y56.98
M204 S1800
M205 X8 Y8
G1 F1800 X90.011 Y46.454 E232.86246
M204 S3000
M205 X10 Y10
G0 F3000 X89.219 Y46.454
M204 S1800
M205 X8 Y8
G1 F1800 X100.538 Y57.772 E233.98047
M204 S3000
M205 X10 Y10
G0 F3000 X100.538 Y58.564
M204 S1800
M205 X8 Y8
G1 F1800 X88.427 Y46.454 E235.17672
M204 S3000
M205 X10 Y10
G0 F3000 X87.635 Y46.454
M204 S1800
M205 X8 Y8
G1 F1800 X100.538 Y59.356 E236.4512
M204 S3000
M205 X10 Y10
G0 F3000 X100.539 Y60.149
M204 S1800
M205 X8 Y8
G1 F1800 X86.844 Y46.454 E237.80396
M204 S3000
M205 X10 Y10
G0 F3000 X86.052 Y46.454
M204 S1800
M205 X8 Y8
G1 F1800 X100.539 Y60.941 E239.23495
M204 S3000
M205 X10 Y10
G0 F3000 X100.539 Y61.733
M204 S1800
M205 X8 Y8
G1 F1800 X85.26 Y46.454 E240.74417
M204 S3000
M205 X10 Y10
G0 F3000 X84.468 Y46.454
M204 S1800
M205 X8 Y8
G1 F1800 X100.539 Y62.525 E242.33162
M204 S3000
M205 X10 Y10
G0 F3000 X100.54 Y63.318
M204 S1800
M205 X8 Y8
G1 F1800 X83.676 Y46.454 E243.99741
M204 S3000
M205 X10 Y10
G0 F3000 X82.884 Y46.454
M204 S1800
M205 X8 Y8
G1 F1800 X100.54 Y64.11 E245.74142
M204 S3000
M205 X10 Y10
G0 F3000 X100.54 Y64.902
M204 S1800
M205 X8 Y8
G1 F1800 X82.092 Y46.454 E247.56367
M204 S3000
M205 X10 Y10
G0 F3000 X81.3 Y46.454
M204 S1800
M205 X8 Y8
G1 F1800 X100.541 Y65.695 E249.46425
M204 S3000
M205 X10 Y10
G0 F3000 X100.541 Y66.487
M204 S1800
M205 X8 Y8
G1 F1800 X80.508 Y46.454 E251.44306
M204 S3000
M205 X10 Y10
G0 F3000 X79.716 Y46.454
M204 S1800
M205 X8 Y8
G1 F1800 X100.542 Y67.279 E253.50015
M204 S3000
M205 X10 Y10
G0 F3000 X100.542 Y68.071
M204 S1800
M205 X8 Y8
G1 F1800 X78.924 Y46.454 E255.63548
M204 S3000
M205 X10 Y10
G0 F3000 X78.132 Y46.454
M204 S1800
M205 X8 Y8
