;FLAVOR:Marlin
;TIME:14378
;Filament used: 24.6444m
;Layer height: 0.3
;MINX:24.883
;MINY:37.841
;MINZ:0.3
;MAXX:185.159
;MAXY:172.16
;MAXZ:21.9
;Generated with Cura_SteamEngine master
M140 S60
M105
M190 S60
M104 S200
M105
M109 S200
M82 ;absolute extrusion mode
G21 ;metric values
G90 ;absolute positioning
M82 ;set extruder to absolute mode
M107 ;start with the fan off
G28 X0 Y0 ;move X/Y to min endstops
G28 Z0 ;move Z to min endstops
G1 Z15.0 F100 ;move the platform down 15mm
G92 E0 ;zero the extruded length
G1 F200 E3 ;extrude 3mm of feed stock
G92 E0 ;zero the extruded length again
G1 F100
M117 Printing...
G5
M141 S28
G92 E0
G92 E0
G1 F2400 E-6
;LAYER_COUNT:73
;LAYER:0
M106 S255
M204 S3000
M205 X10 Y10
G0 F3000 X27.763 Y39.304 Z0.3
M204 S1800
M205 X8 Y8
;TYPE:SKIRT
G1 F2400 E0
G1 X28.373 Y38.929 E0.05001
G1 X28.893 Y38.678 E0.09034
G1 X29.399 Y38.461 E0.1288
G1 X30.071 Y38.216 E0.17876
G1 X30.766 Y38.048 E0.2287
G1 X31.749 Y37.945 E0.29773
G1 X32.27 Y37.931 E0.33414
G1 X32.442 Y37.929 E0.34615
G1 X60.821 Y37.929 E2.32832
G1 X61.394 Y37.927 E2.36834
G1 X76.281 Y37.841 E3.40816
G1 X76.33 Y37.841 E3.41158
G1 X101.625 Y37.889 E5.17835
G1 X101.714 Y37.89 E5.18456
G1 X103.483 Y37.918 E5.30814
G1 X107.094 Y37.908 E5.56035
G1 X108.694 Y37.874 E5.67213
G1 X108.823 Y37.873 E5.68114
G1 X133.931 Y37.842 E7.43484
G1 X133.939 Y37.842 E7.4354
G1 X177.373 Y37.841 E10.46911
G1 X177.465 Y37.842 E10.47553
G1 X178.161 Y37.852 E10.52415
G1 X178.874 Y37.902 E10.57407
G1 X179.578 Y38.031 E10.62406
G1 X180.521 Y38.339 E10.69335
G1 X180.697 Y38.412 E10.70666
G1 X181.341 Y38.723 E10.75661
G1 X181.947 Y39.103 E10.80657
G1 X182.506 Y39.549 E10.85652
G1 X182.881 Y39.912 E10.89298
G1 X183.058 Y40.098 E10.91091
G1 X183.162 Y40.21 E10.92158
G1 X183.426 Y40.501 E10.94903
G1 X183.876 Y41.057 E10.99899
G1 X184.262 Y41.659 E11.04894
G1 X184.577 Y42.301 E11.09888
G1 X184.773 Y42.825 E11.13796
G1 X184.835 Y43.016 E11.15199
G1 X185.018 Y43.708 E11.20198
G1 X185.144 Y44.762 E11.27612
G1 X185.155 Y45.068 E11.29751
G1 X185.159 Y45.309 E11.31435
G1 X184.957 Y159.371 E19.28117
G1 X184.991 Y162.114 E19.47277
G1 X185.102 Y164.834 E19.66291
G1 X185.091 Y165.549 E19.71285
G1 X185 Y166.259 E19.76285
G1 X184.779 Y167.119 E19.82487
G1 X184.702 Y167.35 E19.84188
G1 X184.438 Y168.015 E19.89185
G1 X184.102 Y168.646 E19.94178
G1 X183.697 Y169.236 E19.99177
G1 X183.03 Y169.973 E20.0612
G1 X182.672 Y170.312 E20.09563
G1 X182.126 Y170.774 E20.14559
G1 X181.464 Y171.212 E20.20103
G1 X181.358 Y171.273 E20.20957
G1 X180.719 Y171.595 E20.25955
G1 X180.048 Y171.843 E20.30952
G1 X179.354 Y172.015 E20.35946
G1 X178.645 Y172.108 E20.4094
G1 X178.284 Y172.125 E20.43464
G1 X177.363 Y172.142 E20.49898
G1 X177.247 Y172.143 E20.50709
G1 X126.073 Y172.159 E24.0814
G1 X126.061 Y172.159 E24.08224
G1 X108.61 Y172.133 E25.30113
G1 X108.521 Y172.132 E25.30734
G1 X106.656 Y172.103 E25.43762
G1 X103.415 Y172.107 E25.664
G1 X101.418 Y172.143 E25.8035
G1 X101.306 Y172.144 E25.81132
G1 X76.065 Y172.159 E27.57431
G1 X76.061 Y172.159 E27.57459
G1 X32.627 Y172.16 E30.6083
G1 X32.535 Y172.159 E30.61472
G1 X31.838 Y172.149 E30.66341
G1 X31.125 Y172.099 E30.71333
G1 X30.421 Y171.97 E30.76332
G1 X29.737 Y171.762 E30.81326
G1 X29.379 Y171.62 E30.84016
G1 X29.165 Y171.527 E30.85646
G1 X28.526 Y171.205 E30.90644
G1 X27.927 Y170.815 E30.95636
G1 X27.449 Y170.427 E30.99936
G1 X27.117 Y170.13 E31.03047
G1 X26.611 Y169.624 E31.08046
G1 X26.165 Y169.065 E31.1304
G1 X25.785 Y168.459 E31.18036
G1 X25.563 Y168.02 E31.21472
G1 X25.462 Y167.799 E31.2317
G1 X25.202 Y167.133 E31.28163
G1 X25.017 Y166.442 E31.3316
G1 X24.911 Y165.735 E31.38153
G1 X24.883 Y165.086 E31.4269
G1 X24.895 Y163.64 E31.5279
G1 X24.897 Y163.533 E31.53538
G1 X24.905 Y163.205 E31.55829
G1 X24.928 Y161.061 E31.70805
G1 X24.929 Y94.962 E36.32482
G1 X24.928 Y46.935 E39.67933
G1 X24.907 Y45.417 E39.78537
G1 X24.906 Y45.329 E39.79151
G1 X24.906 Y44.752 E39.83182
G1 X24.946 Y44.038 E39.88176
G1 X25.065 Y43.333 E39.9317
G1 X25.263 Y42.645 E39.98171
G1 X25.536 Y41.984 E40.03166
G1 X25.74 Y41.592 E40.06252
G1 X25.849 Y41.4 E40.07794
G1 X26.237 Y40.799 E40.12791
G1 X26.689 Y40.245 E40.17785
G1 X27.2 Y39.744 E40.22783
G1 X27.763 Y39.304 E40.27774
M204 S3000
M205 X10 Y10
G0 F3000 X28.184 Y39.695
M204 S1800
M205 X8 Y8
G1 F2400 X28.774 Y39.351 E40.32544
G1 X29.113 Y39.193 E40.35157
G1 X29.619 Y38.976 E40.39002
G1 X30.262 Y38.744 E40.43777
G1 X30.927 Y38.588 E40.48548
G1 X31.764 Y38.505 E40.54422
G1 X32.285 Y38.491 E40.58063
G1 X32.442 Y38.489 E40.59159
G1 X60.823 Y38.489 E42.5739
G1 X61.397 Y38.487 E42.61399
G1 X76.284 Y38.401 E43.65381
G1 X76.329 Y38.401 E43.65696
G1 X101.624 Y38.449 E45.42372
G1 X101.705 Y38.45 E45.42938
G1 X103.475 Y38.478 E45.55302
G1 X107.108 Y38.468 E45.80677
G1 X108.706 Y38.434 E45.91841
G1 X108.824 Y38.433 E45.92666
G1 X133.932 Y38.402 E47.68036
G1 X133.939 Y38.402 E47.68085
G1 X177.373 Y38.401 E50.71455
G1 X177.457 Y38.402 E50.72042
G1 X178.153 Y38.412 E50.76904
G1 X178.834 Y38.461 E50.81672
G1 X179.505 Y38.59 E50.86445
G1 X180.306 Y38.857 E50.92342
G1 X180.482 Y38.93 E50.93673
G1 X181.097 Y39.228 E50.98446
G1 X181.673 Y39.596 E51.0322
G1 X182.202 Y40.029 E51.07995
G1 X182.476 Y40.298 E51.10677
G1 X182.653 Y40.484 E51.12471
G1 X182.747 Y40.586 E51.13439
G1 X183.011 Y40.877 E51.16184
G1 X183.44 Y41.409 E51.20957
G1 X183.804 Y41.987 E51.25728
G1 X184.097 Y42.604 E51.30499
G1 X184.241 Y42.998 E51.33429
G1 X184.303 Y43.189 E51.34831
G1 X184.475 Y43.85 E51.39602
G1 X184.584 Y44.782 E51.46156
G1 X184.595 Y45.088 E51.48295
G1 X184.599 Y45.308 E51.49832
G1 X184.397 Y159.378 E59.46569
G1 X184.431 Y162.144 E59.6589
G1 X184.542 Y164.857 E59.84856
G1 X184.53 Y165.54 E59.89627
G1 X184.438 Y166.217 E59.94399
G1 X184.247 Y166.942 E59.99635
G1 X184.17 Y167.173 E60.01336
G1 X183.917 Y167.807 E60.06104
G1 X183.591 Y168.408 E60.1088
G1 X183.197 Y168.966 E60.15651
G1 X182.645 Y169.566 E60.21345
G1 X182.287 Y169.905 E60.24789
G1 X181.765 Y170.345 E60.29557
G1 X181.185 Y170.727 E60.34408
G1 X181.079 Y170.788 E60.35262
G1 X180.468 Y171.093 E60.40032
G1 X179.825 Y171.325 E60.44807
G1 X179.16 Y171.481 E60.49577
G1 X178.274 Y171.565 E60.55794
G1 X177.353 Y171.582 E60.62227
G1 X177.247 Y171.583 E60.62968
G1 X126.073 Y171.599 E64.20399
G1 X126.062 Y171.599 E64.20476
G1 X108.611 Y171.573 E65.42365
G1 X108.529 Y171.572 E65.42938
G1 X106.664 Y171.543 E65.55966
G1 X103.404 Y171.547 E65.78736
G1 X101.407 Y171.583 E65.92686
G1 X101.305 Y171.584 E65.93399
G1 X76.064 Y171.599 E67.69698
G1 X76.061 Y171.599 E67.69719
G1 X32.627 Y171.6 E70.73089
G1 X32.543 Y171.599 E70.73676
G1 X31.846 Y171.589 E70.78544
G1 X31.165 Y171.54 E70.83313
G1 X30.494 Y171.411 E70.88086
G1 X29.602 Y171.106 E70.9467
G1 X29.388 Y171.013 E70.963
G1 X28.779 Y170.705 E71.01067
G1 X28.209 Y170.327 E71.05844
G1 X27.822 Y170.01 E71.09338
G1 X27.49 Y169.713 E71.12449
G1 X27.009 Y169.228 E71.1722
G1 X26.587 Y168.691 E71.21991
G1 X26.231 Y168.107 E71.26768
G1 X26.072 Y167.787 E71.29264
G1 X25.971 Y167.566 E71.30961
G1 X25.724 Y166.93 E71.35726
G1 X25.553 Y166.268 E71.40502
G1 X25.461 Y165.591 E71.45274
G1 X25.443 Y165.091 E71.48768
G1 X25.455 Y163.645 E71.58869
G1 X25.457 Y163.547 E71.59553
G1 X25.465 Y163.225 E71.61803
G1 X25.488 Y161.067 E71.76877
G1 X25.489 Y94.962 E76.38595
G1 X25.488 Y46.935 E79.74046
G1 X25.467 Y45.409 E79.84706
G1 X25.466 Y45.329 E79.85265
G1 X25.466 Y44.752 E79.89295
G1 X25.506 Y44.07 E79.94066
G1 X25.625 Y43.397 E79.9884
G1 X25.822 Y42.743 E80.03611
G1 X26.227 Y41.869 E80.10339
G1 X26.336 Y41.677 E80.11881
G1 X26.708 Y41.103 E80.16658
G1 X27.144 Y40.577 E80.2143
G1 X27.638 Y40.106 E80.26198
G1 X28.184 Y39.695 E80.30971
M204 S3000
M205 X10 Y10
G0 F3000 X28.601 Y40.092
M204 S1800
M205 X8 Y8
G1 F2400 X29.334 Y39.707 E80.36754
G1 X29.84 Y39.49 E80.40599
G1 X30.452 Y39.272 E80.45137
G1 X31.085 Y39.13 E80.49668
G1 X31.779 Y39.065 E80.54537
G1 X32.3 Y39.051 E80.58177
G1 X32.442 Y39.049 E80.59169
G1 X60.825 Y39.049 E82.57414
G1 X61.4 Y39.047 E82.6143
G1 X76.287 Y38.961 E83.65412
G1 X76.328 Y38.961 E83.65698
G1 X101.623 Y39.009 E85.42375
G1 X101.696 Y39.01 E85.42885
G1 X103.468 Y39.038 E85.55263
G1 X107.121 Y39.028 E85.80778
G1 X108.718 Y38.994 E85.91935
G1 X108.824 Y38.993 E85.92675
G1 X133.932 Y38.962 E87.68045
G1 X133.939 Y38.962 E87.68094
G1 X177.373 Y38.961 E90.71465
G1 X177.449 Y38.962 E90.71996
G1 X178.145 Y38.972 E90.76857
G1 X178.793 Y39.021 E90.81396
G1 X179.429 Y39.149 E90.85928
G1 X180.092 Y39.374 E90.90818
G1 X180.268 Y39.447 E90.92149
G1 X180.851 Y39.732 E90.96681
G1 X181.396 Y40.087 E91.01224
G1 X182.07 Y40.684 E91.07513
G1 X182.247 Y40.87 E91.09306
G1 X182.333 Y40.962 E91.10186
G1 X182.597 Y41.253 E91.1293
G1 X183.003 Y41.76 E91.17467
G1 X183.343 Y42.313 E91.22001
G1 X183.708 Y43.171 E91.28514
G1 X183.77 Y43.362 E91.29916
G1 X183.932 Y43.991 E91.34453
G1 X184.025 Y44.802 E91.40155
G1 X184.036 Y45.108 E91.42293
G1 X184.039 Y45.307 E91.43683
G1 X183.837 Y159.385 E99.40477
G1 X183.871 Y162.138 E99.59707
G1 X183.983 Y164.88 E99.78875
G1 X183.969 Y165.529 E99.83409
G1 X183.876 Y166.172 E99.87947
G1 X183.716 Y166.765 E99.92237
G1 X183.639 Y166.996 E99.93938
G1 X183.396 Y167.598 E99.98472
G1 X183.081 Y168.166 E100.03009
G1 X182.699 Y168.691 E100.07544
G1 X182.26 Y169.16 E100.1203
G1 X181.902 Y169.499 E100.15474
G1 X181.404 Y169.916 E100.20011
G1 X180.906 Y170.241 E100.24164
G1 X180.8 Y170.302 E100.25019
G1 X180.218 Y170.591 E100.29557
G1 X179.605 Y170.806 E100.34095
G1 X178.97 Y170.944 E100.38633
G1 X178.263 Y171.005 E100.4359
G1 X177.342 Y171.022 E100.50024
G1 X177.247 Y171.023 E100.50687
G1 X126.073 Y171.039 E104.08119
G1 X126.063 Y171.039 E104.08189
G1 X108.612 Y171.013 E105.30077
G1 X108.538 Y171.012 E105.30594
G1 X106.672 Y170.983 E105.43629
G1 X103.393 Y170.987 E105.66532
G1 X101.397 Y171.023 E105.80475
G1 X101.305 Y171.024 E105.81118
G1 X76.064 Y171.039 E107.57417
G1 X76.061 Y171.039 E107.57438
G1 X32.627 Y171.04 E110.60808
G1 X32.551 Y171.039 E110.61339
G1 X31.854 Y171.029 E110.66208
G1 X31.207 Y170.98 E110.7074
G1 X30.57 Y170.852 E110.75278
G1 X29.826 Y170.592 E110.80783
G1 X29.612 Y170.499 E110.82413
G1 X29.033 Y170.204 E110.86951
G1 X28.495 Y169.841 E110.91485
G1 X28.196 Y169.592 E110.94202
G1 X27.864 Y169.295 E110.97314
G1 X27.407 Y168.833 E111.01853
G1 X27.011 Y168.318 E111.0639
G1 X26.582 Y167.555 E111.12504
G1 X26.481 Y167.334 E111.14201
G1 X26.248 Y166.727 E111.18742
G1 X26.091 Y166.097 E111.23277
G1 X26.012 Y165.452 E111.27816
G1 X26.003 Y165.095 E111.3031
G1 X26.015 Y163.649 E111.4041
G1 X26.017 Y163.561 E111.41025
G1 X26.025 Y163.238 E111.43282
G1 X26.048 Y161.073 E111.58405
G1 X26.049 Y94.962 E116.20165
G1 X26.048 Y47.007 E119.55113
G1 X26.026 Y45.401 E119.66332
G1 X26.026 Y44.752 E119.70865
G1 X26.066 Y44.104 E119.75399
G1 X26.185 Y43.465 E119.79939
G1 X26.382 Y42.846 E119.84476
G1 X26.714 Y42.145 E119.89894
G1 X26.823 Y41.953 E119.91436
G1 X27.178 Y41.409 E119.95973
G1 X27.597 Y40.913 E120.00508
G1 X28.074 Y40.471 E120.0505
G1 X28.601 Y40.092 E120.09584
M204 S3000
M205 X10 Y10
G1 F2400 E114.09584
;MESH:Josh Cursive (2).stl
G0 F3000 X31.593 Y43.755
G0 X32.182 Y45.185
G0 X61.096 Y45.729
M204 S1800
M205 X8 Y8
;TYPE:WALL-INNER
G1 F2400 E120.09584
G1 F1800 X76.066 Y45.641 E121.14146
G1 X101.352 Y45.673 E122.90759
G1 X101.36 Y89.47 E125.96665
G1 X101.361 Y164.343 E131.19625
G1 X76.061 Y164.359 E132.96336
G1 X33.008 Y164.36 E135.97046
G1 X32.728 Y164.36 E135.99001
G1 X32.728 Y164.08 E136.00267
G1 X32.729 Y94.961 E140.83038
G1 X32.728 Y45.731 E144.26891
G1 X61.096 Y45.729 E146.25031
M204 S3000
M205 X10 Y10
G0 F3000 X61.094 Y45.169
M204 S1800
M205 X8 Y8
G1 F1800 X76.064 Y45.081 E147.29593
G1 X101.885 Y45.114 E149.09943
G1 X101.912 Y45.157 E149.10298
G1 X101.92 Y89.47 E152.19807
G1 X101.921 Y164.802 E157.45973
G1 X101.836 Y164.903 E157.46895
G1 X76.061 Y164.919 E159.26924
G1 X32.448 Y164.92 E162.31545
G1 X32.168 Y164.92 E162.33501
G1 X32.168 Y164.64 E162.34766
G1 X32.169 Y94.961 E167.21448
G1 X32.168 Y45.171 E170.69213
G1 X61.094 Y45.169 E172.7125
M204 S3000
M205 X10 Y10
G0 F3000 X61.094 Y45.269
G0 X31.677 Y165.125
G0 X31.608 Y165.117
M204 S1800
M205 X8 Y8
;TYPE:WALL-OUTER
G1 F1800 X31.608 Y165.097 E172.7139
G1 X31.609 Y94.961 E177.61264
G1 X31.608 Y44.979 E181.1037
G1 X31.586 Y44.805 E181.11595
G1 X31.605 Y44.771 E181.11867
G1 X31.997 Y44.611 E181.14824
G1 X61.092 Y44.609 E183.18042
G1 X76.062 Y44.521 E184.22603
G1 X102.065 Y44.554 E186.04225
G1 X102.177 Y44.563 E186.0501
G1 X102.223 Y44.594 E186.05397
G1 X102.472 Y44.999 E186.08718
G1 X102.48 Y89.47 E189.19331
G1 X102.481 Y164.964 E194.46629
G1 X102.464 Y165.026 E194.47078
G1 X102.148 Y165.402 E194.50508
G1 X102.064 Y165.463 E194.51233
G1 X76.061 Y165.479 E196.32855
G1 X32 Y165.48 E199.40604
G1 X31.98 Y165.48 E199.40744
G1 X31.867 Y165.428 E199.41613
G1 X31.601 Y165.19 E199.44106
G1 X31.581 Y165.145 E199.4445
G1 X31.608 Y165.117 E199.44631
M204 S3000
M205 X10 Y10
G0 F3000 X31.608 Y165.097
G0 X31.608 Y164.917
G0 X31.682 Y165.129
G0 X33.278 Y163.81
M204 S1800
M205 X8 Y8
;TYPE:SKIN
G1 F1800 X33.279 Y94.961 E204.25516
G1 X33.278 Y46.281 E207.65528
G1 X61.098 Y46.279 E209.5984
G1 X76.07 Y46.191 E210.64416
G1 X100.802 Y46.223 E212.3716
G1 X100.81 Y89.47 E215.39224
G1 X100.811 Y163.793 E220.58343
G1 X76.061 Y163.809 E222.31212
G1 X33.278 Y163.81 E225.30035
M204 S3000
M205 X10 Y10
G0 F3000 X33.667 Y163.548
M204 S1800
M205 X8 Y8
G1 F1800 X33.538 Y163.419 E225.3131
M204 S3000
M205 X10 Y10
G0 F3000 X33.538 Y162.627
M204 S1800
M205 X8 Y8
G1 F1800 X34.459 Y163.548 E225.40407
M204 S3000
M205 X10 Y10
G0 F3000 X35.251 Y163.548
M204 S1800
M205 X8 Y8
G1 F1800 X33.538 Y161.835 E225.57328
M204 S3000
M205 X10 Y10
G0 F3000 X33.538 Y161.043
M204 S1800
M205 X8 Y8
G1 F1800 X36.043 Y163.548 E225.82072
M204 S3000
M205 X10 Y10
G0 F3000 X36.835 Y163.548
M204 S1800
M205 X8 Y8
G1 F1800 X33.538 Y160.251 E226.14638
M204 S3000
M205 X10 Y10
G0 F3000 X33.538 Y159.459
M204 S1800
M205 X8 Y8
G1 F1800 X37.627 Y163.548 E226.55029
M204 S3000
M205 X10 Y10
G0 F3000 X38.419 Y163.548
M204 S1800
M205 X8 Y8
G1 F1800 X33.538 Y158.667 E227.03242
M204 S3000
M205 X10 Y10
G0 F3000 X33.538 Y157.875
M204 S1800
M205 X8 Y8
G1 F1800 X39.211 Y163.548 E227.59278
M204 S3000
M205 X10 Y10
G0 F3000 X40.003 Y163.548
M204 S1800
M205 X8 Y8
G1 F1800 X33.538 Y157.083 E228.23138
M204 S3000
M205 X10 Y10
G0 F3000 X33.538 Y156.291
M204 S1800
M205 X8 Y8
G1 F1800 X40.795 Y163.548 E228.94821
M204 S3000
M205 X10 Y10
G0 F3000 X41.587 Y163.548
M204 S1800
M205 X8 Y8
G1 F1800 X33.538 Y155.499 E229.74327
M204 S3000
M205 X10 Y10
G0 F3000 X33.538 Y154.707
M204 S1800
M205 X8 Y8
G1 F1800 X42.379 Y163.548 E230.61656
M204 S3000
M205 X10 Y10
G0 F3000 X43.17 Y163.548
M204 S1800
M205 X8 Y8
G1 F1800 X33.538 Y153.915 E231.56804
M204 S3000
M205 X10 Y10
G0 F3000 X33.538 Y153.123
M204 S1800
M205 X8 Y8
G1 F1800 X43.962 Y163.548 E232.59774
M204 S3000
M205 X10 Y10
G0 F3000 X44.754 Y163.548
M204 S1800
M205 X8 Y8
G1 F1800 X33.538 Y152.332 E233.70563
M204 S3000
M205 X10 Y10
G0 F3000 X33.538 Y151.54
M204 S1800
M205 X8 Y8
G1 F1800 X45.546 Y163.548 E234.89175
M204 S3000
M205 X10 Y10
G0 F3000 X46.338 Y163.548
M204 S1800
M205 X8 Y8
G1 F1800 X33.538 Y150.748 E236.15611
M204 S3000
M205 X10 Y10
G0 F3000 X33.538 Y149.956
M204 S1800
M205 X8 Y8
G1 F1800 X47.13 Y163.548 E237.49869
M204 S3000
M205 X10 Y10
G0 F3000 X47.922 Y163.548
M204 S1800
M205 X8 Y8
G1 F1800 X33.538 Y149.164 E238.91951
M204 S3000
M205 X10 Y10
G0 F3000 X33.538 Y148.372
M204 S1800
M205 X8 Y8
G1 F1800 X48.714 Y163.548 E240.41856
M204 S3000
M205 X10 Y10
G0 F3000 X49.506 Y163.548
M204 S1800
M205 X8 Y8
G1 F1800 X33.538 Y147.58 E241.99584
M204 S3000
M205 X10 Y10
G0 F3000 X33.538 Y146.788
M204 S1800
M205 X8 Y8
G1 F1800 X50.298 Y163.548 E243.65135
M204 S3000
M205 X10 Y10
G0 F3000 X51.09 Y163.548
M204 S1800
M205 X8 Y8
G1 F1800 X33.538 Y145.996 E245.38509
M204 S3000
M205 X10 Y10
G0 F3000 X33.538 Y145.204
M204 S1800
M205 X8 Y8
G1 F1800 X51.882 Y163.548 E247.19707
M204 S3000
M205 X10 Y10
G0 F3000 X52.674 Y163.548
M204 S1800
M205 X8 Y8
G1 F1800 X33.538 Y144.412 E249.08728
M204 S3000
M205 X10 Y10
G0 F3000 X33.538 Y143.62
M204 S1800
M205 X8 Y8
