;FLAVOR:Marlin
;TIME:2667
;Filament used: 4.30954m
;Layer height: 0.3
;MINX:57.028
;MINY:47.861
;MINZ:0.3
;MAXX:155.589
;MAXY:183.573
;MAXZ:17.4
;Generated with Cura_SteamEngine master
M140 S60
M105
M190 S60
M104 S200
M105
M109 S200
M82 ;absolute extrusion mode
G21 ;metric values
G90 ;absolute positioning
M82 ;set extruder to absolute mode
M107 ;start with the fan off
G28 X0 Y0 ;move X/Y to min endstops
G28 Z0 ;move Z to min endstops
G1 Z15.0 F100 ;move the platform down 15mm
G92 E0 ;zero the extruded length
G1 F200 E3 ;extrude 3mm of feed stock
G92 E0 ;zero the extruded length again
G1 F100
M117 Printing...
G5
G92 E0
G92 E0
G1 F2400 E-6
;LAYER_COUNT:58
;LAYER:0
M106 S255
M204 S3000
M205 X10 Y10
G1 F600 Z0.375
G0 F3000 X58.69 Y51.566 Z0.375
M204 S1800
M205 X8 Y8
;TYPE:SKIRT
G1 F600 Z0.3
G1 F2400 E0
G1 X58.831 Y51.41 E0.01469
G1 X59.004 Y51.225 E0.03238
G1 X59.185 Y51.04 E0.05046
G1 X59.235 Y50.991 E0.05535
G1 X60.081 Y50.145 E0.13891
G1 X60.555 Y49.684 E0.18509
G1 X61.095 Y49.215 E0.23505
G1 X61.683 Y48.809 E0.28496
G1 X62.314 Y48.471 E0.33496
G1 X62.978 Y48.205 E0.38492
G1 X63.668 Y48.016 E0.43489
G1 X64.374 Y47.904 E0.48482
G1 X64.891 Y47.873 E0.52099
G1 X65.451 Y47.862 E0.56011
G1 X65.577 Y47.861 E0.56891
G1 X78.596 Y47.861 E1.47824
G1 X78.688 Y47.862 E1.48467
G1 X79.386 Y47.872 E1.53343
G1 X80.099 Y47.922 E1.58335
G1 X80.803 Y48.051 E1.63334
G1 X81.322 Y48.201 E1.67107
G1 X82.13 Y48.471 E1.73058
G1 X84.74 Y49.312 E1.9221
G1 X87.288 Y50.052 E2.10743
G1 X89.837 Y50.716 E2.29141
G1 X92.413 Y51.31 E2.47605
G1 X95.017 Y51.831 E2.66154
G1 X97.634 Y52.28 E2.84699
G1 X100.248 Y52.653 E3.03142
G1 X102.866 Y52.95 E3.21545
G1 X105.506 Y53.175 E3.40052
G1 X108.178 Y53.326 E3.58744
G1 X110.788 Y53.401 E3.76982
G1 X113.43 Y53.401 E3.95435
G1 X116.103 Y53.326 E4.14112
G1 X118.749 Y53.176 E4.32623
G1 X121.377 Y52.954 E4.51044
G1 X124.003 Y52.655 E4.69504
G1 X126.63 Y52.281 E4.88038
G1 X129.228 Y51.836 E5.06448
G1 X129.623 Y51.756 E5.09263
G1 X129.716 Y51.737 E5.09926
G1 X132.256 Y51.259 E5.27979
G1 X132.675 Y51.195 E5.30939
G1 X133.63 Y51.08 E5.37658
G1 X133.842 Y51.058 E5.39146
G1 X134.061 Y51.039 E5.40682
G1 X134.402 Y51.019 E5.43068
G1 X135.065 Y50.997 E5.47701
G1 X135.259 Y50.993 E5.49056
G1 X135.973 Y50.991 E5.54043
G1 X136.301 Y50.998 E5.56335
G1 X136.714 Y51.018 E5.59223
G1 X137.102 Y51.049 E5.61942
G1 X138.296 Y51.18 E5.70331
G1 X138.75 Y51.247 E5.73537
G1 X139.586 Y51.4 E5.79473
G1 X140.016 Y51.494 E5.82547
G1 X140.937 Y51.729 E5.89186
G1 X141.34 Y51.846 E5.92117
G1 X142.183 Y52.121 E5.9831
G1 X142.591 Y52.269 E6.01342
G1 X143.437 Y52.61 E6.07713
G1 X143.827 Y52.783 E6.10693
G1 X144.709 Y53.209 E6.17534
G1 X145.084 Y53.405 E6.2049
G1 X145.798 Y53.81 E6.26223
G1 X146.172 Y54.04 E6.2929
G1 X147.038 Y54.613 E6.36543
G1 X147.387 Y54.861 E6.39533
G1 X148.019 Y55.343 E6.45085
G1 X148.334 Y55.599 E6.4792
G1 X149.04 Y56.212 E6.5445
G1 X149.376 Y56.526 E6.57662
G1 X150.084 Y57.236 E6.64666
G1 X150.383 Y57.557 E6.6773
G1 X150.946 Y58.205 E6.73725
G1 X151.205 Y58.523 E6.7659
G1 X151.766 Y59.259 E6.83054
G1 X152.016 Y59.611 E6.86069
G1 X152.522 Y60.377 E6.92481
G1 X152.754 Y60.756 E6.95585
G1 X153.218 Y61.577 E7.02172
G1 X153.41 Y61.944 E7.05065
G1 X153.785 Y62.721 E7.11091
G1 X153.957 Y63.111 E7.14068
G1 X154.31 Y63.987 E7.20665
G1 X154.464 Y64.412 E7.23822
G1 X154.744 Y65.279 E7.30186
G1 X154.855 Y65.663 E7.32978
G1 X155.075 Y66.525 E7.39192
G1 X155.17 Y66.957 E7.42281
G1 X155.344 Y67.909 E7.4904
G1 X155.407 Y68.341 E7.5209
G1 X155.508 Y69.234 E7.58367
G1 X155.542 Y69.664 E7.6138
G1 X155.584 Y70.594 E7.67882
G1 X155.589 Y71.03 E7.70927
G1 X155.568 Y71.942 E7.77299
G1 X155.545 Y72.362 E7.80237
G1 X155.464 Y73.273 E7.86625
G1 X155.412 Y73.697 E7.89609
G1 X155.272 Y74.59 E7.95922
G1 X155.188 Y75.026 E7.99024
G1 X154.978 Y75.944 E8.05601
G1 X154.873 Y76.343 E8.08483
G1 X154.625 Y77.176 E8.14553
G1 X154.487 Y77.588 E8.17588
G1 X154.147 Y78.499 E8.2438
G1 X153.985 Y78.892 E8.27349
G1 X153.626 Y79.688 E8.33448
G1 X153.427 Y80.091 E8.36587
G1 X152.978 Y80.925 E8.43203
G1 X152.771 Y81.282 E8.46085
G1 X152.325 Y81.996 E8.51965
G1 X150.959 Y84.245 E8.70344
G1 X149.636 Y86.57 E8.89029
G1 X148.384 Y88.917 E9.07608
G1 X147.21 Y91.281 E9.26044
G1 X146.105 Y93.672 E9.44441
G1 X145.054 Y96.127 E9.63094
G1 X144.091 Y98.562 E9.81383
G1 X143.189 Y101.05 E9.99868
G1 X142.349 Y103.586 E10.18527
G1 X141.593 Y106.107 E10.3691
G1 X140.902 Y108.671 E10.55458
G1 X140.278 Y111.273 E10.74147
G1 X139.741 Y113.848 E10.92519
G1 X139.275 Y116.429 E11.10838
G1 X138.879 Y119.048 E11.29339
G1 X138.556 Y121.693 E11.4795
G1 X138.237 Y125.254 E11.72922
G1 X138.224 Y125.393 E11.73897
G1 X137.911 Y128.202 E11.93638
G1 X137.687 Y130.821 E12.11998
G1 X137.535 Y133.503 E12.30761
G1 X137.461 Y136.103 E12.48928
G1 X137.461 Y138.75 E12.67416
G1 X137.536 Y141.422 E12.86087
G1 X137.686 Y144.07 E13.04612
G1 X137.909 Y146.705 E13.23082
G1 X138.072 Y148.213 E13.33676
G1 X138.212 Y149.427 E13.42212
G1 X138.25 Y149.947 E13.45853
G1 X138.261 Y150.278 E13.48167
G1 X138.265 Y150.491 E13.49655
G1 X138.266 Y166.769 E14.6335
G1 X138.266 Y166.822 E14.63721
G1 X138.26 Y167.54 E14.68736
G1 X138.257 Y167.672 E14.69658
G1 X138.235 Y168.431 E14.74961
G1 X138.211 Y168.832 E14.77767
G1 X138.172 Y169.256 E14.80741
G1 X138.134 Y169.578 E14.83006
G1 X138.045 Y170.199 E14.87388
G1 X137.971 Y170.619 E14.90366
G1 X137.835 Y171.26 E14.94943
G1 X137.741 Y171.644 E14.97705
G1 X137.588 Y172.195 E15.01699
G1 X137.455 Y172.616 E15.04782
G1 X137.221 Y173.278 E15.09687
G1 X137.071 Y173.661 E15.1256
G1 X136.873 Y174.124 E15.16077
G1 X136.701 Y174.494 E15.18927
G1 X136.361 Y175.167 E15.24193
G1 X136.15 Y175.551 E15.27253
G1 X135.873 Y176.017 E15.3104
G1 X135.648 Y176.37 E15.33964
G1 X135.295 Y176.884 E15.38319
G1 X135.052 Y177.214 E15.41181
G1 X134.642 Y177.736 E15.45818
G1 X134.366 Y178.065 E15.48817
G1 X133.969 Y178.506 E15.52961
G1 X133.692 Y178.794 E15.55752
G1 X133.233 Y179.244 E15.60242
G1 X132.913 Y179.537 E15.63273
G1 X132.477 Y179.91 E15.6728
G1 X132.147 Y180.175 E15.70236
G1 X131.582 Y180.597 E15.75162
G1 X131.254 Y180.826 E15.77956
G1 X130.815 Y181.113 E15.81619
G1 X130.448 Y181.336 E15.84619
G1 X129.85 Y181.672 E15.8941
G1 X129.472 Y181.868 E15.92384
G1 X128.896 Y182.143 E15.96842
G1 X128.522 Y182.307 E15.99694
G1 X128.006 Y182.514 E16.03578
G1 X127.614 Y182.656 E16.0649
G1 X126.951 Y182.873 E16.11362
G1 X126.556 Y182.989 E16.14238
G1 X126.055 Y183.118 E16.17851
G1 X125.626 Y183.213 E16.2092
G1 X124.86 Y183.355 E16.26361
G1 X124.457 Y183.416 E16.29208
G1 X124.008 Y183.47 E16.32367
G1 X123.583 Y183.507 E16.35347
G1 X122.886 Y183.544 E16.40222
G1 X122.657 Y183.552 E16.41822
G1 X121.614 Y183.57 E16.49108
G1 X121.504 Y183.571 E16.49877
G1 X81.825 Y183.573 E19.2702
G1 X81.731 Y183.572 E19.27676
G1 X80.643 Y183.556 E19.35276
G1 X80.238 Y183.538 E19.38108
G1 X79.458 Y183.477 E19.43573
G1 X79.037 Y183.429 E19.46532
G1 X78.569 Y183.361 E19.49835
G1 X78.163 Y183.289 E19.52715
G1 X77.412 Y183.13 E19.58077
G1 X77.021 Y183.034 E19.60889
G1 X76.504 Y182.89 E19.64638
G1 X76.089 Y182.76 E19.67675
G1 X75.469 Y182.541 E19.72268
G1 X75.09 Y182.393 E19.7511
G1 X74.579 Y182.175 E19.7899
G1 X74.2 Y181.998 E19.81912
G1 X73.542 Y181.665 E19.87063
G1 X73.162 Y181.456 E19.90092
G1 X72.696 Y181.179 E19.93878
G1 X72.345 Y180.955 E19.96787
G1 X71.832 Y180.603 E20.01132
G1 X71.499 Y180.358 E20.0402
G1 X70.976 Y179.947 E20.08666
G1 X70.653 Y179.676 E20.1161
G1 X70.21 Y179.278 E20.1577
G1 X69.904 Y178.984 E20.18734
G1 X69.479 Y178.548 E20.22987
G1 X69.196 Y178.239 E20.25913
G1 X68.732 Y177.696 E20.30902
G1 X68.534 Y177.452 E20.33097
G1 X66.997 Y175.463 E20.50654
G1 X65.331 Y173.425 E20.69039
G1 X64.553 Y172.535 E20.77296
G1 X64.496 Y172.468 E20.7791
G1 X63.595 Y171.408 E20.87627
G1 X63.163 Y170.838 E20.92623
G1 X62.797 Y170.223 E20.97621
G1 X62.502 Y169.572 E21.02614
G1 X62.282 Y168.891 E21.07612
G1 X62.139 Y168.19 E21.12609
G1 X62.074 Y167.459 E21.17735
G1 X62.064 Y167.132 E21.2002
G1 X62.061 Y166.937 E21.21382
G1 X62.06 Y155.279 E22.02809
G1 X62.061 Y155.188 E22.03445
G1 X62.071 Y154.478 E22.08404
G1 X62.147 Y153.579 E22.14706
G1 X62.309 Y152.543 E22.2203
G1 X62.325 Y152.444 E22.2273
G1 X62.383 Y152.108 E22.25112
G1 X62.763 Y149.467 E22.43748
G1 X63.064 Y146.85 E22.62148
G1 X63.292 Y144.214 E22.80628
G1 X63.447 Y141.567 E22.99148
G1 X63.525 Y138.932 E23.1756
G1 X63.529 Y136.288 E23.36028
G1 X63.457 Y133.606 E23.54767
G1 X63.314 Y131.011 E23.7292
G1 X63.09 Y128.334 E23.91683
G1 X62.799 Y125.735 E24.0995
G1 X62.423 Y123.063 E24.28796
G1 X62.161 Y121.471 E24.40065
G1 X62.082 Y120.699 E24.45486
G1 X62.067 Y120.34 E24.47995
G1 X62.061 Y120.074 E24.49854
G1 X62.06 Y109.179 E25.25951
G1 X62.022 Y106.536 E25.44414
G1 X61.91 Y103.902 E25.62828
G1 X61.721 Y101.246 E25.81426
G1 X61.459 Y98.604 E25.9997
G1 X61.125 Y95.998 E26.18321
G1 X60.709 Y93.346 E26.3707
G1 X60.231 Y90.77 E26.5537
G1 X59.676 Y88.199 E26.73741
G1 X59.041 Y85.608 E26.92374
G1 X58.343 Y83.073 E27.10739
G1 X57.506 Y80.344 E27.30676
G1 X57.35 Y79.864 E27.34201
G1 X57.168 Y79.172 E27.39199
G1 X57.064 Y78.465 E27.4419
G1 X57.04 Y78.059 E27.47031
G1 X57.033 Y77.792 E27.48897
G1 X57.032 Y77.521 E27.50789
G1 X57.061 Y75.71 E27.6344
G1 X57.067 Y73.006 E27.82327
G1 X57.031 Y71.318 E27.94119
G1 X57.03 Y71.183 E27.95062
G1 X57.028 Y56.556 E28.97226
G1 X57.029 Y56.463 E28.97876
G1 X57.039 Y55.765 E29.02752
G1 X57.089 Y55.052 E29.07744
G1 X57.218 Y54.348 E29.12743
G1 X57.426 Y53.664 E29.17737
G1 X57.708 Y53.007 E29.2273
G1 X58.062 Y52.385 E29.27729
G1 X58.69 Y51.566 E29.34938
M204 S3000
M205 X10 Y10
G0 F3000 X59.105 Y51.941
M204 S1800
M205 X8 Y8
G1 F2400 X59.246 Y51.785 E29.36406
G1 X59.405 Y51.617 E29.38022
G1 X59.586 Y51.432 E29.3983
G1 X59.63 Y51.386 E29.40274
G1 X60.413 Y50.603 E29.48009
G1 X60.471 Y50.546 E29.48577
G1 X60.945 Y50.085 E29.53195
G1 X61.462 Y49.639 E29.57964
G1 X62.028 Y49.255 E29.62741
G1 X62.634 Y48.94 E29.67512
G1 X63.273 Y48.698 E29.72284
G1 X63.936 Y48.533 E29.77056
G1 X64.902 Y48.433 E29.83839
G1 X65.462 Y48.422 E29.87752
G1 X65.577 Y48.421 E29.88555
G1 X78.596 Y48.421 E30.79488
G1 X78.68 Y48.422 E30.80075
G1 X79.378 Y48.432 E30.8495
G1 X80.059 Y48.481 E30.89719
G1 X80.73 Y48.61 E30.94492
G1 X81.145 Y48.732 E30.97513
G1 X81.99 Y49.014 E31.03735
G1 X84.579 Y49.848 E31.22733
G1 X87.135 Y50.591 E31.41325
G1 X89.681 Y51.254 E31.59701
G1 X92.314 Y51.861 E31.78574
G1 X94.916 Y52.382 E31.97108
G1 X97.535 Y52.831 E32.15668
G1 X100.176 Y53.208 E32.34301
G1 X102.825 Y53.509 E32.52923
G1 X105.464 Y53.733 E32.71422
G1 X108.13 Y53.884 E32.90072
G1 X110.807 Y53.961 E33.08778
G1 X113.446 Y53.961 E33.2721
G1 X116.116 Y53.886 E33.45867
G1 X118.793 Y53.735 E33.64594
G1 X121.415 Y53.512 E33.82974
G1 X124.075 Y53.21 E34.01673
G1 X126.729 Y52.832 E34.20397
G1 X129.312 Y52.39 E34.387
G1 X129.735 Y52.304 E34.41715
G1 X129.82 Y52.288 E34.42319
G1 X132.36 Y51.81 E34.60372
G1 X132.742 Y51.751 E34.63072
G1 X133.697 Y51.636 E34.6979
G1 X133.89 Y51.616 E34.71145
G1 X134.109 Y51.597 E34.72681
G1 X134.42 Y51.578 E34.74857
G1 X135.083 Y51.556 E34.7949
G1 X135.261 Y51.553 E34.80734
G1 X135.975 Y51.551 E34.85721
G1 X136.273 Y51.558 E34.87803
G1 X136.686 Y51.578 E34.90691
G1 X137.041 Y51.606 E34.93178
G1 X138.235 Y51.737 E35.01568
G1 X138.649 Y51.797 E35.0449
G1 X139.485 Y51.95 E35.10426
G1 X139.878 Y52.036 E35.13236
G1 X140.799 Y52.271 E35.19875
G1 X141.166 Y52.378 E35.22545
G1 X142.009 Y52.653 E35.28738
G1 X142.381 Y52.788 E35.31502
G1 X143.227 Y53.129 E35.37873
G1 X143.584 Y53.287 E35.406
G1 X144.466 Y53.713 E35.47441
G1 X144.807 Y53.892 E35.50131
G1 X145.521 Y54.297 E35.55865
G1 X145.863 Y54.507 E35.58668
G1 X146.729 Y55.08 E35.65921
G1 X147.048 Y55.306 E35.68651
G1 X147.68 Y55.788 E35.74203
G1 X147.967 Y56.022 E35.76789
G1 X148.673 Y56.635 E35.8332
G1 X148.979 Y56.921 E35.86245
G1 X149.687 Y57.631 E35.93249
G1 X149.961 Y57.925 E35.96056
G1 X150.524 Y58.573 E36.02051
G1 X150.76 Y58.863 E36.04663
G1 X151.321 Y59.599 E36.11127
G1 X151.549 Y59.92 E36.13877
G1 X152.055 Y60.686 E36.20289
G1 X152.266 Y61.032 E36.2312
G1 X152.73 Y61.853 E36.29706
G1 X152.905 Y62.188 E36.32346
G1 X153.28 Y62.965 E36.38372
G1 X153.438 Y63.32 E36.41086
G1 X153.791 Y64.196 E36.47683
G1 X153.931 Y64.584 E36.50564
G1 X154.211 Y65.451 E36.56928
G1 X154.313 Y65.802 E36.59481
G1 X154.533 Y66.664 E36.65694
G1 X154.619 Y67.058 E36.68511
G1 X154.793 Y68.01 E36.75271
G1 X154.851 Y68.404 E36.78052
G1 X154.952 Y69.297 E36.84329
G1 X154.983 Y69.69 E36.87083
G1 X155.025 Y70.62 E36.93585
G1 X155.029 Y71.017 E36.96358
G1 X155.008 Y71.929 E37.0273
G1 X154.987 Y72.312 E37.05409
G1 X154.906 Y73.223 E37.11797
G1 X154.859 Y73.611 E37.14527
G1 X154.719 Y74.504 E37.2084
G1 X154.642 Y74.901 E37.23665
G1 X154.432 Y75.819 E37.30242
G1 X154.336 Y76.183 E37.32872
G1 X154.088 Y77.016 E37.38942
G1 X153.962 Y77.392 E37.41712
G1 X153.622 Y78.303 E37.48504
G1 X153.475 Y78.662 E37.51213
G1 X153.116 Y79.458 E37.57312
G1 X152.934 Y79.825 E37.60174
G1 X152.485 Y80.659 E37.66789
G1 X152.296 Y80.985 E37.69421
G1 X151.85 Y81.699 E37.75301
G1 X150.461 Y83.986 E37.93991
G1 X149.156 Y86.279 E38.12418
G1 X147.882 Y88.668 E38.31329
G1 X146.715 Y91.019 E38.49662
G1 X145.583 Y93.466 E38.68493
G1 X144.552 Y95.877 E38.86808
G1 X143.553 Y98.403 E39.05781
G1 X142.662 Y100.86 E39.24036
G1 X141.823 Y103.394 E39.4268
G1 X141.05 Y105.969 E39.61458
G1 X140.355 Y108.548 E39.80114
G1 X139.736 Y111.131 E39.98666
G1 X139.192 Y113.737 E40.17261
G1 X138.72 Y116.355 E40.35841
G1 X138.325 Y118.965 E40.54279
G1 X138.002 Y121.606 E40.72863
G1 X137.68 Y125.204 E40.98094
G1 X137.667 Y125.331 E40.98985
G1 X137.355 Y128.129 E41.1865
G1 X137.129 Y130.779 E41.37226
G1 X136.977 Y133.455 E41.55947
G1 X136.901 Y136.122 E41.74583
G1 X136.901 Y138.766 E41.9305
G1 X136.976 Y141.433 E42.11685
G1 X137.128 Y144.113 E42.30434
G1 X137.353 Y146.77 E42.49059
G1 X137.515 Y148.277 E42.59645
G1 X137.516 Y148.277 E42.59652
G1 X137.656 Y149.491 E42.68188
G1 X137.691 Y149.966 E42.71514
G1 X137.702 Y150.297 E42.73828
G1 X137.705 Y150.491 E42.75183
G1 X137.706 Y166.769 E43.88879
G1 X137.706 Y166.818 E43.89221
G1 X137.7 Y167.536 E43.94236
G1 X137.698 Y167.656 E43.95074
G1 X137.676 Y168.415 E44.00378
G1 X137.653 Y168.781 E44.02939
G1 X137.614 Y169.205 E44.05913
G1 X137.58 Y169.499 E44.0798
G1 X137.491 Y170.12 E44.12362
G1 X137.423 Y170.503 E44.15079
G1 X137.287 Y171.144 E44.19656
G1 X137.201 Y171.495 E44.2218
G1 X137.048 Y172.046 E44.26174
G1 X136.927 Y172.429 E44.2898
G1 X136.693 Y173.091 E44.33884
G1 X136.557 Y173.441 E44.36506
G1 X136.359 Y173.904 E44.40024
G1 X136.202 Y174.241 E44.4262
G1 X135.862 Y174.914 E44.47887
G1 X135.669 Y175.265 E44.50685
G1 X135.392 Y175.731 E44.54471
G1 X135.186 Y176.053 E44.57141
G1 X134.833 Y176.567 E44.61496
G1 X134.612 Y176.868 E44.64104
G1 X134.202 Y177.39 E44.68741
G1 X133.949 Y177.69 E44.71482
G1 X133.552 Y178.131 E44.75626
G1 X133.3 Y178.394 E44.7817
G1 X132.841 Y178.844 E44.8266
G1 X132.549 Y179.112 E44.85428
G1 X132.113 Y179.485 E44.89436
G1 X131.812 Y179.726 E44.92129
G1 X131.247 Y180.148 E44.97055
G1 X130.948 Y180.357 E44.99603
G1 X130.509 Y180.644 E45.03266
G1 X130.174 Y180.847 E45.06002
G1 X129.576 Y181.183 E45.10793
G1 X129.231 Y181.362 E45.13508
G1 X128.655 Y181.637 E45.17966
G1 X128.313 Y181.787 E45.20574
G1 X127.797 Y181.994 E45.24457
G1 X127.44 Y182.124 E45.27111
G1 X126.777 Y182.341 E45.31984
G1 X126.416 Y182.447 E45.34612
G1 X125.915 Y182.576 E45.38225
G1 X125.523 Y182.662 E45.41028
G1 X124.757 Y182.804 E45.46469
G1 X124.39 Y182.86 E45.49062
G1 X123.941 Y182.914 E45.52221
G1 X123.554 Y182.948 E45.54935
G1 X122.857 Y182.985 E45.5981
G1 X122.648 Y182.992 E45.6127
G1 X121.605 Y183.01 E45.68556
G1 X121.504 Y183.011 E45.69262
G1 X81.825 Y183.013 E48.46405
G1 X81.739 Y183.012 E48.47006
G1 X80.651 Y182.996 E48.54606
G1 X80.282 Y182.979 E48.57186
G1 X79.502 Y182.918 E48.6265
G1 X79.117 Y182.875 E48.65356
G1 X78.649 Y182.807 E48.68659
G1 X78.279 Y182.741 E48.71285
G1 X77.528 Y182.582 E48.76646
G1 X77.171 Y182.495 E48.79213
G1 X76.654 Y182.351 E48.82961
G1 X76.276 Y182.232 E48.85729
G1 X75.656 Y182.013 E48.90322
G1 X75.309 Y181.878 E48.92922
