;FLAVOR:Marlin
;TIME:1706
;Filament used: 2.92979m
;Layer height: 0.3
;MINX:68.437
;MINY:58.912
;MINZ:0.3
;MAXX:141.563
;MAXY:151.088
;MAXZ:17.4
;Generated with Cura_SteamEngine master
M140 S60
M105
M190 S60
M104 S200
M105
M109 S200
M82 ;absolute extrusion mode
G21 ;metric values
G90 ;absolute positioning
M82 ;set extruder to absolute mode
M107 ;start with the fan off
G28 X0 Y0 ;move X/Y to min endstops
G28 Z0 ;move Z to min endstops
G1 Z15.0 F100 ;move the platform down 15mm
G92 E0 ;zero the extruded length
G1 F200 E3 ;extrude 3mm of feed stock
G92 E0 ;zero the extruded length again
G1 F100
M117 Printing...
G5
G92 E0
G92 E0
G1 F2400 E-6
;LAYER_COUNT:58
;LAYER:0
M106 S255
M204 S3000
M205 X10 Y10
G1 F600 Z0.375
G0 F3000 X72.413 Y64.331 Z0.375
M204 S1800
M205 X8 Y8
;TYPE:SKIRT
G1 F600 Z0.3
G1 F2400 E0
G1 X72.685 Y64.03 E0.02834
G1 X73.1 Y63.598 E0.07018
G1 X73.398 Y63.307 E0.09927
G1 X73.861 Y62.884 E0.14307
G1 X74.171 Y62.619 E0.17156
G1 X74.582 Y62.289 E0.20837
G1 X74.852 Y62.083 E0.23209
G1 X75.322 Y61.745 E0.27253
G1 X75.677 Y61.507 E0.30238
G1 X76.249 Y61.151 E0.34944
G1 X76.617 Y60.939 E0.3791
G1 X77.106 Y60.678 E0.41782
G1 X77.446 Y60.509 E0.44434
G1 X77.981 Y60.263 E0.48547
G1 X78.366 Y60.101 E0.51464
G1 X78.99 Y59.862 E0.56131
G1 X79.36 Y59.733 E0.58868
G1 X79.831 Y59.585 E0.62316
G1 X80.212 Y59.479 E0.65079
G1 X80.846 Y59.322 E0.69641
G1 X81.268 Y59.232 E0.72654
G1 X81.912 Y59.118 E0.77222
G1 X82.281 Y59.064 E0.79827
G1 X82.732 Y59.011 E0.82999
G1 X83.124 Y58.977 E0.85747
G1 X83.754 Y58.942 E0.90154
G1 X84.001 Y58.933 E0.91881
G1 X85.067 Y58.915 E0.99327
G1 X85.175 Y58.914 E1.00082
G1 X124.888 Y58.912 E3.77462
G1 X124.983 Y58.913 E3.78126
G1 X126.066 Y58.929 E3.85691
G1 X126.451 Y58.946 E3.88383
G1 X127.143 Y58.998 E3.9323
G1 X127.498 Y59.035 E3.95723
G1 X127.969 Y59.097 E3.99041
G1 X128.402 Y59.169 E4.02107
G1 X129.129 Y59.316 E4.07287
G1 X129.523 Y59.408 E4.10113
G1 X130.04 Y59.547 E4.13853
G1 X130.377 Y59.648 E4.1631
G1 X130.885 Y59.815 E4.20045
G1 X131.317 Y59.975 E4.23262
G1 X131.989 Y60.251 E4.28337
G1 X132.351 Y60.412 E4.31104
G1 X132.85 Y60.654 E4.34977
G1 X133.2 Y60.838 E4.37739
G1 X133.686 Y61.112 E4.41636
G1 X134.024 Y61.317 E4.44397
G1 X134.567 Y61.669 E4.48917
G1 X134.894 Y61.895 E4.51693
G1 X135.333 Y62.22 E4.55508
G1 X135.658 Y62.477 E4.58402
G1 X136.144 Y62.888 E4.62848
G1 X136.445 Y63.16 E4.65682
G1 X136.877 Y63.575 E4.69866
G1 X137.168 Y63.873 E4.72775
G1 X137.591 Y64.336 E4.77155
G1 X137.856 Y64.646 E4.80004
G1 X138.186 Y65.057 E4.83685
G1 X138.392 Y65.327 E4.86057
G1 X138.73 Y65.797 E4.90101
G1 X138.968 Y66.152 E4.93086
G1 X139.324 Y66.724 E4.97792
G1 X139.535 Y67.091 E5.00749
G1 X139.794 Y67.576 E5.04589
G1 X139.963 Y67.916 E5.07241
G1 X140.211 Y68.455 E5.11385
G1 X140.374 Y68.841 E5.14312
G1 X140.613 Y69.465 E5.18979
G1 X140.742 Y69.835 E5.21716
G1 X140.89 Y70.306 E5.25164
G1 X140.996 Y70.687 E5.27926
G1 X141.153 Y71.321 E5.32488
G1 X141.243 Y71.743 E5.35502
G1 X141.357 Y72.387 E5.4007
G1 X141.411 Y72.756 E5.42675
G1 X141.464 Y73.207 E5.45847
G1 X141.499 Y73.606 E5.48644
G1 X141.538 Y74.323 E5.5366
G1 X141.546 Y74.551 E5.55253
G1 X141.562 Y75.404 E5.61212
G1 X141.563 Y75.524 E5.6205
G1 X141.563 Y91.598 E6.74321
G1 X141.562 Y91.69 E6.74964
G1 X141.552 Y92.388 E6.79839
G1 X141.513 Y93.014 E6.8422
G1 X141.203 Y95.761 E7.03529
G1 X140.982 Y98.371 E7.21824
G1 X140.832 Y101.017 E7.40335
G1 X140.757 Y103.69 E7.59012
G1 X140.757 Y106.333 E7.77473
G1 X140.832 Y108.945 E7.95724
G1 X140.983 Y111.615 E8.14403
G1 X141.205 Y114.221 E8.32671
G1 X141.361 Y115.537 E8.41927
G1 X141.37 Y115.618 E8.42496
G1 X141.508 Y116.925 E8.51676
G1 X141.542 Y117.475 E8.55525
G1 X141.562 Y118.526 E8.62867
G1 X141.563 Y118.648 E8.63719
G1 X141.563 Y134.266 E9.72805
G1 X141.556 Y135.111 E9.78707
G1 X141.553 Y135.247 E9.79657
G1 X141.533 Y135.925 E9.84395
G1 X141.508 Y136.332 E9.87243
G1 X141.457 Y136.877 E9.91066
G1 X141.425 Y137.155 E9.93021
G1 X141.373 Y137.532 E9.95679
G1 X141.308 Y137.918 E9.98413
G1 X141.162 Y138.645 E10.03592
G1 X141.067 Y139.05 E10.06498
G1 X140.932 Y139.551 E10.10122
G1 X140.834 Y139.879 E10.12513
G1 X140.662 Y140.404 E10.16371
G1 X140.5 Y140.842 E10.19633
G1 X140.224 Y141.514 E10.24707
G1 X140.063 Y141.876 E10.27475
G1 X139.821 Y142.375 E10.31348
G1 X139.637 Y142.725 E10.3411
G1 X139.363 Y143.211 E10.38007
G1 X139.159 Y143.548 E10.40758
G1 X138.813 Y144.082 E10.45203
G1 X138.589 Y144.405 E10.47948
G1 X138.258 Y144.853 E10.51839
G1 X137.998 Y145.183 E10.54773
G1 X137.587 Y145.669 E10.59219
G1 X137.315 Y145.97 E10.62052
G1 X136.9 Y146.402 E10.66236
G1 X136.602 Y146.693 E10.69146
G1 X136.139 Y147.116 E10.73526
G1 X135.829 Y147.381 E10.76374
G1 X135.418 Y147.711 E10.80056
G1 X135.148 Y147.917 E10.82428
G1 X134.678 Y148.255 E10.86471
G1 X134.323 Y148.493 E10.89457
G1 X133.751 Y148.849 E10.94162
G1 X133.384 Y149.06 E10.97119
G1 X132.899 Y149.319 E11.0096
G1 X132.559 Y149.488 E11.03612
G1 X132.02 Y149.736 E11.07756
G1 X131.634 Y149.899 E11.10682
G1 X131.01 Y150.138 E11.15349
G1 X130.64 Y150.267 E11.18086
G1 X130.169 Y150.415 E11.21535
G1 X129.788 Y150.521 E11.24297
G1 X129.154 Y150.678 E11.28859
G1 X128.732 Y150.768 E11.31873
G1 X128.088 Y150.882 E11.36441
G1 X127.719 Y150.936 E11.39046
G1 X127.268 Y150.989 E11.42217
G1 X126.866 Y151.024 E11.45036
G1 X126.217 Y151.059 E11.49575
G1 X125.982 Y151.067 E11.51218
G1 X124.931 Y151.085 E11.5856
G1 X124.821 Y151.086 E11.59328
G1 X85.107 Y151.088 E14.36715
G1 X85.009 Y151.087 E14.374
G1 X83.961 Y151.071 E14.44721
G1 X83.606 Y151.056 E14.47202
G1 X82.888 Y151.005 E14.5223
G1 X82.5 Y150.965 E14.54954
G1 X82.025 Y150.902 E14.58301
G1 X81.598 Y150.831 E14.61325
G1 X80.871 Y150.684 E14.66505
G1 X80.477 Y150.592 E14.69331
G1 X79.96 Y150.453 E14.7307
G1 X79.623 Y150.352 E14.75528
G1 X79.115 Y150.185 E14.79263
G1 X78.683 Y150.025 E14.8248
G1 X78.011 Y149.749 E14.87554
G1 X77.649 Y149.588 E14.90322
G1 X77.15 Y149.346 E14.94195
G1 X76.8 Y149.162 E14.96957
G1 X76.314 Y148.888 E15.00854
G1 X75.976 Y148.683 E15.03615
G1 X75.433 Y148.331 E15.08135
G1 X75.104 Y148.103 E15.10931
G1 X74.664 Y147.777 E15.14756
G1 X74.341 Y147.522 E15.1763
G1 X73.855 Y147.111 E15.22076
G1 X73.554 Y146.839 E15.24909
G1 X73.122 Y146.424 E15.29093
G1 X72.831 Y146.125 E15.32007
G1 X72.409 Y145.663 E15.36378
G1 X72.144 Y145.354 E15.39221
G1 X71.814 Y144.943 E15.42903
G1 X71.608 Y144.673 E15.45275
G1 X71.27 Y144.203 E15.49318
G1 X71.032 Y143.848 E15.52303
G1 X70.676 Y143.276 E15.57009
G1 X70.465 Y142.909 E15.59966
G1 X70.206 Y142.424 E15.63806
G1 X70.037 Y142.085 E15.66452
G1 X69.788 Y141.544 E15.70612
G1 X69.625 Y141.155 E15.73558
G1 X69.387 Y140.533 E15.78209
G1 X69.258 Y140.165 E15.80933
G1 X69.11 Y139.694 E15.84381
G1 X69.004 Y139.313 E15.87144
G1 X68.847 Y138.679 E15.91706
G1 X68.757 Y138.257 E15.94719
G1 X68.643 Y137.613 E15.99287
G1 X68.589 Y137.244 E16.01892
G1 X68.536 Y136.793 E16.05064
G1 X68.502 Y136.401 E16.07812
G1 X68.467 Y135.771 E16.12219
G1 X68.458 Y135.524 E16.13946
G1 X68.44 Y134.46 E16.21378
G1 X68.439 Y134.352 E16.22133
G1 X68.437 Y77.122 E20.21863
G1 X68.437 Y75.588 E20.32577
G1 X68.438 Y75.49 E20.33262
G1 X68.455 Y74.379 E20.41023
G1 X68.473 Y73.987 E20.43764
G1 X68.525 Y73.31 E20.48506
G1 X68.562 Y72.952 E20.5102
G1 X68.625 Y72.481 E20.54339
G1 X68.697 Y72.055 E20.57357
G1 X68.843 Y71.336 E20.62481
G1 X68.936 Y70.944 E20.65295
G1 X69.08 Y70.41 E20.69158
G1 X69.182 Y70.067 E20.71657
G1 X69.343 Y69.58 E20.7524
G1 X69.502 Y69.152 E20.78429
G1 X69.782 Y68.472 E20.83566
G1 X69.943 Y68.112 E20.8632
G1 X70.183 Y67.618 E20.90156
G1 X70.363 Y67.275 E20.92862
G1 X70.635 Y66.792 E20.96733
G1 X70.842 Y66.451 E20.9952
G1 X71.194 Y65.908 E21.04039
G1 X71.42 Y65.581 E21.06816
G1 X71.745 Y65.142 E21.10631
G1 X72.002 Y64.817 E21.13525
G1 X72.413 Y64.331 E21.17971
M204 S3000
M205 X10 Y10
G0 F3000 X72.841 Y64.693
M204 S1800
M205 X8 Y8
G1 F2400 X73.088 Y64.418 E21.20552
G1 X73.503 Y63.986 E21.24736
G1 X73.776 Y63.72 E21.27399
G1 X74.239 Y63.297 E21.31779
G1 X74.522 Y63.055 E21.3438
G1 X74.933 Y62.725 E21.38061
G1 X75.179 Y62.538 E21.4022
G1 X75.649 Y62.2 E21.44263
G1 X75.973 Y61.983 E21.46987
G1 X76.545 Y61.627 E21.51693
G1 X76.881 Y61.433 E21.54403
G1 X77.37 Y61.172 E21.58274
G1 X77.68 Y61.018 E21.60692
G1 X78.215 Y60.772 E21.64805
G1 X78.566 Y60.624 E21.67465
G1 X79.19 Y60.385 E21.72132
G1 X79.528 Y60.268 E21.74631
G1 X79.999 Y60.12 E21.78079
G1 X80.346 Y60.022 E21.80597
G1 X80.98 Y59.865 E21.85159
G1 X81.366 Y59.783 E21.87916
G1 X82.01 Y59.669 E21.92484
G1 X82.346 Y59.62 E21.94855
G1 X82.797 Y59.567 E21.98027
G1 X83.155 Y59.536 E22.00537
G1 X83.785 Y59.501 E22.04944
G1 X84.01 Y59.493 E22.06517
G1 X85.076 Y59.475 E22.13963
G1 X85.175 Y59.474 E22.14655
G1 X124.888 Y59.472 E24.92035
G1 X124.974 Y59.473 E24.92636
G1 X126.057 Y59.489 E25.00201
G1 X126.409 Y59.504 E25.02662
G1 X127.101 Y59.556 E25.07509
G1 X127.425 Y59.59 E25.09785
G1 X127.896 Y59.652 E25.13103
G1 X128.291 Y59.718 E25.159
G1 X129.018 Y59.865 E25.2108
G1 X129.377 Y59.949 E25.23656
G1 X129.894 Y60.088 E25.27395
G1 X130.202 Y60.18 E25.2964
G1 X130.71 Y60.347 E25.33375
G1 X131.105 Y60.493 E25.36316
G1 X131.777 Y60.769 E25.41391
G1 X132.106 Y60.916 E25.43907
G1 X132.605 Y61.158 E25.47781
G1 X132.925 Y61.326 E25.50305
G1 X133.411 Y61.6 E25.54202
G1 X133.72 Y61.787 E25.56725
G1 X134.263 Y62.139 E25.61245
G1 X134.561 Y62.345 E25.63775
G1 X135 Y62.67 E25.6759
G1 X135.296 Y62.905 E25.7023
G1 X135.782 Y63.316 E25.74676
G1 X136.057 Y63.563 E25.77257
G1 X136.489 Y63.978 E25.81442
G1 X136.755 Y64.251 E25.84104
G1 X137.178 Y64.714 E25.88484
G1 X137.42 Y64.997 E25.91085
G1 X137.75 Y65.408 E25.94766
G1 X137.937 Y65.654 E25.96925
G1 X138.275 Y66.124 E26.00968
G1 X138.492 Y66.448 E26.03692
G1 X138.848 Y67.02 E26.08398
G1 X139.041 Y67.355 E26.11098
G1 X139.3 Y67.84 E26.14938
G1 X139.454 Y68.15 E26.17356
G1 X139.702 Y68.689 E26.215
G1 X139.851 Y69.041 E26.2417
G1 X140.09 Y69.665 E26.28837
G1 X140.207 Y70.003 E26.31335
G1 X140.355 Y70.474 E26.34784
G1 X140.453 Y70.821 E26.37302
G1 X140.61 Y71.455 E26.41864
G1 X140.692 Y71.841 E26.4462
G1 X140.806 Y72.485 E26.49188
G1 X140.855 Y72.821 E26.5156
G1 X140.908 Y73.272 E26.54732
G1 X140.939 Y73.637 E26.5729
G1 X140.978 Y74.354 E26.62306
G1 X140.986 Y74.561 E26.63753
G1 X141.002 Y75.414 E26.69712
G1 X141.003 Y75.524 E26.7048
G1 X141.003 Y91.598 E27.82751
G1 X141.002 Y91.682 E27.83338
G1 X140.992 Y92.38 E27.88213
G1 X140.956 Y92.951 E27.9221
G1 X140.647 Y95.685 E28.11427
G1 X140.423 Y98.33 E28.29968
G1 X140.272 Y101.005 E28.48681
G1 X140.197 Y103.674 E28.67331
G1 X140.197 Y106.314 E28.8577
G1 X140.274 Y108.991 E29.04476
G1 X140.425 Y111.659 E29.2314
G1 X140.65 Y114.305 E29.41688
G1 X140.804 Y115.603 E29.50818
G1 X140.813 Y115.677 E29.51339
G1 X140.951 Y116.984 E29.60518
G1 X140.982 Y117.486 E29.64031
G1 X141.002 Y118.537 E29.71374
G1 X141.003 Y118.648 E29.72149
G1 X141.003 Y134.261 E30.812
G1 X140.996 Y135.106 E30.87102
G1 X140.993 Y135.23 E30.87968
G1 X140.973 Y135.908 E30.92706
G1 X140.951 Y136.28 E30.95309
G1 X140.9 Y136.825 E30.99132
G1 X140.87 Y137.079 E31.00919
G1 X140.818 Y137.456 E31.03577
G1 X140.759 Y137.808 E31.0607
G1 X140.613 Y138.535 E31.11249
G1 X140.526 Y138.904 E31.13897
G1 X140.391 Y139.405 E31.17521
G1 X140.302 Y139.704 E31.197
G1 X140.13 Y140.229 E31.23559
G1 X139.982 Y140.63 E31.26544
G1 X139.706 Y141.302 E31.31618
G1 X139.559 Y141.631 E31.34135
G1 X139.317 Y142.13 E31.38009
G1 X139.149 Y142.45 E31.40533
G1 X138.875 Y142.936 E31.4443
G1 X138.689 Y143.244 E31.46943
G1 X138.343 Y143.778 E31.51387
G1 X138.139 Y144.072 E31.53887
G1 X137.808 Y144.52 E31.57777
G1 X137.57 Y144.821 E31.60457
G1 X137.159 Y145.307 E31.64903
G1 X136.912 Y145.582 E31.67485
G1 X136.497 Y146.014 E31.71669
G1 X136.224 Y146.28 E31.74331
G1 X135.761 Y146.703 E31.78711
G1 X135.478 Y146.945 E31.81312
G1 X135.067 Y147.275 E31.84994
G1 X134.821 Y147.462 E31.87152
G1 X134.351 Y147.8 E31.91196
G1 X134.027 Y148.017 E31.93919
G1 X133.455 Y148.373 E31.98625
G1 X133.12 Y148.566 E32.01325
G1 X132.635 Y148.825 E32.05166
G1 X132.325 Y148.979 E32.07583
G1 X131.786 Y149.227 E32.11728
G1 X131.434 Y149.376 E32.14397
G1 X130.81 Y149.615 E32.19065
G1 X130.472 Y149.732 E32.21563
G1 X130.001 Y149.88 E32.25011
G1 X129.654 Y149.978 E32.2753
G1 X129.02 Y150.135 E32.32092
G1 X128.634 Y150.217 E32.34848
G1 X127.99 Y150.331 E32.39416
G1 X127.654 Y150.38 E32.41788
G1 X127.203 Y150.433 E32.44959
G1 X126.835 Y150.465 E32.47539
G1 X126.186 Y150.5 E32.52079
G1 X125.972 Y150.507 E32.53574
G1 X124.921 Y150.525 E32.60916
G1 X124.821 Y150.526 E32.61615
G1 X85.107 Y150.528 E35.39002
G1 X85.018 Y150.527 E35.39624
G1 X83.97 Y150.511 E35.46945
G1 X83.645 Y150.497 E35.49217
G1 X82.927 Y150.446 E35.54244
G1 X82.573 Y150.41 E35.5673
G1 X82.098 Y150.347 E35.60077
G1 X81.709 Y150.282 E35.62831
G1 X80.982 Y150.135 E35.68012
G1 X80.623 Y150.051 E35.70587
G1 X80.106 Y149.912 E35.74326
G1 X79.798 Y149.82 E35.76572
G1 X79.29 Y149.653 E35.80307
G1 X78.895 Y149.507 E35.83248
G1 X78.223 Y149.231 E35.88322
G1 X77.894 Y149.084 E35.90839
G1 X77.395 Y148.842 E35.94712
G1 X77.075 Y148.674 E35.97237
G1 X76.589 Y148.4 E36.01134
G1 X76.28 Y148.213 E36.03656
G1 X75.737 Y147.861 E36.08176
G1 X75.437 Y147.653 E36.10726
G1 X74.997 Y147.327 E36.14551
G1 X74.703 Y147.094 E36.17171
G1 X74.217 Y146.683 E36.21617
G1 X73.942 Y146.436 E36.24198
G1 X73.51 Y146.021 E36.28382
G1 X73.244 Y145.748 E36.31045
G1 X72.822 Y145.286 E36.35415
G1 X72.58 Y145.003 E36.38016
G1 X72.25 Y144.592 E36.41698
G1 X72.063 Y144.346 E36.43856
G1 X71.725 Y143.876 E36.47899
G1 X71.508 Y143.552 E36.50623
G1 X71.152 Y142.98 E36.55329
G1 X70.959 Y142.645 E36.58029
G1 X70.7 Y142.16 E36.6187
G1 X70.546 Y141.851 E36.64281
G1 X70.297 Y141.31 E36.68441
G1 X70.148 Y140.955 E36.7113
G1 X69.91 Y140.333 E36.75781
G1 X69.793 Y139.997 E36.78266
G1 X69.645 Y139.526 E36.81715
G1 X69.547 Y139.179 E36.84233
G1 X69.39 Y138.545 E36.88795
G1 X69.308 Y138.159 E36.91551
G1 X69.194 Y137.515 E36.9612
G1 X69.145 Y137.179 E36.98491
G1 X69.092 Y136.728 E37.01663
G1 X69.061 Y136.37 E37.04173
G1 X69.026 Y135.74 E37.0858
G1 X69.018 Y135.515 E37.10152
G1 X69 Y134.451 E37.17585
G1 X68.999 Y134.352 E37.18277
G1 X68.997 Y77.122 E41.18007
G1 X68.997 Y75.588 E41.28721
G1 X68.998 Y75.499 E41.29343
G1 X69.015 Y74.388 E41.37104
G1 X69.031 Y74.03 E41.39607
G1 X69.083 Y73.353 E41.44349
G1 X69.118 Y73.026 E41.46646
G1 X69.181 Y72.555 E41.49965
G1 X69.246 Y72.167 E41.52713
G1 X69.392 Y71.448 E41.57838
G1 X69.476 Y71.089 E41.60413
G1 X69.62 Y70.555 E41.64276
G1 X69.714 Y70.243 E41.66552
G1 X69.875 Y69.756 E41.70134
G1 X70.02 Y69.365 E41.73047
G1 X70.3 Y68.685 E41.78184
G1 X70.447 Y68.357 E41.80694
G1 X70.687 Y67.863 E41.8453
G1 X70.851 Y67.549 E41.87004
G1 X71.123 Y67.066 E41.90876
G1 X71.312 Y66.755 E41.93418
G1 X71.664 Y66.212 E41.97938
G1 X71.87 Y65.914 E42.00468
G1 X72.195 Y65.475 E42.04283
G1 X72.43 Y65.179 E42.06923
G1 X72.841 Y64.693 E42.11369
M204 S3000
M205 X10 Y10
G0 F3000 X73.268 Y65.055
M204 S1800
M205 X8 Y8
G1 F2400 X73.492 Y64.806 E42.13708
G1 X73.907 Y64.374 E42.17892
G1 X74.154 Y64.134 E42.20298
G1 X74.617 Y63.711 E42.24678
G1 X74.872 Y63.492 E42.27026
G1 X75.283 Y63.162 E42.30707
G1 X75.506 Y62.992 E42.32666
G1 X75.976 Y62.654 E42.36709
G1 X76.269 Y62.458 E42.39171
G1 X76.841 Y62.102 E42.43877
G1 X77.145 Y61.927 E42.46327
G1 X77.634 Y61.666 E42.50199
G1 X77.914 Y61.527 E42.52382
G1 X78.449 Y61.281 E42.56495
G1 X78.766 Y61.147 E42.58899
G1 X79.39 Y60.908 E42.63566
G1 X79.696 Y60.802 E42.65828
G1 X80.167 Y60.654 E42.69276
G1 X80.481 Y60.566 E42.71554
G1 X81.115 Y60.409 E42.76116
G1 X81.464 Y60.335 E42.78608
G1 X82.108 Y60.221 E42.83176
G1 X82.412 Y60.176 E42.85322
G1 X82.863 Y60.123 E42.88494
G1 X83.186 Y60.095 E42.90759
G1 X83.816 Y60.06 E42.95166
G1 X84.02 Y60.053 E42.96591
G1 X85.086 Y60.035 E43.04038
G1 X85.175 Y60.034 E43.0466
G1 X124.888 Y60.032 E45.8204
G1 X124.966 Y60.033 E45.82585
G1 X126.049 Y60.049 E45.9015
G1 X126.367 Y60.063 E45.92374
G1 X127.059 Y60.115 E45.97221
G1 X127.352 Y60.145 E45.99278
G1 X127.823 Y60.207 E46.02596
G1 X128.18 Y60.267 E46.05124
G1 X128.907 Y60.414 E46.10305
G1 X129.232 Y60.49 E46.12636
