;FLAVOR:Marlin
;TIME:9032
;Filament used: 18.1076m
;Layer height: 0.3
;MINX:71.391
;MINY:61.937
;MINZ:0.3
;MAXX:140.602
;MAXY:148.062
;MAXZ:39.3
;Generated with Cura_SteamEngine master
M140 S60
M105
M190 S60
M104 S200
M105
M109 S200
M82 ;absolute extrusion mode
G21 ;metric values
G90 ;absolute positioning
M82 ;set extruder to absolute mode
M107 ;start with the fan off
G28 X0 Y0 ;move X/Y to min endstops
G28 Z0 ;move Z to min endstops
G1 Z15.0 F100 ;move the platform down 15mm
G92 E0 ;zero the extruded length
G1 F200 E3 ;extrude 3mm of feed stock
G92 E0 ;zero the extruded length again
G1 F100
M117 Printing...
G5
G92 E0
G92 E0
G1 F2400 E-6
;LAYER_COUNT:131
;LAYER:0
M106 S255
M204 S3000
M205 X10 Y10
G1 F600 Z0.375
G0 F3000 X76.748 Y66.325 Z0.375
M204 S1800
M205 X8 Y8
;TYPE:SKIRT
G1 F600 Z0.3
G1 F2400 E0
G1 X77.045 Y65.998 E0.03085
G1 X77.232 Y65.805 E0.04962
G1 X77.375 Y65.661 E0.0638
G1 X77.566 Y65.476 E0.08237
G1 X77.856 Y65.212 E0.10976
G1 X78.246 Y64.878 E0.14563
G1 X78.611 Y64.588 E0.17819
G1 X78.904 Y64.372 E0.20361
G1 X79.048 Y64.269 E0.21598
G1 X79.222 Y64.148 E0.23078
G1 X79.628 Y63.887 E0.26449
G1 X80.095 Y63.612 E0.30235
G1 X80.487 Y63.4 E0.33347
G1 X80.888 Y63.2 E0.36477
G1 X81.321 Y63.003 E0.398
G1 X81.744 Y62.83 E0.42992
G1 X82.034 Y62.72 E0.45158
G1 X82.314 Y62.621 E0.47233
G1 X82.691 Y62.501 E0.49996
G1 X83.059 Y62.396 E0.52669
G1 X83.472 Y62.292 E0.55644
G1 X83.98 Y62.183 E0.59273
G1 X84.423 Y62.105 E0.62414
G1 X84.747 Y62.059 E0.647
G1 X84.952 Y62.033 E0.66144
G1 X85.199 Y62.006 E0.67879
G1 X85.664 Y61.972 E0.71136
G1 X86.497 Y61.942 E0.76957
G1 X86.727 Y61.938 E0.78564
G1 X126.691 Y61.937 E3.57698
G1 X126.816 Y61.938 E3.58571
G1 X128.348 Y61.968 E3.69273
G1 X128.895 Y62.002 E3.73101
G1 X129.16 Y62.03 E3.74963
G1 X129.357 Y62.054 E3.76349
G1 X129.605 Y62.088 E3.78097
G1 X129.886 Y62.133 E3.80085
G1 X130.105 Y62.173 E3.8164
G1 X130.36 Y62.225 E3.83458
G1 X130.671 Y62.295 E3.85684
G1 X130.926 Y62.358 E3.87519
G1 X131.142 Y62.416 E3.89081
G1 X131.39 Y62.488 E3.90885
G1 X131.723 Y62.592 E3.93321
G1 X132.026 Y62.695 E3.95557
G1 X132.265 Y62.783 E3.97335
G1 X132.453 Y62.856 E3.98744
G1 X132.683 Y62.949 E4.00477
G1 X132.963 Y63.069 E4.02605
G1 X133.18 Y63.169 E4.04273
G1 X133.371 Y63.262 E4.05757
G1 X133.658 Y63.406 E4.08
G1 X133.985 Y63.582 E4.10594
G1 X134.174 Y63.691 E4.12118
G1 X134.326 Y63.781 E4.13352
G1 X134.598 Y63.948 E4.15581
G1 X134.866 Y64.122 E4.17813
G1 X135.066 Y64.259 E4.19506
G1 X135.213 Y64.363 E4.20764
G1 X135.433 Y64.523 E4.22664
G1 X135.706 Y64.733 E4.25069
G1 X135.909 Y64.898 E4.26896
G1 X136.077 Y65.039 E4.28428
G1 X136.287 Y65.222 E4.30374
G1 X136.515 Y65.431 E4.32534
G1 X136.666 Y65.576 E4.33997
G1 X136.809 Y65.718 E4.35404
G1 X137.028 Y65.942 E4.37592
G1 X137.19 Y66.114 E4.39242
G1 X137.328 Y66.266 E4.40676
G1 X137.502 Y66.465 E4.42523
G1 X137.72 Y66.726 E4.44898
G1 X137.968 Y67.043 E4.47709
G1 X138.147 Y67.287 E4.49823
G1 X138.243 Y67.421 E4.50974
G1 X138.391 Y67.634 E4.52786
G1 X138.635 Y68.014 E4.5594
G1 X138.895 Y68.451 E4.59492
G1 X139.058 Y68.741 E4.61815
G1 X139.157 Y68.929 E4.63299
G1 X139.269 Y69.152 E4.65042
G1 X139.408 Y69.443 E4.67295
G1 X139.55 Y69.763 E4.6974
G1 X139.651 Y70.008 E4.71591
G1 X139.724 Y70.193 E4.7298
G1 X139.826 Y70.464 E4.75003
G1 X139.963 Y70.868 E4.77982
G1 X140.114 Y71.368 E4.8163
G1 X140.21 Y71.723 E4.84199
G1 X140.259 Y71.927 E4.85664
G1 X140.311 Y72.163 E4.87352
G1 X140.372 Y72.467 E4.89518
G1 X140.435 Y72.837 E4.92139
G1 X140.482 Y73.172 E4.94502
G1 X140.504 Y73.351 E4.95762
G1 X140.528 Y73.566 E4.97273
G1 X140.567 Y74.143 E5.01312
G1 X140.6 Y75.736 E5.12441
G1 X140.601 Y75.869 E5.1337
G1 X140.602 Y133.259 E9.14218
G1 X140.602 Y133.266 E9.14267
G1 X140.601 Y134.224 E9.20958
G1 X140.6 Y134.336 E9.2174
G1 X140.574 Y135.732 E9.31493
G1 X140.545 Y136.234 E9.35005
G1 X140.51 Y136.593 E9.37524
G1 X140.482 Y136.833 E9.39212
G1 X140.449 Y137.076 E9.40925
G1 X140.396 Y137.4 E9.43218
G1 X140.357 Y137.607 E9.44689
G1 X140.313 Y137.823 E9.46229
G1 X140.245 Y138.126 E9.48398
G1 X140.186 Y138.367 E9.50131
G1 X140.13 Y138.578 E9.51655
G1 X140.063 Y138.813 E9.53362
G1 X139.963 Y139.139 E9.55744
G1 X139.835 Y139.514 E9.58511
G1 X139.735 Y139.78 E9.60496
G1 X139.677 Y139.928 E9.61607
G1 X139.586 Y140.153 E9.63302
G1 X139.415 Y140.538 E9.66244
G1 X139.183 Y141.018 E9.69968
G1 X138.97 Y141.421 E9.73152
G1 X138.839 Y141.649 E9.74988
G1 X138.738 Y141.82 E9.76375
G1 X138.582 Y142.073 E9.78451
G1 X138.416 Y142.328 E9.80577
G1 X138.286 Y142.518 E9.82185
G1 X138.157 Y142.699 E9.83737
G1 X137.981 Y142.938 E9.8581
G1 X137.727 Y143.262 E9.88686
G1 X137.389 Y143.664 E9.92354
G1 X137.075 Y144.01 E9.95618
G1 X136.89 Y144.2 E9.9747
G1 X136.78 Y144.311 E9.98561
G1 X136.599 Y144.488 E10.0033
G1 X136.3 Y144.762 E10.03162
G1 X135.904 Y145.103 E10.06812
G1 X135.533 Y145.399 E10.10127
G1 X135.23 Y145.623 E10.12759
G1 X135.018 Y145.773 E10.14573
G1 X134.763 Y145.946 E10.16725
G1 X134.398 Y146.177 E10.19743
G1 X134.035 Y146.389 E10.22679
G1 X133.779 Y146.53 E10.2472
G1 X133.594 Y146.627 E10.26179
G1 X133.375 Y146.736 E10.27888
G1 X133.119 Y146.858 E10.29868
G1 X132.784 Y147.007 E10.32429
G1 X132.414 Y147.158 E10.3522
G1 X132.15 Y147.259 E10.37195
G1 X131.831 Y147.373 E10.39561
G1 X131.431 Y147.501 E10.42494
G1 X131.066 Y147.605 E10.45145
G1 X130.65 Y147.709 E10.4814
G1 X130.14 Y147.818 E10.51783
G1 X129.713 Y147.894 E10.54812
G1 X129.407 Y147.938 E10.56971
G1 X129.188 Y147.965 E10.58513
G1 X128.949 Y147.991 E10.60192
G1 X128.39 Y148.028 E10.64105
G1 X126.797 Y148.061 E10.75234
G1 X126.664 Y148.062 E10.76163
G1 X87.352 Y148.062 E13.50742
G1 X87.23 Y148.061 E13.51594
G1 X85.861 Y148.035 E13.61158
G1 X85.389 Y148.008 E13.6446
G1 X85.035 Y147.975 E13.66943
G1 X84.759 Y147.944 E13.68883
G1 X84.504 Y147.909 E13.70681
G1 X84.189 Y147.857 E13.72911
G1 X83.982 Y147.818 E13.74382
G1 X83.766 Y147.774 E13.75922
G1 X83.463 Y147.706 E13.78091
G1 X83.247 Y147.653 E13.79644
G1 X83.044 Y147.6 E13.8111
G1 X82.77 Y147.522 E13.831
G1 X82.437 Y147.419 E13.85534
G1 X82.133 Y147.317 E13.87774
G1 X81.892 Y147.229 E13.89566
G1 X81.686 Y147.15 E13.91107
G1 X81.429 Y147.046 E13.93043
G1 X81.111 Y146.907 E13.95467
G1 X80.915 Y146.815 E13.9698
G1 X80.755 Y146.737 E13.98223
G1 X80.485 Y146.601 E14.00335
G1 X80.258 Y146.481 E14.02128
G1 X80.067 Y146.375 E14.03654
G1 X79.838 Y146.241 E14.05507
G1 X79.553 Y146.067 E14.07839
G1 X79.248 Y145.869 E14.10379
G1 X79.005 Y145.701 E14.12442
G1 X78.842 Y145.584 E14.13844
G1 X78.639 Y145.434 E14.15607
G1 X78.316 Y145.179 E14.18481
G1 X77.92 Y144.845 E14.221
G1 X77.526 Y144.484 E14.25832
G1 X77.124 Y144.083 E14.29798
G1 X76.769 Y143.698 E14.33456
G1 X76.439 Y143.31 E14.37013
G1 X76.158 Y142.955 E14.40176
G1 X75.983 Y142.717 E14.42239
G1 X75.88 Y142.573 E14.43476
G1 X75.733 Y142.361 E14.45277
G1 X75.484 Y141.973 E14.48498
G1 X75.213 Y141.515 E14.52215
G1 X74.984 Y141.093 E14.55568
G1 X74.76 Y140.64 E14.59098
G1 X74.577 Y140.234 E14.62208
G1 X74.453 Y139.932 E14.64489
G1 X74.374 Y139.731 E14.65997
G1 X74.287 Y139.497 E14.67741
G1 X74.18 Y139.185 E14.70045
G1 X74.12 Y138.994 E14.71443
G1 X74.075 Y138.845 E14.7253
G1 X73.989 Y138.546 E14.74703
G1 X73.885 Y138.13 E14.77698
G1 X73.776 Y137.626 E14.813
G1 X73.693 Y137.16 E14.84606
G1 X73.645 Y136.817 E14.87025
G1 X73.621 Y136.625 E14.88376
G1 X73.594 Y136.378 E14.90112
G1 X73.56 Y135.912 E14.93375
G1 X73.53 Y135.073 E14.99239
G1 X73.526 Y134.844 E15.00839
G1 X73.525 Y76.74 E19.06674
G1 X73.525 Y75.805 E19.13204
G1 X73.526 Y75.675 E19.14112
G1 X73.556 Y74.201 E19.2441
G1 X73.59 Y73.667 E19.28147
G1 X73.619 Y73.389 E19.30099
G1 X73.645 Y73.171 E19.31633
G1 X73.683 Y72.898 E19.33558
G1 X73.732 Y72.597 E19.35688
G1 X73.77 Y72.395 E19.37124
G1 X73.815 Y72.179 E19.38665
G1 X73.886 Y71.862 E19.40934
G1 X73.984 Y71.479 E19.43695
G1 X74.133 Y70.965 E19.47433
G1 X74.291 Y70.491 E19.50923
G1 X74.404 Y70.191 E19.53162
G1 X74.466 Y70.031 E19.5436
G1 X74.552 Y69.82 E19.55952
G1 X74.725 Y69.435 E19.589
G1 X74.964 Y68.944 E19.62714
G1 X75.225 Y68.461 E19.66549
G1 X75.491 Y68.016 E19.7017
G1 X75.723 Y67.656 E19.73161
G1 X75.901 Y67.399 E19.75345
G1 X76.01 Y67.247 E19.76651
G1 X76.15 Y67.057 E19.783
G1 X76.409 Y66.727 E19.8123
G1 X76.748 Y66.325 E19.84903
M204 S3000
M205 X10 Y10
G0 F3000 X77.177 Y66.686
M204 S1800
M205 X8 Y8
G1 F2400 X77.447 Y66.387 E19.87717
G1 X77.634 Y66.194 E19.89594
G1 X77.765 Y66.063 E19.90888
G1 X77.956 Y65.878 E19.92745
G1 X78.22 Y65.637 E19.95242
G1 X78.61 Y65.303 E19.98828
G1 X78.944 Y65.038 E20.01806
G1 X79.237 Y64.822 E20.04348
G1 X79.368 Y64.728 E20.05475
G1 X79.542 Y64.607 E20.06955
G1 X79.913 Y64.37 E20.1003
G1 X80.38 Y64.095 E20.13815
G1 X80.736 Y63.901 E20.16647
G1 X81.137 Y63.701 E20.19777
G1 X81.533 Y63.522 E20.22812
G1 X81.956 Y63.349 E20.26004
G1 X82.22 Y63.248 E20.27978
G1 X82.5 Y63.149 E20.30053
G1 X82.845 Y63.039 E20.32582
G1 X83.213 Y62.934 E20.35255
G1 X83.59 Y62.84 E20.37969
G1 X84.098 Y62.731 E20.41598
G1 X84.502 Y62.659 E20.44464
G1 X84.826 Y62.613 E20.4675
G1 X85.012 Y62.59 E20.48059
G1 X85.259 Y62.563 E20.49794
G1 X85.684 Y62.532 E20.52771
G1 X86.517 Y62.502 E20.58592
G1 X86.727 Y62.498 E20.6006
G1 X126.691 Y62.497 E23.39193
G1 X126.805 Y62.498 E23.39989
G1 X128.337 Y62.528 E23.50692
G1 X128.837 Y62.559 E23.54191
G1 X129.102 Y62.587 E23.56052
G1 X129.281 Y62.609 E23.57312
G1 X129.529 Y62.643 E23.5906
G1 X129.785 Y62.684 E23.60871
G1 X130.004 Y62.724 E23.62426
G1 X130.237 Y62.772 E23.64088
G1 X130.548 Y62.842 E23.66314
G1 X130.78 Y62.899 E23.67983
G1 X130.996 Y62.957 E23.69545
G1 X131.223 Y63.023 E23.71196
G1 X131.556 Y63.127 E23.73633
G1 X131.833 Y63.221 E23.75676
G1 X132.072 Y63.309 E23.77455
G1 X132.243 Y63.375 E23.78735
G1 X132.473 Y63.468 E23.80468
G1 X132.728 Y63.578 E23.82408
G1 X132.945 Y63.678 E23.84076
G1 X133.12 Y63.762 E23.85432
G1 X133.407 Y63.906 E23.87675
G1 X133.706 Y64.067 E23.90047
G1 X133.895 Y64.176 E23.91571
G1 X134.033 Y64.258 E23.92692
G1 X134.305 Y64.425 E23.94921
G1 X134.549 Y64.584 E23.96956
G1 X134.749 Y64.721 E23.98649
G1 X134.884 Y64.816 E23.99802
G1 X135.104 Y64.976 E24.01702
G1 X135.353 Y65.167 E24.03894
G1 X135.556 Y65.332 E24.05721
G1 X135.709 Y65.461 E24.07119
G1 X135.919 Y65.644 E24.09064
G1 X136.127 Y65.835 E24.11037
G1 X136.278 Y65.98 E24.12499
G1 X136.409 Y66.109 E24.13783
G1 X136.628 Y66.333 E24.15971
G1 X136.776 Y66.49 E24.17478
G1 X136.914 Y66.642 E24.18912
G1 X137.072 Y66.824 E24.20595
G1 X137.29 Y67.085 E24.22971
G1 X137.517 Y67.375 E24.25543
G1 X137.696 Y67.619 E24.27657
G1 X137.783 Y67.741 E24.28703
G1 X137.931 Y67.954 E24.30515
G1 X138.154 Y68.3 E24.3339
G1 X138.414 Y68.737 E24.36942
G1 X138.562 Y69.002 E24.39062
G1 X138.661 Y69.19 E24.40546
G1 X138.764 Y69.394 E24.42142
G1 X138.903 Y69.685 E24.44394
G1 X139.032 Y69.976 E24.46618
G1 X139.133 Y70.221 E24.48469
G1 X139.2 Y70.39 E24.49738
G1 X139.302 Y70.661 E24.51761
G1 X139.427 Y71.03 E24.54482
G1 X139.578 Y71.53 E24.5813
G1 X139.665 Y71.854 E24.60473
G1 X139.714 Y72.058 E24.61939
G1 X139.762 Y72.273 E24.63477
G1 X139.823 Y72.577 E24.65643
G1 X139.88 Y72.915 E24.68037
G1 X139.927 Y73.25 E24.704
G1 X139.948 Y73.413 E24.71548
G1 X139.972 Y73.628 E24.73059
G1 X140.007 Y74.155 E24.76748
G1 X140.04 Y75.748 E24.87877
G1 X140.041 Y75.869 E24.88722
G1 X140.042 Y133.259 E28.8957
G1 X140.042 Y133.265 E28.89612
G1 X140.041 Y134.223 E28.96303
G1 X140.04 Y134.326 E28.97022
G1 X140.014 Y135.722 E29.06775
G1 X139.987 Y136.18 E29.09979
G1 X139.952 Y136.539 E29.12498
G1 X139.927 Y136.758 E29.14038
G1 X139.894 Y137.001 E29.15751
G1 X139.846 Y137.296 E29.17838
G1 X139.807 Y137.503 E29.1931
G1 X139.766 Y137.701 E29.20722
G1 X139.698 Y138.004 E29.22891
G1 X139.645 Y138.223 E29.24465
G1 X139.589 Y138.434 E29.2599
G1 X139.527 Y138.649 E29.27552
G1 X139.427 Y138.975 E29.29934
G1 X139.31 Y139.317 E29.32459
G1 X139.21 Y139.583 E29.34444
G1 X139.158 Y139.718 E29.35454
G1 X139.067 Y139.943 E29.37149
G1 X138.911 Y140.294 E29.39832
G1 X138.679 Y140.774 E29.43556
G1 X138.485 Y141.142 E29.46462
G1 X138.354 Y141.37 E29.48298
G1 X138.261 Y141.526 E29.49567
G1 X138.105 Y141.779 E29.51643
G1 X137.954 Y142.012 E29.53582
G1 X137.824 Y142.202 E29.5519
G1 X137.707 Y142.367 E29.56603
G1 X137.531 Y142.606 E29.58676
G1 X137.298 Y142.901 E29.61302
G1 X136.96 Y143.303 E29.6497
G1 X136.674 Y143.619 E29.67947
G1 X136.489 Y143.809 E29.69799
G1 X136.388 Y143.91 E29.70797
G1 X136.207 Y144.087 E29.72565
G1 X135.935 Y144.337 E29.75145
G1 X135.539 Y144.678 E29.78795
G1 X135.2 Y144.949 E29.81827
G1 X134.897 Y145.173 E29.84459
G1 X134.704 Y145.31 E29.86112
G1 X134.449 Y145.483 E29.88264
G1 X134.115 Y145.693 E29.9102
G1 X133.752 Y145.905 E29.93956
G1 X133.519 Y146.034 E29.95816
G1 X133.334 Y146.131 E29.97275
G1 X133.134 Y146.231 E29.98837
G1 X132.878 Y146.353 E30.00818
G1 X132.573 Y146.488 E30.03147
G1 X132.203 Y146.639 E30.05939
G1 X131.961 Y146.731 E30.07747
G1 X131.642 Y146.845 E30.10113
G1 X131.277 Y146.962 E30.1279
G1 X130.912 Y147.066 E30.15441
G1 X130.533 Y147.161 E30.1817
G1 X130.023 Y147.27 E30.21813
G1 X129.633 Y147.34 E30.2458
G1 X129.327 Y147.384 E30.26739
G1 X129.128 Y147.409 E30.2814
G1 X128.889 Y147.435 E30.2982
G1 X128.378 Y147.468 E30.33396
G1 X126.785 Y147.501 E30.44525
G1 X126.664 Y147.502 E30.4537
G1 X87.352 Y147.502 E33.1995
G1 X87.241 Y147.501 E33.20725
G1 X85.872 Y147.475 E33.30289
G1 X85.441 Y147.451 E33.33304
G1 X85.087 Y147.418 E33.35787
G1 X84.835 Y147.389 E33.37559
G1 X84.58 Y147.354 E33.39357
G1 X84.293 Y147.307 E33.41388
G1 X84.086 Y147.268 E33.42859
G1 X83.888 Y147.227 E33.44272
G1 X83.585 Y147.159 E33.46441
G1 X83.389 Y147.112 E33.47848
G1 X83.186 Y147.059 E33.49314
G1 X82.935 Y146.987 E33.51138
G1 X82.602 Y146.884 E33.53572
G1 X82.325 Y146.791 E33.55613
G1 X82.084 Y146.703 E33.57405
G1 X81.896 Y146.631 E33.58811
G1 X81.639 Y146.527 E33.60748
G1 X81.349 Y146.4 E33.62959
G1 X81.153 Y146.308 E33.64471
G1 X81.007 Y146.237 E33.65605
G1 X80.737 Y146.101 E33.67717
G1 X80.53 Y145.991 E33.69354
G1 X80.339 Y145.885 E33.7088
G1 X80.13 Y145.763 E33.7257
G1 X79.845 Y145.589 E33.74902
G1 X79.567 Y145.409 E33.77216
G1 X79.324 Y145.241 E33.79279
G1 X79.174 Y145.134 E33.80566
G1 X78.971 Y144.984 E33.82329
G1 X78.677 Y144.751 E33.84949
G1 X78.281 Y144.417 E33.88567
G1 X77.922 Y144.088 E33.91969
G1 X77.52 Y143.687 E33.95934
G1 X77.195 Y143.336 E33.99276
G1 X76.865 Y142.948 E34.02833
G1 X76.609 Y142.624 E34.05717
G1 X76.434 Y142.386 E34.07781
G1 X76.34 Y142.254 E34.08913
G1 X76.193 Y142.042 E34.10715
G1 X75.966 Y141.688 E34.13652
G1 X75.695 Y141.23 E34.17369
G1 X75.486 Y140.845 E34.20429
G1 X75.262 Y140.392 E34.23958
G1 X75.095 Y140.021 E34.268
G1 X74.971 Y139.719 E34.2908
G1 X74.899 Y139.536 E34.30454
G1 X74.812 Y139.302 E34.32198
G1 X74.714 Y139.017 E34.34303
G1 X74.654 Y138.826 E34.35701
G1 X74.614 Y138.69 E34.36691
G1 X74.528 Y138.391 E34.38864
G1 X74.432 Y138.011 E34.41602
G1 X74.323 Y137.507 E34.45203
G1 X74.247 Y137.082 E34.48219
G1 X74.199 Y136.739 E34.50638
G1 X74.178 Y136.565 E34.51862
G1 X74.151 Y136.318 E34.53598
G1 X74.12 Y135.892 E34.56581
G1 X74.09 Y135.053 E34.62445
G1 X74.086 Y134.844 E34.63905
G1 X74.085 Y76.74 E38.6974
G1 X74.085 Y75.805 E38.7627
G1 X74.086 Y75.686 E38.77101
G1 X74.116 Y74.212 E38.87399
G1 X74.147 Y73.725 E38.90807
G1 X74.176 Y73.447 E38.9276
G1 X74.2 Y73.248 E38.9416
G1 X74.238 Y72.975 E38.96085
G1 X74.283 Y72.7 E38.98031
G1 X74.321 Y72.498 E38.99467
G1 X74.361 Y72.302 E39.00864
G1 X74.432 Y71.985 E39.03133
G1 X74.522 Y71.635 E39.05657
G1 X74.671 Y71.121 E39.09395
G1 X74.815 Y70.688 E39.12582
G1 X74.928 Y70.388 E39.14821
G1 X74.985 Y70.243 E39.15909
G1 X75.071 Y70.032 E39.17501
G1 X75.228 Y69.68 E39.20193
G1 X75.467 Y69.189 E39.24007
G1 X75.705 Y68.749 E39.27501
G1 X75.971 Y68.304 E39.31122
G1 X76.183 Y67.975 E39.33856
G1 X76.361 Y67.718 E39.3604
G1 X76.46 Y67.579 E39.37231
G1 X76.6 Y67.389 E39.3888
G1 X76.838 Y67.088 E39.4156
G1 X77.177 Y66.686 E39.45233
M204 S3000
M205 X10 Y10
G0 F3000 X77.605 Y67.047
M204 S1800
M205 X8 Y8
G1 F2400 X77.849 Y66.777 E39.47775
G1 X78.036 Y66.584 E39.49652
G1 X78.155 Y66.465 E39.50827
G1 X78.346 Y66.28 E39.52685
G1 X78.585 Y66.063 E39.54939
