;FLAVOR:Marlin
;TIME:1178
;Filament used: 1.21045m
;Layer height: 0.3
;MINX:86.613
;MINY:86.613
;MINZ:0.3
;MAXX:123.387
;MAXY:123.394
;MAXZ:71.4
;Generated with Cura_SteamEngine master
M140 S60
M105
M190 S60
M104 S200
M105
M109 S200
M82 ;absolute extrusion mode
G21 ;metric values
G90 ;absolute positioning
M82 ;set extruder to absolute mode
M107 ;start with the fan off
G28 X0 Y0 ;move X/Y to min endstops
G28 Z0 ;move Z to min endstops
G1 Z15.0 F100 ;move the platform down 15mm
G92 E0 ;zero the extruded length
G1 F200 E3 ;extrude 3mm of feed stock
G92 E0 ;zero the extruded length again
G1 F100
M117 Printing...
G5
M141 S28
G92 E0
G92 E0
G1 F2400 E-6
;LAYER_COUNT:241
;LAYER:0
M106 S255
M204 S3000
M205 X10 Y10
G0 F3000 X88.848 Y99.894 Z0.3
M204 S1800
M205 X8 Y8
;TYPE:SKIRT
G1 F2400 E0
G1 X89.273 Y99.53 E0.03908
G1 X91.312 Y97.733 E0.22892
G1 X93.228 Y95.946 E0.41191
G1 X95.123 Y94.076 E0.59787
G1 X96.953 Y92.164 E0.78272
G1 X98.731 Y90.2 E0.96776
G1 X99.456 Y89.352 E1.04569
G1 X99.519 Y89.28 E1.05237
G1 X99.952 Y88.789 E1.0981
G1 X100.454 Y88.28 E1.14803
G1 X101.01 Y87.83 E1.19799
G1 X101.613 Y87.445 E1.24796
G1 X102.255 Y87.129 E1.29794
G1 X102.928 Y86.887 E1.34789
G1 X103.624 Y86.722 E1.39785
G1 X104.622 Y86.623 E1.4679
G1 X105.116 Y86.613 E1.50241
G1 X105.831 Y86.639 E1.55239
G1 X106.539 Y86.744 E1.60238
G1 X107.23 Y86.927 E1.65231
G1 X107.897 Y87.187 E1.70231
G1 X108.53 Y87.519 E1.75223
G1 X109.123 Y87.92 E1.80223
G1 X109.667 Y88.384 E1.85217
G1 X110.106 Y88.848 E1.89679
G1 X110.47 Y89.273 E1.93587
G1 X112.267 Y91.312 E2.1257
G1 X114.053 Y93.227 E2.3086
G1 X115.924 Y95.123 E2.49465
G1 X117.835 Y96.952 E2.67941
G1 X119.81 Y98.74 E2.86549
G1 X120.618 Y99.43 E2.93971
G1 X120.694 Y99.496 E2.94674
G1 X121.212 Y99.953 E2.99498
G1 X121.721 Y100.455 E3.04492
G1 X122.171 Y101.011 E3.09488
G1 X122.556 Y101.614 E3.14485
G1 X122.871 Y102.256 E3.1948
G1 X123.113 Y102.929 E3.24475
G1 X123.278 Y103.625 E3.29471
G1 X123.377 Y104.623 E3.36476
G1 X123.387 Y105.118 E3.39934
G1 X123.361 Y105.833 E3.44931
G1 X123.256 Y106.54 E3.49924
G1 X123.073 Y107.231 E3.54916
G1 X122.813 Y107.898 E3.59916
G1 X122.481 Y108.531 E3.64909
G1 X122.08 Y109.124 E3.69909
G1 X121.616 Y109.668 E3.74903
G1 X121.154 Y110.105 E3.79345
G1 X120.777 Y110.428 E3.82812
G1 X118.714 Y112.246 E4.02018
G1 X116.798 Y114.033 E4.20318
G1 X114.903 Y115.903 E4.38913
G1 X113.061 Y117.828 E4.57523
G1 X111.3 Y119.775 E4.75859
G1 X110.702 Y120.475 E4.82289
G1 X110.646 Y120.54 E4.82889
G1 X110.062 Y121.205 E4.8907
G1 X109.561 Y121.715 E4.94064
G1 X109.006 Y122.166 E4.99059
G1 X108.404 Y122.553 E5.04057
G1 X107.762 Y122.87 E5.09058
G1 X107.09 Y123.113 E5.14049
G1 X106.394 Y123.279 E5.19047
G1 X105.778 Y123.36 E5.23387
G1 X105.62 Y123.373 E5.24494
G1 X105 Y123.394 E5.28827
G1 X104.664 Y123.389 E5.31174
G1 X103.95 Y123.339 E5.36173
G1 X103.247 Y123.209 E5.41167
G1 X102.562 Y123.001 E5.46167
G1 X101.905 Y122.719 E5.51161
G1 X101.284 Y122.364 E5.56157
G1 X100.706 Y121.943 E5.61151
G1 X100.179 Y121.46 E5.66144
G1 X99.916 Y121.174 E5.68858
G1 X99.51 Y120.704 E5.73196
G1 X97.733 Y118.688 E5.91966
G1 X95.946 Y116.772 E6.10266
G1 X94.076 Y114.877 E6.28861
G1 X92.164 Y113.047 E6.47347
G1 X90.19 Y111.26 E6.65945
G1 X89.381 Y110.569 E6.73376
G1 X89.306 Y110.504 E6.7407
G1 X88.789 Y110.048 E6.78885
G1 X88.279 Y109.545 E6.83888
G1 X87.829 Y108.989 E6.88884
G1 X87.444 Y108.387 E6.93875
G1 X87.129 Y107.745 E6.9887
G1 X86.887 Y107.071 E7.03872
G1 X86.722 Y106.376 E7.08861
G1 X86.623 Y105.378 E7.15866
G1 X86.613 Y104.884 E7.19317
G1 X86.639 Y104.169 E7.24314
G1 X86.744 Y103.461 E7.29313
G1 X86.927 Y102.77 E7.34306
G1 X87.187 Y102.103 E7.39306
G1 X87.519 Y101.47 E7.44299
G1 X87.92 Y100.877 E7.49299
G1 X88.384 Y100.333 E7.54293
G1 X88.848 Y99.894 E7.58754
M204 S3000
M205 X10 Y10
G0 F3000 X89.212 Y100.319
M204 S1800
M205 X8 Y8
G1 F2400 X89.68 Y99.918 E7.63059
G1 X91.686 Y98.151 E7.81731
G1 X93.608 Y96.359 E8.00085
G1 X95.525 Y94.465 E8.18907
G1 X97.359 Y92.55 E8.37427
G1 X99.159 Y90.561 E8.56164
G1 X99.882 Y89.716 E8.63932
G1 X99.939 Y89.65 E8.64541
G1 X100.372 Y89.159 E8.69113
G1 X100.853 Y88.674 E8.73884
G1 X101.387 Y88.249 E8.78651
G1 X101.968 Y87.888 E8.83429
G1 X102.587 Y87.598 E8.88203
G1 X103.235 Y87.383 E8.92972
G1 X103.904 Y87.244 E8.97744
G1 X104.634 Y87.183 E9.02861
G1 X105.128 Y87.173 E9.06312
G1 X105.811 Y87.199 E9.11086
G1 X106.486 Y87.305 E9.15858
G1 X107.144 Y87.489 E9.20631
G1 X107.776 Y87.748 E9.25401
G1 X108.373 Y88.08 E9.30172
G1 X108.928 Y88.479 E9.34947
G1 X109.432 Y88.94 E9.39717
G1 X109.681 Y89.212 E9.42293
G1 X110.082 Y89.68 E9.46598
G1 X111.832 Y91.666 E9.65086
G1 X113.658 Y93.625 E9.83791
G1 X115.535 Y95.525 E10.02446
G1 X117.449 Y97.358 E10.20956
G1 X119.429 Y99.15 E10.39609
G1 X120.254 Y99.855 E10.47188
G1 X120.324 Y99.916 E10.47837
G1 X120.842 Y100.373 E10.52662
G1 X121.327 Y100.854 E10.57433
G1 X121.752 Y101.388 E10.622
G1 X122.112 Y101.969 E10.66974
G1 X122.402 Y102.588 E10.71748
G1 X122.618 Y103.236 E10.76519
G1 X122.756 Y103.905 E10.8129
G1 X122.817 Y104.634 E10.864
G1 X122.827 Y105.129 E10.89858
G1 X122.801 Y105.812 E10.94632
G1 X122.695 Y106.487 E10.99404
G1 X122.511 Y107.145 E11.04176
G1 X122.252 Y107.777 E11.08947
G1 X121.92 Y108.374 E11.13718
G1 X121.521 Y108.929 E11.18492
G1 X121.06 Y109.433 E11.23263
G1 X120.789 Y109.68 E11.25824
G1 X120.384 Y110.027 E11.29549
G1 X118.34 Y111.828 E11.48577
G1 X116.418 Y113.62 E11.66931
G1 X114.501 Y115.514 E11.85754
G1 X112.671 Y117.425 E12.04234
G1 X110.856 Y119.432 E12.23135
G1 X110.276 Y120.111 E12.29372
G1 X110.225 Y120.171 E12.29922
G1 X109.641 Y120.836 E12.36103
G1 X109.161 Y121.322 E12.40874
G1 X108.627 Y121.748 E12.45646
G1 X108.048 Y122.11 E12.50415
G1 X107.43 Y122.401 E12.55186
G1 X106.782 Y122.618 E12.59959
G1 X106.113 Y122.758 E12.64733
G1 X105.732 Y122.802 E12.67412
G1 X105.574 Y122.815 E12.68519
G1 X105.008 Y122.834 E12.72475
G1 X104.672 Y122.829 E12.74822
G1 X103.991 Y122.779 E12.79591
G1 X103.32 Y122.65 E12.84364
G1 X102.669 Y122.443 E12.89135
G1 X102.046 Y122.162 E12.93909
G1 X101.461 Y121.809 E12.98681
G1 X100.92 Y121.391 E13.03456
G1 X100.34 Y120.808 E13.092
G1 X99.934 Y120.338 E13.13538
G1 X98.151 Y118.314 E13.32378
G1 X96.359 Y116.392 E13.50732
G1 X94.465 Y114.475 E13.69555
G1 X92.55 Y112.641 E13.88075
G1 X90.551 Y110.832 E14.06906
G1 X89.745 Y110.143 E14.14312
G1 X89.676 Y110.084 E14.14946
G1 X89.159 Y109.628 E14.19761
G1 X88.674 Y109.147 E14.24532
G1 X88.248 Y108.612 E14.29308
G1 X87.888 Y108.032 E14.34076
G1 X87.598 Y107.413 E14.38851
G1 X87.382 Y106.765 E14.43622
G1 X87.244 Y106.096 E14.48393
G1 X87.183 Y105.366 E14.53509
G1 X87.173 Y104.872 E14.56961
G1 X87.199 Y104.189 E14.61735
G1 X87.305 Y103.514 E14.66507
G1 X87.489 Y102.856 E14.71279
G1 X87.748 Y102.224 E14.7605
G1 X88.08 Y101.627 E14.80821
G1 X88.479 Y101.072 E14.85595
G1 X88.94 Y100.568 E14.90366
G1 X89.212 Y100.319 E14.92942
M204 S3000
M205 X10 Y10
G0 F3000 X89.577 Y100.745
M204 S1800
M205 X8 Y8
G1 F2400 X89.99 Y100.391 E14.96741
G1 X92.041 Y98.583 E15.15838
G1 X94.022 Y96.737 E15.34751
G1 X95.927 Y94.856 E15.5345
G1 X97.766 Y92.935 E15.72024
G1 X99.569 Y90.942 E15.90796
G1 X100.307 Y90.08 E15.98722
G1 X100.359 Y90.021 E15.99271
G1 X100.792 Y89.53 E16.03843
G1 X101.251 Y89.07 E16.08382
G1 X101.763 Y88.67 E16.1292
G1 X102.32 Y88.336 E16.17457
G1 X102.914 Y88.072 E16.21997
G1 X103.535 Y87.884 E16.26529
G1 X104.175 Y87.774 E16.31064
G1 X104.645 Y87.743 E16.34354
G1 X105.139 Y87.733 E16.37805
G1 X105.788 Y87.76 E16.42342
G1 X106.429 Y87.866 E16.4688
G1 X107.052 Y88.05 E16.51417
G1 X107.648 Y88.31 E16.55959
G1 X108.207 Y88.64 E16.60493
G1 X108.721 Y89.037 E16.65029
G1 X109.255 Y89.577 E16.70334
G1 X109.608 Y89.989 E16.74123
G1 X111.417 Y92.041 E16.9323
G1 X113.262 Y94.021 E17.12133
G1 X115.144 Y95.927 E17.30842
G1 X117.064 Y97.765 E17.49407
G1 X119.068 Y99.578 E17.68282
G1 X119.89 Y100.281 E17.75837
G1 X119.953 Y100.336 E17.76421
G1 X120.471 Y100.793 E17.81246
G1 X120.931 Y101.252 E17.85784
G1 X121.331 Y101.763 E17.90317
G1 X121.665 Y102.321 E17.94859
G1 X121.928 Y102.915 E17.99397
G1 X122.116 Y103.536 E18.03928
G1 X122.227 Y104.176 E18.08465
G1 X122.257 Y104.645 E18.11748
G1 X122.267 Y105.14 E18.15206
G1 X122.24 Y105.789 E18.19743
G1 X122.134 Y106.43 E18.24281
G1 X121.949 Y107.053 E18.2882
G1 X121.69 Y107.649 E18.33359
G1 X121.36 Y108.208 E18.37893
G1 X120.963 Y108.722 E18.42429
G1 X120.425 Y109.255 E18.47719
G1 X120.008 Y109.613 E18.51558
G1 X117.985 Y111.396 E18.70392
G1 X116.004 Y113.242 E18.89305
G1 X114.099 Y115.123 E19.08004
G1 X112.247 Y117.058 E19.26712
G1 X110.479 Y119.014 E19.45128
G1 X109.851 Y119.748 E19.51875
G1 X109.804 Y119.801 E19.5237
G1 X109.22 Y120.466 E19.58551
G1 X108.762 Y120.927 E19.6309
G1 X108.251 Y121.328 E19.67627
G1 X107.695 Y121.663 E19.72161
G1 X107.102 Y121.928 E19.76698
G1 X106.48 Y122.117 E19.81238
G1 X105.686 Y122.244 E19.86854
G1 X105.528 Y122.257 E19.87962
G1 X105.016 Y122.274 E19.9154
G1 X104.68 Y122.269 E19.93887
G1 X104.033 Y122.22 E19.98419
G1 X103.396 Y122.091 E20.02958
G1 X102.78 Y121.885 E20.07495
G1 X102.194 Y121.605 E20.12031
G1 X101.646 Y121.255 E20.16573
G1 X101.146 Y120.841 E20.21107
G1 X100.763 Y120.442 E20.2497
G1 X100.357 Y119.972 E20.29308
G1 X98.583 Y117.959 E20.48049
G1 X96.737 Y115.978 E20.66962
G1 X94.856 Y114.073 E20.85661
G1 X92.935 Y112.234 E21.04235
G1 X90.949 Y110.437 E21.22942
G1 X90.108 Y109.718 E21.30671
G1 X90.046 Y109.664 E21.31245
G1 X89.529 Y109.208 E21.3606
G1 X89.07 Y108.749 E21.40594
G1 X88.67 Y108.237 E21.45132
G1 X88.335 Y107.68 E21.49672
G1 X88.072 Y107.086 E21.54209
G1 X87.884 Y106.464 E21.58748
G1 X87.774 Y105.824 E21.63283
G1 X87.743 Y105.355 E21.66566
G1 X87.733 Y104.861 E21.70017
G1 X87.76 Y104.212 E21.74554
G1 X87.866 Y103.571 E21.79092
G1 X88.05 Y102.948 E21.83629
G1 X88.31 Y102.352 E21.88171
G1 X88.64 Y101.793 E21.92705
G1 X89.037 Y101.279 E21.97241
G1 X89.577 Y100.745 E22.02546
M204 S3000
M205 X10 Y10
G1 F2400 E16.02546
;MESH:Rocket.stl
G0 F3000 X101.954 Y104.094
G0 X103.422 Y104.47
G0 X105.575 Y104.035
M204 S1800
M205 X8 Y8
;TYPE:WALL-INNER
G1 F2400 E22.02546
G1 F1800 X105.749 Y104.163 E22.04055
G1 X105.901 Y104.333 E22.05647
G1 X106.016 Y104.526 E22.07217
G1 X106.107 Y104.792 E22.0918
G1 X106.141 Y104.995 E22.10618
G1 X106.063 Y105.354 E22.13184
G1 X105.937 Y105.617 E22.15221
G1 X105.807 Y105.781 E22.16682
G1 X105.64 Y105.921 E22.18205
G1 X105.44 Y106.032 E22.19802
G1 X105.16 Y106.116 E22.21844
G1 X105.006 Y106.138 E22.22931
G1 X104.619 Y106.055 E22.25695
G1 X104.425 Y105.965 E22.27189
G1 X104.251 Y105.837 E22.28698
G1 X104.099 Y105.667 E22.3029
G1 X103.984 Y105.474 E22.3186
G1 X103.893 Y105.208 E22.33823
G1 X103.859 Y105.004 E22.35268
G1 X103.938 Y104.644 E22.37842
G1 X104.063 Y104.383 E22.39863
G1 X104.193 Y104.219 E22.41325
G1 X104.36 Y104.079 E22.42847
G1 X104.56 Y103.968 E22.44445
G1 X104.84 Y103.884 E22.46487
G1 X104.994 Y103.862 E22.47573
G1 X105.381 Y103.945 E22.50338
G1 X105.575 Y104.035 E22.51831
M204 S3000
M205 X10 Y10
G0 F3000 X105.861 Y103.55
M204 S1800
M205 X8 Y8
G1 F1800 X106.129 Y103.748 E22.54159
G1 X106.354 Y103.999 E22.56513
G1 X106.527 Y104.289 E22.58872
G1 X106.651 Y104.652 E22.61551
G1 X106.711 Y105.012 E22.641
G1 X106.596 Y105.537 E22.67854
G1 X106.416 Y105.913 E22.70766
G1 X106.209 Y106.175 E22.73098
G1 X105.957 Y106.386 E22.75393
G1 X105.658 Y106.552 E22.77782
G1 X105.287 Y106.663 E22.80487
G1 X104.984 Y106.706 E22.82624
G1 X104.441 Y106.59 E22.86503
G1 X104.139 Y106.45 E22.88828
G1 X103.871 Y106.252 E22.91155
G1 X103.646 Y106.001 E22.93509
G1 X103.473 Y105.711 E22.95868
G1 X103.349 Y105.348 E22.98547
G1 X103.289 Y104.989 E23.0109
G1 X103.405 Y104.461 E23.04865
G1 X103.584 Y104.087 E23.07761
G1 X103.791 Y103.825 E23.10094
G1 X104.043 Y103.614 E23.12389
G1 X104.342 Y103.448 E23.14778
G1 X104.713 Y103.337 E23.17483
G1 X105.016 Y103.294 E23.1962
G1 X105.559 Y103.41 E23.23498
G1 X105.861 Y103.55 E23.25823
M204 S3000
M205 X10 Y10
G1 F2400 E17.25823
G0 F3000 X105.801 Y103.629
G0 X105.015 Y103.313
G0 X105.906 Y101.954
G0 X105.908 Y99.654
G0 X104.996 Y98.395
G0 X105.305 Y97.753
M204 S1800
M205 X8 Y8
G1 F2400 E23.25823
G1 F1800 X105.346 Y97.82 E23.26372
G1 X105.367 Y97.855 E23.26657
G1 X105.374 Y97.889 E23.269
G1 X105.395 Y97.989 E23.27613
G1 X105.382 Y98.073 E23.28207
G1 X105.376 Y98.12 E23.28538
G1 X105.361 Y98.15 E23.28772
G1 X105.325 Y98.219 E23.29316
G1 X105.313 Y98.242 E23.29497
G1 X105.232 Y98.321 E23.30287
G1 X105.195 Y98.338 E23.30572
G1 X105.101 Y98.383 E23.313
G1 X105.07 Y98.398 E23.3154
G1 X104.995 Y98.414 E23.32076
G1 X104.95 Y98.398 E23.32409
G1 X104.806 Y98.346 E23.33479
G1 X104.786 Y98.33 E23.33658
G1 X104.703 Y98.261 E23.34412
G1 X104.633 Y98.145 E23.35358
G1 X104.626 Y98.111 E23.356
G1 X104.605 Y98.011 E23.36314
G1 X104.618 Y97.927 E23.36908
G1 X104.624 Y97.88 E23.37239
G1 X104.687 Y97.758 E23.38198
G1 X104.756 Y97.69 E23.38874
G1 X104.768 Y97.679 E23.38988
G1 X104.899 Y97.617 E23.4
G1 X104.93 Y97.602 E23.40241
G1 X105.005 Y97.586 E23.40776
G1 X105.05 Y97.602 E23.4111
G1 X105.162 Y97.643 E23.41943
G1 X105.194 Y97.654 E23.42179
G1 X105.297 Y97.739 E23.43112
G1 X105.305 Y97.753 E23.43225
M204 S3000
M205 X10 Y10
G1 F2400 E17.43225
G0 F3000 X105.219 Y97.802
G0 X106.291 Y99.391
G0 X110.571 Y103.754
G0 X111.752 Y104.717
G0 X111.927 Y105.382
M204 S1800
M205 X8 Y8
G1 F2400 E23.43225
G1 F1800 X111.88 Y105.376 E23.43556
G1 X111.758 Y105.313 E23.44515
G1 X111.679 Y105.232 E23.45305
G1 X111.602 Y105.07 E23.46558
G1 X111.586 Y104.995 E23.47094
G1 X111.602 Y104.95 E23.47427
G1 X111.643 Y104.838 E23.4826
G1 X111.654 Y104.806 E23.48497
G1 X111.739 Y104.703 E23.49429
G1 X111.819 Y104.654 E23.50085
G1 X111.855 Y104.633 E23.50376
G1 X111.989 Y104.605 E23.51332
G1 X112.12 Y104.624 E23.52256
G1 X112.15 Y104.639 E23.52491
G1 X112.242 Y104.687 E23.53215
G1 X112.32 Y104.767 E23.53996
G1 X112.338 Y104.804 E23.54283
G1 X112.383 Y104.898 E23.55011
G1 X112.398 Y104.929 E23.55252
G1 X112.413 Y105.005 E23.55793
G1 X112.346 Y105.193 E23.57187
G1 X112.26 Y105.298 E23.58135
G1 X112.145 Y105.367 E23.59071
G1 X112.111 Y105.374 E23.59314
G1 X112.011 Y105.395 E23.60028
G1 X111.927 Y105.382 E23.60621
M204 S3000
M205 X10 Y10
G1 F2400 E17.60621
G0 F3000 X111.941 Y105.284
G0 X110.686 Y106.368
G0 X106.246 Y110.571
G0 X105.283 Y111.752
G0 X105.305 Y111.753
M204 S1800
M205 X8 Y8
G1 F2400 E23.60621
G1 F1800 X105.346 Y111.82 E23.6117
G1 X105.367 Y111.855 E23.61455
G1 X105.374 Y111.889 E23.61697
G1 X105.395 Y111.989 E23.62411
G1 X105.382 Y112.073 E23.63005
G1 X105.376 Y112.12 E23.63336
G1 X105.361 Y112.15 E23.6357
G1 X105.313 Y112.242 E23.64295
G1 X105.232 Y112.321 E23.65085
G1 X105.195 Y112.338 E23.6537
G1 X105.101 Y112.383 E23.66097
G1 X105.07 Y112.398 E23.66338
G1 X104.995 Y112.414 E23.66874
G1 X104.95 Y112.398 E23.67207
G1 X104.806 Y112.346 E23.68277
G1 X104.703 Y112.261 E23.69209
G1 X104.633 Y112.145 E23.70156
G1 X104.626 Y112.111 E23.70398
G1 X104.605 Y112.011 E23.71112
G1 X104.618 Y111.927 E23.71705
G1 X104.624 Y111.88 E23.72036
G1 X104.687 Y111.758 E23.72995
G1 X104.756 Y111.69 E23.73672
G1 X104.768 Y111.679 E23.73786
G1 X104.899 Y111.617 E23.74798
G1 X104.93 Y111.602 E23.75039
G1 X105.005 Y111.586 E23.75574
G1 X105.05 Y111.602 E23.75908
G1 X105.162 Y111.643 E23.76741
G1 X105.194 Y111.654 E23.76977
G1 X105.297 Y111.739 E23.7791
G1 X105.305 Y111.753 E23.78023
M204 S3000
M205 X10 Y10
G1 F2400 E17.78023
G0 F3000 X105.219 Y111.802
G0 X103.632 Y110.686
G0 X99.428 Y106.246
G0 X98.247 Y105.283
G0 X97.927 Y105.382
M204 S1800
M205 X8 Y8
G1 F2400 E23.78023
G1 F1800 X97.88 Y105.376 E23.78354
G1 X97.758 Y105.313 E23.79313
G1 X97.679 Y105.232 E23.80103
G1 X97.602 Y105.07 E23.81356
G1 X97.586 Y104.995 E23.81891
G1 X97.602 Y104.95 E23.82225
G1 X97.654 Y104.806 E23.83294
G1 X97.739 Y104.703 E23.84227
G1 X97.819 Y104.654 E23.84882
G1 X97.855 Y104.633 E23.85173
G1 X97.989 Y104.605 E23.8613
G1 X98.12 Y104.624 E23.87054
G1 X98.242 Y104.687 E23.88013
G1 X98.32 Y104.767 E23.88794
G1 X98.338 Y104.804 E23.89081
G1 X98.383 Y104.898 E23.89809
G1 X98.398 Y104.929 E23.90049
G1 X98.413 Y105.005 E23.9059
G1 X98.346 Y105.193 E23.91984
G1 X98.26 Y105.298 E23.92932
