;FLAVOR:Marlin
;TIME:2756
;Filament used: 0.937251m
;Layer height: 0.1
;MINX:96.513
;MINY:81.159
;MINZ:0.1
;MAXX:119.723
;MAXY:128.151
;MAXZ:12.075
;Generated with Cura_SteamEngine master
M140 S60
M105
M190 S60
M104 S200
M105
M109 S200
M82 ;absolute extrusion mode
; Sliced for AnyCubic Mega S
;
G21 ;metric values
G90 ;absolute positioning
M82 ;set extruder to absolute mode
M107 ;start with the fan off
G28 X0 Y0 ;move X/Y to min endstops
G28 Z0 ;move Z to min endstops
G1 Z15.0 F50 ;move the platform down 15mm
G92 E0 ;zero the extruded length
G1 F200 E3 ;extrude 3mm of feed stock
G92 E0 ;zero the extruded length again
G1 F50
M117 Printing...
G5
G92 E0
G92 E0
G1 F2400 E-6
;LAYER_COUNT:120
;LAYER:0
M106 S255
M204 S3000
M205 X10 Y10
G1 F600 Z0.175
G0 F1500 X100.749 Y88.512 Z0.175
M204 S1800
M205 X8 Y8
;TYPE:SKIRT
G1 F600 Z0.1
G1 F2400 E0
G1 X101.409 Y87.823 E0.02221
G1 X102.094 Y87.207 E0.04366
G1 X102.179 Y87.132 E0.0463
G1 X106.699 Y83.211 E0.18561
G1 X106.763 Y83.156 E0.18758
G1 X107.33 Y82.677 E0.20486
G1 X107.901 Y82.247 E0.2215
G1 X108.517 Y81.883 E0.23816
G1 X109.169 Y81.59 E0.2548
G1 X109.851 Y81.372 E0.27147
G1 X110.552 Y81.231 E0.28812
G1 X111.347 Y81.167 E0.30669
G1 X111.801 Y81.159 E0.31726
G1 X112.005 Y81.159 E0.32201
G1 X112.146 Y81.161 E0.32529
G1 X112.859 Y81.211 E0.34193
G1 X113.563 Y81.34 E0.3586
G1 X114.247 Y81.547 E0.37524
G1 X114.905 Y81.829 E0.3919
G1 X115.526 Y82.183 E0.40855
G1 X116.105 Y82.604 E0.42521
G1 X116.632 Y83.087 E0.44186
G1 X117.103 Y83.626 E0.45852
G1 X117.51 Y84.213 E0.47515
G1 X117.85 Y84.843 E0.49182
G1 X118.117 Y85.507 E0.50848
G1 X118.308 Y86.196 E0.52513
G1 X118.444 Y87.193 E0.54856
G1 X118.481 Y87.837 E0.56357
G1 X118.486 Y87.922 E0.56556
G1 X118.553 Y89.435 E0.60082
G1 X118.741 Y92.034 E0.66148
G1 X119.01 Y94.698 E0.72382
G1 X119.351 Y97.326 E0.78552
G1 X119.504 Y98.306 E0.80861
G1 X119.519 Y98.404 E0.81092
G1 X119.613 Y99.072 E0.82663
G1 X119.636 Y99.257 E0.83097
G1 X119.664 Y99.509 E0.83687
G1 X119.68 Y99.673 E0.84071
G1 X119.708 Y100.002 E0.8484
G1 X119.721 Y100.911 E0.86956
G1 X119.644 Y102.256 E0.90093
G1 X119.524 Y104.886 E0.96222
G1 X119.478 Y107.544 E1.02412
G1 X119.508 Y110.222 E1.08647
G1 X119.613 Y112.857 E1.14787
G1 X119.638 Y113.22 E1.15634
G1 X119.644 Y113.309 E1.15841
G1 X119.723 Y114.715 E1.1912
G1 X119.712 Y115.597 E1.21174
G1 X119.686 Y115.914 E1.21914
G1 X119.666 Y116.11 E1.22373
G1 X119.627 Y116.455 E1.23181
G1 X119.507 Y117.162 E1.24851
G1 X119.13 Y118.809 E1.28785
G1 X118.409 Y122.284 E1.37047
G1 X118.295 Y122.898 E1.38501
G1 X118.125 Y123.593 E1.40167
G1 X117.879 Y124.265 E1.41833
G1 X117.56 Y124.905 E1.43498
G1 X117.171 Y125.505 E1.45163
G1 X116.717 Y126.058 E1.46829
G1 X116.204 Y126.557 E1.48495
G1 X115.64 Y126.995 E1.50158
G1 X115.029 Y127.368 E1.51824
G1 X114.381 Y127.671 E1.5349
G1 X113.703 Y127.899 E1.55155
G1 X113.004 Y128.05 E1.5682
G1 X112.136 Y128.128 E1.58849
G1 X111.123 Y128.149 E1.61208
G1 X111.006 Y128.15 E1.61481
G1 X110.611 Y128.151 E1.624
G1 X110.508 Y128.15 E1.6264
G1 X109.847 Y128.141 E1.64179
G1 X109.133 Y128.092 E1.65845
G1 X108.43 Y127.963 E1.67509
G1 X107.745 Y127.756 E1.69175
G1 X107.088 Y127.474 E1.7084
G1 X106.466 Y127.121 E1.72505
G1 X105.734 Y126.571 E1.74637
G1 X105.55 Y126.411 E1.75205
G1 X105.324 Y126.204 E1.75918
G1 X103.671 Y124.621 E1.81247
G1 X102.22 Y123.299 E1.85817
G1 X101.725 Y122.794 E1.87463
G1 X101.397 Y122.421 E1.8862
G1 X101.198 Y122.184 E1.8934
G1 X100.868 Y121.77 E1.90573
G1 X100.278 Y120.889 E1.93041
G1 X100.053 Y120.484 E1.9412
G1 X99.963 Y120.316 E1.94564
G1 X99.751 Y119.906 E1.95638
G1 X99.363 Y118.986 E1.97963
G1 X99.215 Y118.541 E1.99055
G1 X99.138 Y118.291 E1.99664
G1 X99.001 Y117.815 E2.00817
G1 X98.792 Y116.772 E2.03294
G1 X98.663 Y115.644 E2.05937
G1 X98.329 Y113 E2.12142
G1 X97.921 Y110.366 E2.18347
G1 X97.452 Y107.819 E2.24377
G1 X96.807 Y104.886 E2.31369
G1 X96.796 Y104.831 E2.31499
G1 X96.651 Y104.143 E2.33136
G1 X96.542 Y103.436 E2.34802
G1 X96.513 Y102.823 E2.36231
G1 X96.513 Y102.453 E2.37092
G1 X96.544 Y101.828 E2.38549
G1 X96.658 Y100.667 E2.41265
G1 X96.781 Y99.324 E2.44405
G1 X96.794 Y99.195 E2.44707
G1 X96.869 Y98.528 E2.4627
G1 X96.989 Y97.823 E2.47935
G1 X97.078 Y97.475 E2.48771
G1 X97.253 Y96.866 E2.50246
G1 X97.306 Y96.69 E2.50674
G1 X97.519 Y96.022 E2.52306
G1 X97.675 Y95.589 E2.53378
G1 X98.72 Y92.976 E2.5993
G1 X99.684 Y90.365 E2.6641
G1 X99.969 Y89.709 E2.68075
G1 X100.325 Y89.089 E2.6974
G1 X100.749 Y88.512 E2.71407
M204 S3000
M205 X10 Y10
G0 F1500 X101.24 Y88.798
M204 S1800
M205 X8 Y8
G1 F2400 X101.783 Y88.24 E2.7322
G1 X102.468 Y87.624 E2.75365
G1 X102.546 Y87.555 E2.75607
G1 X107.066 Y83.634 E2.89538
G1 X107.124 Y83.584 E2.89717
G1 X107.691 Y83.105 E2.91445
G1 X108.238 Y82.695 E2.93036
G1 X108.829 Y82.352 E2.94627
G1 X109.456 Y82.081 E2.96217
G1 X110.11 Y81.884 E2.97808
G1 X110.783 Y81.765 E2.99399
G1 X111.357 Y81.727 E3.00738
G1 X111.811 Y81.719 E3.01795
G1 X111.997 Y81.719 E3.02228
G1 X112.138 Y81.721 E3.02557
G1 X112.819 Y81.77 E3.04146
G1 X113.49 Y81.899 E3.05737
G1 X114.142 Y82.105 E3.07329
G1 X114.764 Y82.386 E3.08918
G1 X115.35 Y82.738 E3.1051
G1 X115.891 Y83.156 E3.12101
G1 X116.379 Y83.634 E3.13692
G1 X116.808 Y84.166 E3.15283
G1 X117.171 Y84.744 E3.16872
G1 X117.465 Y85.361 E3.18463
G1 X117.685 Y86.008 E3.20054
G1 X117.828 Y86.676 E3.21645
G1 X117.885 Y87.225 E3.2293
G1 X117.922 Y87.869 E3.24432
G1 X117.926 Y87.946 E3.24611
G1 X117.992 Y89.432 E3.28074
G1 X118.187 Y92.128 E3.34368
G1 X118.452 Y94.757 E3.4052
G1 X118.791 Y97.374 E3.46663
G1 X118.951 Y98.393 E3.49065
G1 X118.964 Y98.482 E3.49274
G1 X119.058 Y99.15 E3.50845
G1 X119.079 Y99.319 E3.51241
G1 X119.107 Y99.571 E3.51832
G1 X119.122 Y99.721 E3.52183
G1 X119.15 Y100.05 E3.52951
G1 X119.161 Y100.879 E3.54882
G1 X119.088 Y102.154 E3.57855
G1 X118.964 Y104.901 E3.64257
G1 X118.918 Y107.544 E3.70412
G1 X118.948 Y110.251 E3.76714
G1 X119.051 Y112.841 E3.82749
G1 X119.08 Y113.259 E3.83725
G1 X119.085 Y113.34 E3.83914
G1 X119.164 Y114.746 E3.87192
G1 X119.153 Y115.551 E3.89067
G1 X119.127 Y115.868 E3.89807
G1 X119.11 Y116.047 E3.90226
G1 X119.071 Y116.392 E3.91034
G1 X118.961 Y117.038 E3.9256
G1 X118.585 Y118.681 E3.96484
G1 X117.863 Y122.16 E4.04756
G1 X117.745 Y122.796 E4.06262
G1 X117.581 Y123.459 E4.07853
G1 X117.341 Y124.099 E4.09444
G1 X117.027 Y124.706 E4.11035
G1 X116.645 Y125.272 E4.12625
G1 X116.2 Y125.79 E4.14215
G1 X115.696 Y126.253 E4.15808
G1 X115.143 Y126.653 E4.17397
G1 X114.546 Y126.986 E4.18989
G1 X113.915 Y127.247 E4.20579
G1 X113.257 Y127.433 E4.22171
G1 X112.583 Y127.54 E4.23759
G1 X112.124 Y127.568 E4.2483
G1 X111.111 Y127.589 E4.27189
G1 X111.005 Y127.59 E4.27436
G1 X110.61 Y127.591 E4.28355
G1 X110.515 Y127.59 E4.28577
G1 X109.854 Y127.581 E4.30116
G1 X109.173 Y127.532 E4.31705
G1 X108.502 Y127.404 E4.33296
G1 X107.851 Y127.198 E4.34885
G1 X107.228 Y126.917 E4.36477
G1 X106.642 Y126.566 E4.38067
G1 X106.102 Y126.149 E4.39655
G1 X105.918 Y125.989 E4.40223
G1 X105.711 Y125.8 E4.40876
G1 X104.019 Y124.18 E4.4633
G1 X102.598 Y122.885 E4.50806
G1 X102.145 Y122.424 E4.52311
G1 X101.817 Y122.051 E4.53467
G1 X101.636 Y121.835 E4.54123
G1 X101.306 Y121.421 E4.55356
G1 X100.768 Y120.617 E4.57608
G1 X100.543 Y120.212 E4.58687
G1 X100.46 Y120.058 E4.59094
G1 X100.248 Y119.648 E4.60169
G1 X99.894 Y118.809 E4.62289
G1 X99.746 Y118.364 E4.63381
G1 X99.676 Y118.136 E4.63936
G1 X99.539 Y117.66 E4.65089
G1 X99.349 Y116.709 E4.67347
G1 X99.22 Y115.581 E4.6999
G1 X98.884 Y112.919 E4.76237
G1 X98.476 Y110.283 E4.82447
G1 X98.002 Y107.713 E4.88532
G1 X97.354 Y104.766 E4.95557
G1 X97.344 Y104.715 E4.95678
G1 X97.199 Y104.027 E4.97315
G1 X97.097 Y103.352 E4.98904
G1 X97.073 Y102.823 E5.00137
G1 X97.073 Y102.453 E5.00999
G1 X97.101 Y101.882 E5.0233
G1 X97.215 Y100.721 E5.05046
G1 X97.339 Y99.376 E5.0819
G1 X97.351 Y99.257 E5.08469
G1 X97.426 Y98.59 E5.10032
G1 X97.616 Y97.63 E5.1231
G1 X97.791 Y97.021 E5.13785
G1 X97.84 Y96.86 E5.14177
G1 X98.053 Y96.192 E5.15809
G1 X98.195 Y95.797 E5.16787
G1 X99.238 Y93.19 E5.23324
G1 X100.209 Y90.559 E5.29854
G1 X100.483 Y89.933 E5.31444
G1 X100.828 Y89.344 E5.33034
G1 X101.24 Y88.798 E5.34626
M204 S3000
M205 X10 Y10
G0 F1500 X101.729 Y89.088
M204 S1800
M205 X8 Y8
G1 F2400 X102.157 Y88.656 E5.36042
G1 X102.842 Y88.04 E5.38187
G1 X102.913 Y87.978 E5.38406
G1 X107.433 Y84.057 E5.52338
G1 X107.486 Y84.012 E5.525
G1 X108.053 Y83.533 E5.54228
G1 X108.574 Y83.145 E5.5574
G1 X109.138 Y82.824 E5.57251
G1 X109.738 Y82.575 E5.58763
G1 X110.364 Y82.401 E5.60276
G1 X111.007 Y82.305 E5.6179
G1 X111.367 Y82.287 E5.62629
G1 X111.821 Y82.279 E5.63686
G1 X111.989 Y82.279 E5.64077
G1 X112.13 Y82.281 E5.64406
G1 X112.778 Y82.33 E5.65919
G1 X113.414 Y82.458 E5.67429
G1 X114.031 Y82.664 E5.68943
G1 X114.617 Y82.943 E5.70454
G1 X115.165 Y83.293 E5.71968
G1 X115.665 Y83.707 E5.7348
G1 X116.111 Y84.179 E5.74992
G1 X116.495 Y84.703 E5.76504
G1 X116.813 Y85.27 E5.78018
G1 X117.058 Y85.872 E5.79531
G1 X117.227 Y86.499 E5.81043
G1 X117.326 Y87.257 E5.82823
G1 X117.363 Y87.901 E5.84324
G1 X117.367 Y87.971 E5.84488
G1 X117.434 Y89.496 E5.88042
G1 X117.627 Y92.158 E5.94255
G1 X117.895 Y94.812 E6.00466
G1 X118.243 Y97.496 E6.06767
G1 X118.397 Y98.48 E6.09086
G1 X118.409 Y98.56 E6.09274
G1 X118.503 Y99.228 E6.10845
G1 X118.523 Y99.381 E6.11204
G1 X118.551 Y99.633 E6.11795
G1 X118.564 Y99.768 E6.1211
G1 X118.592 Y100.097 E6.12879
G1 X118.602 Y100.847 E6.14625
G1 X118.529 Y102.129 E6.17615
G1 X118.403 Y104.903 E6.2408
G1 X118.358 Y107.54 E6.3022
G1 X118.388 Y110.244 E6.36516
G1 X118.494 Y112.914 E6.42738
G1 X118.521 Y113.298 E6.43634
G1 X118.526 Y113.372 E6.43806
G1 X118.605 Y114.778 E6.47085
G1 X118.595 Y115.506 E6.4878
G1 X118.569 Y115.823 E6.49521
G1 X118.554 Y115.984 E6.49897
G1 X118.515 Y116.329 E6.50706
G1 X118.415 Y116.913 E6.52085
G1 X118.042 Y118.543 E6.55978
G1 X117.313 Y122.055 E6.64329
G1 X117.194 Y122.694 E6.65842
G1 X117.036 Y123.324 E6.67355
G1 X116.802 Y123.93 E6.68867
G1 X116.496 Y124.503 E6.70379
G1 X116.121 Y125.033 E6.71891
G1 X115.684 Y125.514 E6.73404
G1 X115.192 Y125.937 E6.74915
G1 X114.651 Y126.297 E6.76428
G1 X114.07 Y126.588 E6.7794
G1 X113.457 Y126.805 E6.79454
G1 X112.823 Y126.945 E6.80966
G1 X112.112 Y127.008 E6.82628
G1 X111.099 Y127.029 E6.84987
G1 X111.003 Y127.03 E6.8521
G1 X110.608 Y127.031 E6.8613
G1 X110.523 Y127.031 E6.86328
G1 X109.862 Y127.022 E6.87867
G1 X109.214 Y126.973 E6.8938
G1 X108.577 Y126.845 E6.90893
G1 X107.961 Y126.64 E6.92404
G1 X107.375 Y126.36 E6.93916
G1 X106.827 Y126.011 E6.95429
G1 X106.469 Y125.726 E6.96494
G1 X106.285 Y125.566 E6.97062
G1 X106.098 Y125.396 E6.9765
G1 X104.387 Y123.758 E7.03165
G1 X102.975 Y122.471 E7.07613
G1 X102.566 Y122.055 E7.08971
G1 X102.238 Y121.682 E7.10128
G1 X102.074 Y121.486 E7.10723
G1 X101.744 Y121.072 E7.11956
G1 X101.257 Y120.345 E7.13993
G1 X101.032 Y119.94 E7.15071
G1 X100.958 Y119.801 E7.15438
G1 X100.746 Y119.391 E7.16513
G1 X100.426 Y118.632 E7.1843
G1 X100.278 Y118.187 E7.19522
G1 X100.214 Y117.981 E7.20025
G1 X100.077 Y117.505 E7.21178
G1 X99.905 Y116.645 E7.2322
G1 X99.783 Y115.578 E7.2572
G1 X99.436 Y112.828 E7.32173
G1 X99.029 Y110.199 E7.38367
G1 X98.546 Y107.578 E7.44572
G1 X97.901 Y104.645 E7.51564
G1 X97.891 Y104.6 E7.51671
G1 X97.746 Y103.912 E7.53308
G1 X97.652 Y103.269 E7.54821
G1 X97.633 Y102.823 E7.55861
G1 X97.633 Y102.453 E7.56722
G1 X97.658 Y101.937 E7.57925
G1 X97.772 Y100.776 E7.60641
G1 X97.896 Y99.427 E7.63795
G1 X97.907 Y99.32 E7.64045
G1 X97.982 Y98.653 E7.65608
G1 X98.154 Y97.785 E7.67668
G1 X98.329 Y97.176 E7.69143
G1 X98.374 Y97.03 E7.69499
G1 X98.587 Y96.362 E7.71131
G1 X98.715 Y96.005 E7.72014
G1 X99.769 Y93.371 E7.7862
G1 X100.735 Y90.753 E7.85117
G1 X100.997 Y90.159 E7.86628
G1 X101.33 Y89.601 E7.88141
G1 X101.729 Y89.088 E7.89654
M204 S3000
M205 X10 Y10
G1 F2400 E1.89654
;MESH:loader.STL
G0 F1500 X105.544 Y91.806
G0 X106.542 Y92.955
G0 X108.823 Y93.097
M204 S1800
M205 X8 Y8
;TYPE:WALL-INNER
G1 F2400 E7.89654
G1 F1200 X108.082 Y92.923 E7.91426
G1 X107.55 Y92.798 E7.92699
G1 X107.963 Y92.44 E7.93404
G1 X110.201 Y90.497 E8.00304
G1 X110.664 Y90.096 E8.01731
G1 X110.664 Y90.708 E8.02508
G1 X110.664 Y90.709 E8.0251
G1 X110.664 Y93.899 E8.09937
G1 X109.847 Y93.899 E8.11839
G1 X109.153 Y93.968 E8.13463
G1 X108.859 Y93.997 E8.14151
G1 X108.849 Y93.702 E8.14587
G1 X108.848 Y93.701 E8.14591
G1 X108.823 Y93.097 E8.15998
M204 S3000
M205 X10 Y10
G0 F1500 X108.28 Y93.545
M204 S1800
M205 X8 Y8
G1 F1200 X106.88 Y93.215 E8.19347
G1 X106.524 Y93.132 E8.20198
G1 X106.524 Y92.947 E8.20629
G1 X106.8 Y92.708 E8.21225
G1 X110.762 Y89.269 E8.3344
G1 X111.224 Y88.868 E8.34864
G1 X111.224 Y89.479 E8.3564
G1 X111.224 Y89.481 E8.35644
G1 X111.224 Y94.459 E8.47234
G1 X109.875 Y94.459 E8.50375
G1 X108.805 Y94.565 E8.52878
G1 X108.722 Y94.573 E8.53072
G1 X108.326 Y94.693 E8.54036
G1 X108.322 Y94.589
G1 X108.319 Y94.505 E8.54211
G1 X108.28 Y93.545 E8.56448
M204 S3000
M205 X10 Y10
G0 F1500 X108.357 Y93.482
G0 X106.806 Y95.922
G0 X105.956 Y96.619
G0 X105.26 Y97.468
G0 X104.743 Y98.436
G0 X104.484 Y99.286
G0 X103.829 Y102.507
G0 X103.921 Y102.47
M204 S1800
M205 X8 Y8
G1 F1200 X103.945 Y102.527 E8.56592
G1 X103.962 Y102.567 E8.56693
G1 X103.981 Y102.612 E8.56807
G1 X103.981 Y102.659 E8.56916
G1 X103.963 Y102.702 E8.57025
G1 X103.929 Y102.736 E8.57137
G1 X103.885 Y102.754 E8.57248
G1 X103.839 Y102.754 E8.57355
G1 X103.795 Y102.736 E8.57404
G1 X103.761 Y102.702 E8.57451
G1 X103.743 Y102.659 E8.57495
G1 X103.743 Y102.611 E8.57534
G1 X103.761 Y102.568 E8.57568
G1 X103.777 Y102.529 E8.57588
G1 X103.796 Y102.506 E8.57606
G1 X103.819 Y102.478 E8.57634
G1 X103.89 Y102.394 E8.5775
G1 X103.921 Y102.47 E8.57767
M204 S3000
M205 X10 Y10
G0 F1500 X103.829 Y102.507
G0 X104.423 Y99.487
G0 X104.743 Y98.436
G0 X105.26 Y97.468
G0 X105.823 Y96.781
G0 X108.415 Y94.392
G0 X107.754 Y94.419
M204 S1800
M205 X8 Y8
;TYPE:WALL-OUTER
G1 F1200 X107.737 Y93.993 E8.5876
G1 X107.503 Y93.938 E8.5932
G1 X105.964 Y93.576 E8.63001
G1 X105.964 Y92.691 E8.65061
G1 X111.284 Y88.075 E8.8146
G1 X111.566 Y87.83 E8.82329
G1 X111.784 Y87.83 E8.82837
G1 X111.784 Y88.204 E8.83466
G1 X111.784 Y95.019 E8.99333
G1 X109.903 Y95.019 E9.03712
G1 X108.832 Y95.125 E9.06218
G1 X107.788 Y95.441 E9.08757
G1 X106.828 Y95.955 E9.11293
G1 X105.984 Y96.647 E9.13834
G1 X105.293 Y97.49 E9.16371
G1 X104.779 Y98.451 E9.18909
G1 X104.462 Y99.494 E9.21447
G1 X104.357 Y100.565 E9.23952
G1 X104.357 Y102.058 E9.27428
G1 X104.541 Y102.499 E9.28541
G1 X104.541 Y102.769 E9.29169
G1 X104.437 Y103.02 E9.29802
G1 X104.247 Y103.21 E9.30428
G1 X103.997 Y103.314 E9.31058
G1 X103.727 Y103.314 E9.31687
G1 X103.477 Y103.21 E9.32317
G1 X103.287 Y103.02 E9.32943
G1 X103.183 Y102.769 E9.33575
G1 X103.183 Y102.5 E9.34201
G1 X103.293 Y102.235 E9.34869
G1 X103.367 Y102.147 E9.35137
G1 X103.372 Y100.549 E9.38858
G1 X103.494 Y99.3 E9.41779
G1 X103.867 Y98.073 E9.44765
G1 X104.472 Y96.941 E9.47754
G1 X105.255 Y95.986 E9.50629
G1 X106.239 Y95.166 E9.53611
G1 X107.413 Y94.528 E9.56722
G1 X107.524 Y94.492 E9.56993
G1 X107.754 Y94.419 E9.57491
M204 S3000
M205 X10 Y10
G0 F1500 X107.747 Y94.219
G0 X108.407 Y94.192
G0 X109.385 Y93.392
M204 S1800
M205 X8 Y8
;TYPE:SKIN
G1 F1200 X109.355 Y92.657 E9.59203
G1 X108.723 Y92.508 E9.60715
G1 X110.114 Y91.302 E9.65001
G1 X110.114 Y93.349 E9.69767
G1 X109.82 Y93.349 E9.70452
G1 X109.385 Y93.392 E9.71469
M204 S3000
M205 X10 Y10
G0 F1500 X109.727 Y93.096
M204 S1800
M205 X8 Y8
G1 F1200 X109.628 Y92.997 E9.71795
M204 S3000
M205 X10 Y10
G0 F1500 X109.853 Y92.43
M204 S1800
M205 X8 Y8
G1 F1200 X109.554 Y92.131 E9.7278
M204 S3000
M205 X10 Y10
G0 F1500 X108.425 Y94.63
G0 X108.005 Y94.712
M204 S1800
M205 X8 Y8
;TYPE:SKIN
G1 F1200 X107.901 Y94.89 E9.73134
G1 X106.754 Y95.441 E9.75318
G1 X105.636 Y96.302 E9.7774
G1 X104.772 Y97.418 E9.80162
G1 X104.227 Y98.57 E9.82349
G1 X103.946 Y99.704 E9.84355
G1 X103.862 Y101.317 E9.87127
G1 X103.783 Y101.803 E9.87972
G1 X103.719 Y102.021 E9.88362
M204 S3000
M205 X10 Y10
G1 F2400 E3.88362
G0 F1500 X103.875 Y102.492
G0 X107.03 Y101.776
G0 X107.902 Y102.295
G0 X109.421 Y103.102
G0 X109.439 Y103.004
M204 S1800
M205 X8 Y8
