;FLAVOR:Marlin
;TIME:883
;Filament used: 1.32866m
;Layer height: 0.3
;MINX:42.622
;MINY:30.109
;MINZ:0.3
;MAXX:167.377
;MAXY:179.864
;MAXZ:1.8
;Generated with Cura_SteamEngine master
M140 S60
M105
M190 S60
M104 S200
M105
M109 S200
M82 ;absolute extrusion mode
G21 ;metric values
G90 ;absolute positioning
M82 ;set extruder to absolute mode
M107 ;start with the fan off
G28 X0 Y0 ;move X/Y to min endstops
G28 Z0 ;move Z to min endstops
G1 Z15.0 F100 ;move the platform down 15mm
G92 E0 ;zero the extruded length
G1 F200 E3 ;extrude 3mm of feed stock
G92 E0 ;zero the extruded length again
G1 F100
G0 Y20 F100
M117 Printing...
G5
G92 E0
G92 E0
G1 F2400 E-6
;LAYER_COUNT:6
;LAYER:0
M106 S255
M204 S3000
M205 X10 Y10
G1 F600 Z0.375
G0 F3000 X53.125 Y40.821 Z0.375
M204 S1800
M205 X8 Y8
;TYPE:SKIRT
G1 F600 Z0.3
G1 F2400 E0
G1 X53.2 Y40.725 E0.00851
G1 X54.496 Y39.09 E0.15423
G1 X54.55 Y39.022 E0.1603
G1 X54.991 Y38.481 E0.20905
G1 X55.369 Y38.058 E0.24867
G1 X55.637 Y37.783 E0.27549
G1 X55.767 Y37.654 E0.28828
G1 X56.602 Y36.845 E0.36949
G1 X56.675 Y36.774 E0.3766
G1 X58.335 Y35.216 E0.53561
G1 X58.401 Y35.155 E0.54189
G1 X58.881 Y34.717 E0.58728
G1 X59.436 Y34.266 E0.63723
G1 X59.933 Y33.939 E0.67878
G1 X60.328 Y33.705 E0.71085
G1 X60.963 Y33.375 E0.76083
G1 X61.63 Y33.118 E0.81076
G1 X62.417 Y32.919 E0.86746
G1 X62.814 Y32.845 E0.89566
G1 X63.524 Y32.754 E0.94566
G1 X64.161 Y32.739 E0.99016
G1 X64.75 Y32.755 E1.03132
G1 X67.409 Y32.794 E1.21706
G1 X70.046 Y32.757 E1.40126
G1 X72.695 Y32.645 E1.58645
G1 X75.327 Y32.459 E1.77075
G1 X77.993 Y32.195 E1.95787
G1 X80.04 Y31.94 E2.10195
G1 X84.846 Y31.287 E2.44071
G1 X84.948 Y31.274 E2.44789
G1 X86.378 Y31.103 E2.54849
G1 X86.557 Y31.084 E2.56106
G1 X87.314 Y31.015 E2.61415
G1 X87.377 Y31.01 E2.61857
G1 X94.485 Y30.433 E3.11667
G1 X94.697 Y30.419 E3.13151
G1 X96.663 Y30.325 E3.26898
G1 X96.796 Y30.32 E3.27828
G1 X104.137 Y30.121 E3.79121
G1 X104.253 Y30.119 E3.79931
G1 X105.376 Y30.109 E3.87775
G1 X105.572 Y30.111 E3.89144
G1 X105.894 Y30.118 E3.91394
G1 X105.926 Y30.118 E3.91617
G1 X113.166 Y30.312 E4.42204
G1 X113.283 Y30.316 E4.43022
G1 X114.815 Y30.385 E4.53733
G1 X114.984 Y30.395 E4.54915
G1 X115.571 Y30.437 E4.59026
G1 X115.633 Y30.442 E4.5946
G1 X123 Y31.041 E5.11086
G1 X123.224 Y31.063 E5.12658
G1 X124.858 Y31.254 E5.24149
G1 X124.978 Y31.269 E5.24993
G1 X129.935 Y31.943 E5.59935
G1 X132.561 Y32.262 E5.78411
G1 X135.178 Y32.507 E5.9677
G1 X137.839 Y32.678 E6.15394
G1 X140.485 Y32.775 E6.33888
G1 X143.12 Y32.795 E6.52293
G1 X144.242 Y32.767 E6.60132
G1 X144.335 Y32.765 E6.60782
G1 X145.849 Y32.749 E6.71357
G1 X146.128 Y32.752 E6.73306
G1 X146.431 Y32.762 E6.75424
G1 X147.144 Y32.826 E6.80424
G1 X147.844 Y32.969 E6.85414
G1 X148.396 Y33.14 E6.8945
G1 X148.75 Y33.268 E6.92079
G1 X149.408 Y33.549 E6.97077
G1 X150.031 Y33.901 E7.02075
G1 X150.399 Y34.156 E7.05202
G1 X150.623 Y34.323 E7.07153
G1 X151.08 Y34.698 E7.11282
G1 X152.083 Y35.601 E7.20709
G1 X152.179 Y35.688 E7.21614
G1 X153.64 Y37.058 E7.35603
G1 X153.716 Y37.131 E7.36339
G1 X154.167 Y37.568 E7.40725
G1 X154.552 Y37.976 E7.44643
G1 X155.047 Y38.548 E7.49927
G1 X155.182 Y38.708 E7.51389
G1 X155.548 Y39.16 E7.55451
G1 X155.588 Y39.21 E7.55899
G1 X157.109 Y41.127 E7.72991
G1 X157.17 Y41.205 E7.73682
G1 X157.608 Y41.775 E7.78703
G1 X158.022 Y42.384 E7.83847
G1 X158.465 Y43.123 E7.89865
G1 X158.515 Y43.208 E7.90554
G1 X159.666 Y45.197 E8.06604
G1 X159.71 Y45.273 E8.07218
G1 X160.08 Y45.933 E8.12503
G1 X160.164 Y46.09 E8.13746
G1 X160.281 Y46.313 E8.15505
G1 X160.347 Y46.441 E8.16511
G1 X160.478 Y46.705 E8.1857
G1 X160.651 Y47.084 E8.2148
G1 X161.076 Y48.102 E8.29185
G1 X161.121 Y48.212 E8.30015
G1 X161.881 Y50.132 E8.44438
G1 X161.909 Y50.206 E8.4499
G1 X162.164 Y50.874 E8.49984
G1 X162.348 Y51.43 E8.54075
G1 X162.439 Y51.755 E8.56432
G1 X162.483 Y51.92 E8.57625
G1 X162.772 Y53.069 E8.659
G1 X162.796 Y53.168 E8.66612
G1 X163.305 Y55.338 E8.8218
G1 X163.325 Y55.427 E8.82817
G1 X163.482 Y56.142 E8.8793
G1 X163.596 Y56.848 E8.92925
G1 X163.631 Y57.543 E8.97785
G1 X163.629 Y57.998 E9.00963
G1 X163.586 Y58.712 E9.0596
G1 X163.417 Y59.604 E9.12301
G1 X163.065 Y60.937 E9.2193
G1 X163.044 Y61.016 E9.22501
G1 X162.947 Y61.367 E9.25045
G1 X162.318 Y63.905 E9.43308
G1 X161.753 Y66.493 E9.6181
G1 X161.259 Y69.123 E9.80501
G1 X160.844 Y71.731 E9.98946
G1 X160.504 Y74.341 E10.1733
G1 X160.237 Y76.967 E10.35766
G1 X160.045 Y79.598 E10.54191
G1 X159.924 Y82.281 E10.7295
G1 X159.881 Y84.886 E10.91148
G1 X159.913 Y87.576 E11.09938
G1 X160.012 Y90.087 E11.2749
G1 X160.164 Y92.994 E11.47822
G1 X160.347 Y95.737 E11.67023
G1 X160.597 Y98.369 E11.85489
G1 X160.92 Y100.971 E12.03803
G1 X161.321 Y103.601 E12.22385
G1 X161.795 Y106.21 E12.40906
G1 X162.335 Y108.766 E12.59153
G1 X162.963 Y111.38 E12.7793
G1 X163.658 Y113.942 E12.96471
G1 X164.419 Y116.466 E13.14885
G1 X165.244 Y118.946 E13.3314
G1 X166.161 Y121.462 E13.51844
G1 X166.646 Y122.688 E13.61053
G1 X166.683 Y122.785 E13.61778
G1 X166.855 Y123.241 E13.65182
G1 X167.078 Y123.955 E13.70406
G1 X167.18 Y124.365 E13.73357
G1 X167.313 Y125.068 E13.78355
G1 X167.368 Y125.818 E13.83607
G1 X167.377 Y126.446 E13.87994
G1 X167.376 Y126.69 E13.89698
G1 X167.34 Y128.205 E14.00283
G1 X167.337 Y128.3 E14.00947
G1 X167.313 Y128.922 E14.05295
G1 X167.24 Y129.669 E14.10537
G1 X167.081 Y130.68 E14.17685
G1 X167.062 Y130.795 E14.18499
G1 X166.872 Y131.875 E14.26159
G1 X166.856 Y131.965 E14.26797
G1 X166.721 Y132.673 E14.31831
G1 X166.598 Y133.195 E14.35577
G1 X166.543 Y133.392 E14.37006
G1 X166.457 Y133.674 E14.39065
G1 X166.169 Y134.548 E14.45492
G1 X166.139 Y134.638 E14.46155
G1 X165.722 Y135.843 E14.55061
G1 X165.692 Y135.928 E14.55691
G1 X165.502 Y136.453 E14.5959
G1 X165.205 Y137.144 E14.64844
G1 X164.719 Y138.113 E14.72415
G1 X164.66 Y138.227 E14.73312
G1 X164.306 Y138.899 E14.78617
G1 X164.267 Y138.972 E14.79195
G1 X163.935 Y139.583 E14.84052
G1 X163.827 Y139.773 E14.85579
G1 X163.641 Y140.089 E14.8814
G1 X163.361 Y140.524 E14.91753
G1 X162.707 Y141.454 E14.99694
G1 X162.613 Y141.584 E15.00815
G1 X162.083 Y142.299 E15.07031
G1 X162.029 Y142.372 E15.07665
G1 X161.635 Y142.888 E15.122
G1 X161.149 Y143.452 E15.174
G1 X160.48 Y144.144 E15.24123
G1 X160.393 Y144.233 E15.24992
G1 X159.444 Y145.177 E15.34341
G1 X159.383 Y145.237 E15.34939
G1 X158.936 Y145.67 E15.39286
G1 X158.352 Y146.171 E15.4466
G1 X157.423 Y146.876 E15.52806
G1 X157.316 Y146.956 E15.53739
G1 X156.676 Y147.421 E15.59264
G1 X156.598 Y147.476 E15.59931
G1 X156.054 Y147.859 E15.64578
G1 X155.916 Y147.954 E15.65748
G1 X155.626 Y148.147 E15.68181
G1 X155.132 Y148.444 E15.72207
G1 X154.135 Y148.985 E15.8013
G1 X154.006 Y149.054 E15.81152
G1 X152.843 Y149.651 E15.90283
G1 X152.768 Y149.688 E15.90867
G1 X152.116 Y150.012 E15.95952
G1 X151.781 Y150.167 E15.9853
G1 X151.521 Y150.278 E16.00505
G1 X151.391 Y150.332 E16.01488
G1 X150.86 Y150.545 E16.05484
G1 X149.065 Y151.279 E16.19029
G1 X146.661 Y152.335 E16.37369
G1 X144.267 Y153.467 E16.55865
G1 X141.901 Y154.669 E16.74401
G1 X139.547 Y155.95 E16.9312
G1 X137.3 Y157.257 E17.11276
G1 X135.017 Y158.671 E17.30033
G1 X132.833 Y160.112 E17.48308
G1 X130.677 Y161.624 E17.66701
G1 X128.523 Y163.228 E17.85459
G1 X126.447 Y164.866 E18.03929
G1 X124.416 Y166.564 E18.2242
G1 X122.444 Y168.31 E18.40816
G1 X120.494 Y170.137 E18.5948
G1 X118.657 Y171.96 E18.77557
G1 X116.792 Y173.917 E18.96439
G1 X116.245 Y174.521 E19.0213
G1 X116.205 Y174.564 E19.0254
G1 X115.393 Y175.445 E19.10909
G1 X115.032 Y175.807 E19.1448
G1 X114.793 Y176.028 E19.16753
G1 X114.577 Y176.219 E19.18767
G1 X113.973 Y176.729 E19.24289
G1 X113.399 Y177.161 E19.29306
G1 X112.86 Y177.521 E19.33834
G1 X112.681 Y177.636 E19.3532
G1 X112.143 Y177.97 E19.39743
G1 X111.509 Y178.316 E19.44787
G1 X111.218 Y178.454 E19.47037
G1 X110.98 Y178.561 E19.4886
G1 X110.124 Y178.925 E19.55357
G1 X109.444 Y179.17 E19.60405
G1 X109.111 Y179.269 E19.62831
G1 X108.909 Y179.325 E19.64296
G1 X108.699 Y179.38 E19.65812
G1 X108.605 Y179.404 E19.66489
G1 X107.93 Y179.57 E19.71345
G1 X107.228 Y179.701 E19.76332
G1 X106.936 Y179.739 E19.78389
G1 X106.747 Y179.761 E19.79718
G1 X106.467 Y179.789 E19.81684
G1 X106.358 Y179.799 E19.82448
G1 X105.79 Y179.846 E19.86429
G1 X105.029 Y179.864 E19.91746
G1 X104.067 Y179.829 E19.98469
G1 X103.823 Y179.815 E20.00176
G1 X103.422 Y179.785 E20.02985
G1 X102.738 Y179.697 E20.07802
G1 X102.456 Y179.645 E20.09805
G1 X102.262 Y179.606 E20.11187
G1 X101.962 Y179.541 E20.13331
G1 X101.844 Y179.514 E20.14176
G1 X101.231 Y179.369 E20.18576
G1 X100.586 Y179.181 E20.23269
G1 X100.258 Y179.066 E20.25696
G1 X100.032 Y178.981 E20.27383
G1 X99.816 Y178.896 E20.29004
G1 X99.731 Y178.862 E20.29644
G1 X99.08 Y178.595 E20.34558
G1 X98.435 Y178.287 E20.3955
G1 X98.194 Y178.155 E20.4147
G1 X98.047 Y178.072 E20.42649
G1 X97.865 Y177.966 E20.4412
G1 X97.764 Y177.906 E20.4494
G1 X97.107 Y177.507 E20.50309
G1 X96.507 Y177.095 E20.55393
G1 X96.222 Y176.874 E20.57912
G1 X96.075 Y176.756 E20.59229
G1 X95.905 Y176.616 E20.60767
G1 X95.827 Y176.551 E20.61476
G1 X95.378 Y176.169 E20.65593
G1 X94.826 Y175.639 E20.70938
G1 X92.85 Y173.501 E20.91273
G1 X90.988 Y171.575 E21.09984
G1 X89.082 Y169.709 E21.28614
G1 X87.165 Y167.936 E21.46853
G1 X85.151 Y166.177 E21.6553
G1 X83.119 Y164.501 E21.83927
G1 X81.013 Y162.862 E22.02567
G1 X78.887 Y161.302 E22.20985
G1 X76.731 Y159.811 E22.39294
G1 X74.479 Y158.347 E22.58055
G1 X72.249 Y156.986 E22.76302
G1 X69.921 Y155.653 E22.95039
G1 X67.595 Y154.407 E23.1347
G1 X65.248 Y153.235 E23.31793
G1 X62.852 Y152.121 E23.50248
G1 X59.346 Y150.634 E23.76848
G1 X58.536 Y150.308 E23.82947
G1 X58.237 Y150.179 E23.85221
G1 X58.034 Y150.085 E23.86784
G1 X57.861 Y150.001 E23.88127
G1 X57.631 Y149.886 E23.89923
G1 X57.582 Y149.861 E23.90307
G1 X55.777 Y148.939 E24.04464
G1 X55.7 Y148.9 E24.05067
G1 X55.109 Y148.588 E24.09735
G1 X54.471 Y148.201 E24.14946
G1 X53.821 Y147.754 E24.20456
G1 X53.742 Y147.699 E24.21129
G1 X52.535 Y146.842 E24.31468
G1 X52.463 Y146.791 E24.32084
G1 X51.872 Y146.359 E24.37198
G1 X51.321 Y145.907 E24.42175
G1 X51.077 Y145.683 E24.44489
G1 X50.93 Y145.543 E24.45907
G1 X49.7 Y144.34 E24.57924
G1 X49.636 Y144.277 E24.58551
G1 X49.123 Y143.761 E24.63633
G1 X48.596 Y143.16 E24.69216
G1 X47.882 Y142.235 E24.77378
G1 X47.805 Y142.133 E24.7827
G1 X47.085 Y141.161 E24.86719
G1 X47.036 Y141.094 E24.87299
G1 X46.703 Y140.632 E24.91277
G1 X46.294 Y139.987 E24.96611
G1 X45.762 Y139.025 E25.04289
G1 X45.701 Y138.911 E25.05192
G1 X45.328 Y138.203 E25.10782
G1 X45.284 Y138.119 E25.11444
G1 X44.968 Y137.497 E25.16317
G1 X44.896 Y137.35 E25.1746
G1 X44.776 Y137.098 E25.1941
G1 X44.557 Y136.58 E25.23338
G1 X44.136 Y135.45 E25.31761
G1 X44.083 Y135.303 E25.32852
G1 X43.798 Y134.477 E25.38955
G1 X43.766 Y134.383 E25.39649
G1 X43.569 Y133.782 E25.44066
G1 X43.382 Y133.075 E25.49174
G1 X43.191 Y132.144 E25.55812
G1 X43.167 Y132.023 E25.56674
G1 X42.919 Y130.683 E25.66192
G1 X42.902 Y130.589 E25.66859
G1 X42.801 Y129.994 E25.71075
G1 X42.719 Y129.241 E25.76365
G1 X42.661 Y128.074 E25.84526
G1 X42.655 Y127.929 E25.8554
G1 X42.632 Y127.079 E25.91479
G1 X42.631 Y126.991 E25.92094
G1 X42.622 Y126.314 E25.96823
G1 X42.632 Y125.861 E25.99988
G1 X42.659 Y125.392 E26.03269
G1 X42.74 Y124.681 E26.08267
G1 X42.899 Y123.984 E26.1326
G1 X43.106 Y123.383 E26.177
G1 X43.188 Y123.178 E26.19242
G1 X44.137 Y120.719 E26.37652
G1 X45.033 Y118.186 E26.56418
G1 X45.835 Y115.7 E26.74663
G1 X46.581 Y113.139 E26.93295
G1 X47.253 Y110.564 E27.11882
G1 X47.854 Y107.969 E27.30487
G1 X48.363 Y105.427 E27.48595
G1 X48.82 Y102.768 E27.67439
G1 X49.189 Y100.193 E27.85608
G1 X49.492 Y97.544 E28.04231
G1 X49.718 Y94.893 E28.22814
G1 X49.834 Y93.037 E28.35803
G1 X49.992 Y90.013 E28.56954
G1 X50.093 Y87.354 E28.75539
G1 X50.118 Y84.652 E28.94412
G1 X50.069 Y82.029 E29.12736
G1 X49.946 Y79.396 E29.31147
G1 X49.746 Y76.751 E29.49674
G1 X49.47 Y74.092 E29.68346
G1 X49.127 Y71.509 E29.86545
G1 X48.701 Y68.871 E30.0521
G1 X48.207 Y66.274 E30.23674
G1 X47.641 Y63.707 E30.42034
G1 X46.763 Y60.262 E30.66865
G1 X46.61 Y59.706 E30.70893
G1 X46.459 Y59.007 E30.75888
G1 X46.386 Y58.257 E30.81151
G1 X46.368 Y57.794 E30.84388
G1 X46.38 Y57.078 E30.89389
G1 X46.502 Y56.22 E30.95442
G1 X46.619 Y55.667 E30.9939
G1 X46.646 Y55.542 E31.00284
G1 X47.299 Y52.734 E31.2042
G1 X47.32 Y52.649 E31.21031
G1 X47.483 Y51.989 E31.2578
G1 X47.624 Y51.5 E31.29334
G1 X47.714 Y51.23 E31.31322
G1 X47.811 Y50.961 E31.33319
G1 X48.131 Y50.127 E31.39559
G1 X48.156 Y50.064 E31.40032
G1 X49.1 Y47.68 E31.57941
G1 X49.135 Y47.591 E31.58609
G1 X49.388 Y46.979 E31.63235
G1 X49.707 Y46.319 E31.68355
G1 X50.117 Y45.58 E31.74258
G1 X50.167 Y45.492 E31.74965
G1 X51.311 Y43.505 E31.90979
G1 X51.354 Y43.43 E31.91583
G1 X51.759 Y42.748 E31.97123
G1 X51.852 Y42.597 E31.98362
G1 X51.986 Y42.385 E32.00113
G1 X52.078 Y42.244 E32.01289
G1 X52.236 Y42.008 E32.03273
G1 X52.464 Y41.688 E32.06017
G1 X53.125 Y40.821 E32.13632
M204 S3000
M205 X10 Y10
G0 F3000 X53.571 Y41.16
M204 S1800
M205 X8 Y8
G1 F2400 X53.638 Y41.073 E32.14399
G1 X54.934 Y39.438 E32.28972
G1 X54.984 Y39.376 E32.29528
G1 X55.425 Y38.835 E32.34403
G1 X55.77 Y38.449 E32.38019
G1 X56.038 Y38.174 E32.40701
G1 X56.156 Y38.056 E32.41867
G1 X56.991 Y37.247 E32.49987
G1 X57.058 Y37.183 E32.50634
G1 X58.718 Y35.625 E32.66536
G1 X58.779 Y35.569 E32.67114
G1 X59.259 Y35.131 E32.71653
G1 X59.789 Y34.701 E32.7642
G1 X60.218 Y34.42 E32.80001
G1 X60.613 Y34.186 E32.83208
G1 X61.221 Y33.873 E32.87985
G1 X61.86 Y33.633 E32.92752
G1 X62.52 Y33.47 E32.97501
G1 X62.917 Y33.396 E33.00321
G1 X63.595 Y33.31 E33.05095
G1 X64.146 Y33.299 E33.08944
G1 X64.735 Y33.315 E33.13059
G1 X67.408 Y33.354 E33.31731
G1 X70.043 Y33.317 E33.50138
G1 X72.721 Y33.204 E33.68859
G1 X75.387 Y33.016 E33.87526
G1 X78.082 Y32.749 E34.06442
G1 X80.111 Y32.496 E34.20724
G1 X84.921 Y31.842 E34.54629
G1 X85.015 Y31.83 E34.55291
G1 X86.445 Y31.659 E34.6535
G1 X86.608 Y31.642 E34.66495
G1 X87.365 Y31.573 E34.71804
G1 X87.422 Y31.568 E34.72204
G1 X94.53 Y30.991 E35.22014
G1 X94.724 Y30.979 E35.23371
G1 X96.69 Y30.885 E35.37119
G1 X96.811 Y30.88 E35.37965
G1 X104.152 Y30.681 E35.89258
G1 X104.258 Y30.679 E35.89998
G1 X105.381 Y30.669 E35.97842
G1 X105.56 Y30.67 E35.99092
G1 X105.882 Y30.677 E36.01342
G1 X105.911 Y30.678 E36.01545
G1 X113.151 Y30.872 E36.52131
G1 X113.258 Y30.876 E36.52879
G1 X114.79 Y30.945 E36.63591
G1 X114.944 Y30.954 E36.64668
G1 X115.531 Y30.996 E36.68779
G1 X115.587 Y31 E36.69171
G1 X122.954 Y31.599 E37.20796
G1 X123.159 Y31.619 E37.22235
G1 X124.793 Y31.81 E37.33725
G1 X124.902 Y31.824 E37.34493
G1 X129.856 Y32.498 E37.69414
G1 X132.475 Y32.816 E37.87841
G1 X135.16 Y33.067 E38.06676
G1 X137.818 Y33.238 E38.2528
G1 X140.461 Y33.335 E38.43753
G1 X143.129 Y33.355 E38.62388
G1 X144.256 Y33.327 E38.70262
G1 X144.341 Y33.325 E38.70856
G1 X145.855 Y33.309 E38.81431
G1 X146.11 Y33.312 E38.83213
G1 X146.413 Y33.322 E38.8533
G1 X147.093 Y33.385 E38.901
G1 X147.761 Y33.526 E38.94869
G1 X148.206 Y33.667 E38.98129
G1 X148.56 Y33.795 E39.00758
G1 X149.188 Y34.065 E39.05533
G1 X149.78 Y34.405 E39.10301
G1 X150.065 Y34.605 E39.12733
G1 X150.289 Y34.772 E39.14684
G1 X150.705 Y35.114 E39.18446
G1 X151.708 Y36.017 E39.27872
G1 X151.796 Y36.097 E39.28703
G1 X153.257 Y37.467 E39.42692
G1 X153.326 Y37.533 E39.43359
G1 X153.777 Y37.97 E39.47745
G1 X154.129 Y38.342 E39.51323
G1 X154.624 Y38.914 E39.56606
G1 X154.747 Y39.061 E39.57945
G1 X155.113 Y39.513 E39.62007
G1 X155.149 Y39.558 E39.6241
G1 X156.67 Y41.475 E39.79502
G1 X156.726 Y41.547 E39.80139
G1 X157.164 Y42.117 E39.8516
G1 X157.542 Y42.672 E39.8985
G1 X157.985 Y43.411 E39.95868
G1 X158.031 Y43.489 E39.965
G1 X159.182 Y45.478 E40.12551
G1 X159.221 Y45.547 E40.13105
G1 X159.591 Y46.207 E40.1839
G1 X159.668 Y46.35 E40.19524
G1 X159.785 Y46.573 E40.21283
G1 X159.845 Y46.69 E40.22201
G1 X159.976 Y46.954 E40.2426
G1 X160.134 Y47.3 E40.26917
G1 X160.559 Y48.318 E40.34622
G1 X160.6 Y48.419 E40.35383
G1 X161.36 Y50.339 E40.49806
G1 X161.386 Y50.405 E40.50301
G1 X161.641 Y51.073 E40.55295
G1 X161.809 Y51.581 E40.59033
G1 X161.9 Y51.906 E40.6139
