;FLAVOR:Marlin
;TIME:749
;Filament used: 1.08713m
;Layer height: 0.3
;MINX:56.942
;MINY:44.213
;MINZ:0.3
;MAXX:153.058
;MAXY:165.8
;MAXZ:1.8
;Generated with Cura_SteamEngine master
M140 S60
M105
M190 S60
M104 S200
M105
M109 S200
M82 ;absolute extrusion mode
G21 ;metric values
G90 ;absolute positioning
M82 ;set extruder to absolute mode
M107 ;start with the fan off
G28 X0 Y0 ;move X/Y to min endstops
G28 Z0 ;move Z to min endstops
G1 Z15.0 F100 ;move the platform down 15mm
G92 E0 ;zero the extruded length
G1 F200 E3 ;extrude 3mm of feed stock
G92 E0 ;zero the extruded length again
G1 F100
G0 Y20 F100
M117 Printing...
G5
G92 E0
G92 E0
G1 F2400 E-6
;LAYER_COUNT:6
;LAYER:0
M106 S255
M204 S3000
M205 X10 Y10
G1 F600 Z0.375
;MESH:Facemask_Simple_Medium_MF_REV2.STL
G0 F3000 X68.33 Y49.527 Z0.375
M204 S1800
M205 X8 Y8
;TYPE:WALL-INNER
G1 F600 Z0.3
G1 F2400 E0
G1 F1800 X68.486 Y49.947 E0.03129
G1 X68.506 Y50 E0.03525
G1 X68.392 Y49.983
G1 X68.344 Y49.984
G1 X67.713 Y50.003 E0.07934
G1 X67.282 Y50.091 E0.11007
G1 X67.047 Y50.138 E0.12681
G1 X66.414 Y50.388 E0.17434
G1 X66.21 Y50.513 E0.19105
G1 X66.142 Y50.555 E0.19664
G1 X66.191 Y50.483
G1 X66.338 Y50.32 E0.19801
G1 X66.748 Y49.868 E0.21925
G1 X66.909 Y49.691 E0.23372
G1 X68.134 Y48.338 E0.3612
G1 X68.418 Y48.025 E0.39072
G1 X68.536 Y47.923 E0.40161
G1 X68.491 Y48.05 E0.40184
G1 X68.327 Y48.512 E0.41419
G1 X68.33 Y49.527 E0.48508
M204 S3000
M205 X10 Y10
G0 F3000 X66.147 Y51.163
G0 X65.365 Y51.975
G0 X63.608 Y55.015
G0 X62.977 Y58.801
M204 S1800
M205 X8 Y8
G1 F1800 X62.095 Y59.304 E0.556
G1 X61.905 Y59.528 E0.57652
G1 X61.686 Y59.786 E0.60015
G1 X61.791 Y59.432 E0.60498
G1 X61.856 Y59.228 E0.60873
G1 X62.455 Y57.347 E0.74661
G1 X62.639 Y56.77 E0.78891
G1 X62.741 Y56.452 E0.81224
G1 X62.771 Y56.39 E0.81705
G1 X62.771 Y56.452
G1 X62.77 Y56.811 E0.8218
G1 X62.888 Y57.484 E0.84888
G1 X63.121 Y58.125 E0.89652
G1 X63.377 Y58.568 E0.93225
G1 X63.462 Y58.714 E0.94405
G1 X63.466 Y58.719 E0.9445
G1 X62.977 Y58.801 E0.96736
M204 S3000
M205 X10 Y10
G0 F3000 X64.791 Y59.31
G0 X65.507 Y59.731
G0 X66.038 Y60.371
G0 X66.317 Y61.152
G0 X63.646 Y122.308
M204 S1800
M205 X8 Y8
G1 F1800 X63.709 Y121.472 E1.02592
G1 X63.653 Y119.465 E1.16616
G1 X66.532 Y64.484 E5.01164
G1 X66.835 Y61.908 E5.1928
G1 X66.838 Y61.062 E5.25189
G1 X66.67 Y60.592 E5.28675
G1 X66.635 Y60.493 E5.29409
G1 X66.589 Y60.364 E5.30365
G1 X66.993 Y60.365 E5.32107
G1 X67.097 Y60.347 E5.32754
G1 X67.666 Y60.248 E5.36788
G1 X68.05 Y60.108 E5.39643
G1 X68.307 Y60.014 E5.41554
G1 X68.684 Y59.797 E5.44593
G1 X68.586 Y60.103 E5.45012
G1 X68.502 Y60.363 E5.4651
G1 X68.264 Y61.1 E5.5192
G1 X68.088 Y61.82 E5.57097
G1 X68.011 Y62.474 E5.61696
G1 X67.736 Y64.45 E5.75631
G1 X64.851 Y119.517 E9.60781
G1 X64.899 Y121.47 E9.74426
G1 X65.222 Y123.221 E9.86862
G1 X65.263 Y123.447 E9.88467
G1 X65.282 Y123.503 E9.8888
G1 X65.444 Y123.961 E9.92273
G1 X65.082 Y123.692 E9.93062
G1 X64.975 Y123.612 E9.93348
G1 X64.77 Y123.509 E9.94657
G1 X64.367 Y123.307 E9.97805
G1 X63.806 Y123.14 E10.01894
G1 X63.715 Y123.113 E10.02557
G1 X63.304 Y123.066 E10.05446
G1 X63.355 Y122.951
G1 X63.394 Y122.865 E10.06032
G1 X63.646 Y122.308 E10.10302
M204 S3000
M205 X10 Y10
G0 F3000 X62.213 Y123.53
G0 X59.613 Y124.252
M204 S1800
M205 X8 Y8
G1 F1800 X60.006 Y124.352 E10.13134
G1 X59.914 Y124.476
G1 X59.606 Y124.888 E10.16727
G1 X59.301 Y125.498 E10.21491
G1 X59.174 Y125.926 E10.24609
G1 X59.051 Y125.591 E10.25065
G1 X58.867 Y125.094 E10.28766
G1 X58.574 Y123.724 E10.38552
G1 X58.475 Y123.262 E10.41852
G1 X58.776 Y123.68 E10.42696
G1 X59.613 Y124.252 E10.49614
M204 S3000
M205 X10 Y10
G0 F3000 X59.552 Y126.84
G0 X59.725 Y128.011
G0 X60.871 Y130.092
G0 X61.977 Y131.594
G0 X65.748 Y133.988
M204 S1800
M205 X8 Y8
G1 F1800 X66.067 Y134.902 E10.56375
G1 X65.424 Y134.437 E10.58944
G1 X64.606 Y133.844 E10.66
G1 X64.342 Y133.589 E10.68564
G1 X64.035 Y133.293 E10.71543
G1 X64.579 Y133.342 E10.7313
G1 X65.258 Y133.284 E10.7789
G1 X65.759 Y133.149 E10.81514
G1 X65.758 Y133.29
G1 X65.748 Y133.988 E10.8639
M204 S3000
M205 X10 Y10
G0 F3000 X66.578 Y132.296
G0 X67.12 Y131.668
G0 X67.846 Y131.262
G0 X68.665 Y131.131
G0 X81.603 Y133.839
G0 X90.845 Y141.422
G0 X95.601 Y154.319
G0 X96.884 Y156.924
G0 X97.714 Y158.191
G0 X98.912 Y159.964
G0 X100.845 Y162.157
G0 X101.536 Y162.752
G0 X102.324 Y163.237
G0 X103.179 Y163.593
G0 X104.078 Y163.809
G0 X105 Y163.883
G0 X105.922 Y163.809
G0 X106.821 Y163.593
G0 X107.676 Y163.237
G0 X108.464 Y162.752
G0 X109.161 Y162.153
G0 X111.076 Y159.981
G0 X112.723 Y157.591
G0 X113.427 Y156.25
G0 X114.392 Y154.339
G0 X121.725 Y138.207
G0 X128.951 Y134.857
G0 X140.818 Y130.654
M204 S1800
M205 X8 Y8
G1 F1800 X140.378 Y130.821 E10.89677
G1 X140.184 Y130.894 E10.91125
G1 X140.027 Y130.954 E10.92299
G1 X138.448 Y131.771 E11.04716
G1 X138.193 Y131.903 E11.06722
G1 X136.546 Y132.517 E11.18999
G1 X136.412 Y132.567 E11.19998
G1 X134.731 Y132.968 E11.32068
G1 X134.62 Y132.991 E11.3286
G1 X134.299 Y133.058 E11.35151
G1 X132.419 Y133.388 E11.48482
G1 X132.314 Y133.407 E11.49228
G1 X130.26 Y133.937 E11.64044
G1 X129.659 Y134.093 E11.68381
G1 X129.528 Y134.127 E11.69326
G1 X129.169 Y134.282 E11.72057
G1 X127.122 Y135.168 E11.87637
G1 X126.832 Y135.294 E11.89845
G1 X126.646 Y135.412 E11.91384
G1 X124.79 Y136.597 E12.06764
G1 X124.273 Y136.927 E12.11048
G1 X124.164 Y136.997 E12.11953
G1 X123.86 Y137.27 E12.14807
G1 X122.235 Y138.727 E12.30051
G1 X122.19 Y138.768 E12.30476
G1 X121.819 Y139.148 E12.34185
G1 X121.748 Y139.221 E12.34897
G1 X120.45 Y140.832 E12.49347
G1 X120.098 Y141.269 E12.53266
G1 X120.052 Y141.35 E12.53917
G1 X118.951 Y143.26 E12.69315
G1 X118.678 Y143.733 E12.7313
G1 X118.537 Y143.977 E12.75098
G1 X118.455 Y144.197 E12.76738
G1 X117.679 Y146.253 E12.92087
G1 X117.59 Y146.489 E12.93849
G1 X117.473 Y146.871 E12.96639
G1 X117.313 Y147.39 E13.00433
G1 X116.07 Y151.727 E13.31945
G1 X116.032 Y151.837 E13.32757
G1 X115.778 Y152.553 E13.38064
G1 X115.05 Y154.607 E13.53285
G1 X115.01 Y154.718 E13.54109
G1 X114.078 Y156.579 E13.68646
G1 X113.75 Y157.234 E13.73763
G1 X113.614 Y157.506 E13.75887
G1 X113.372 Y157.887 E13.79039
G1 X113.316 Y157.971 E13.79744
G1 X112.11 Y159.755 E13.94785
G1 X111.768 Y160.261 E13.99051
G1 X111.62 Y160.43 E14.0062
G1 X111.105 Y161.018 E14.06079
G1 X109.676 Y162.649 E14.21225
G1 X109.653 Y162.668 E14.21434
G1 X108.992 Y163.238 E14.2753
G1 X108.866 Y163.319 E14.28576
G1 X108.112 Y163.803 E14.34834
G1 X107.983 Y163.859 E14.35816
G1 X107.163 Y164.218 E14.42069
G1 X107.027 Y164.253 E14.4305
G1 X106.149 Y164.484 E14.49391
G1 X106.021 Y164.496 E14.50289
G1 X105.129 Y164.584 E14.56549
G1 X104.99 Y164.576 E14.57522
G1 X104.089 Y164.523 E14.63826
G1 X103.959 Y164.495 E14.64755
G1 X103.08 Y164.299 E14.71045
G1 X102.954 Y164.25 E14.71989
G1 X102.111 Y163.917 E14.7832
G1 X101.999 Y163.851 E14.79228
G1 X101.225 Y163.394 E14.85506
G1 X101.119 Y163.307 E14.86464
G1 X100.425 Y162.732 E14.92759
G1 X100.349 Y162.647 E14.93555
G1 X99.808 Y162.037 E14.9925
G1 X98.359 Y160.408 E15.14478
G1 X98.276 Y160.315 E15.15348
G1 X97.121 Y158.618 E15.29686
G1 X96.697 Y157.996 E15.34944
G1 X96.528 Y157.748 E15.3704
G1 X96.294 Y157.313 E15.4049
G1 X96.265 Y157.255 E15.40943
G1 X95.295 Y155.332 E15.55987
G1 X95.019 Y154.786 E15.6026
G1 X94.944 Y154.576 E15.61817
G1 X94.683 Y153.847 E15.67226
G1 X94.045 Y152.063 E15.80459
G1 X93.976 Y151.835 E15.82123
G1 X93.772 Y151.17 E15.86981
G1 X92.534 Y146.858 E16.18316
G1 X92.503 Y146.751 E16.19094
G1 X91.762 Y144.763 E16.33912
G1 X91.541 Y144.171 E16.38326
G1 X91.497 Y144.054 E16.39199
G1 X91.299 Y143.702 E16.4202
G1 X90.227 Y141.8 E16.5727
G1 X90.055 Y141.496 E16.59709
G1 X89.924 Y141.332 E16.61175
G1 X88.547 Y139.603 E16.76614
G1 X88.159 Y139.116 E16.80963
G1 X88.083 Y139.02 E16.81818
G1 X87.761 Y138.73 E16.84845
G1 X86.135 Y137.262 E17.00145
G1 X86.115 Y137.243 E17.00338
G1 X85.711 Y136.922 E17.03942
G1 X85.619 Y136.849 E17.04762
G1 X83.868 Y135.719 E17.19318
G1 X83.409 Y135.423 E17.23133
G1 X83.33 Y135.388 E17.23736
G1 X81.307 Y134.489 E17.39199
G1 X80.82 Y134.272 E17.42923
G1 X80.554 Y134.154 E17.44955
G1 X80.319 Y134.093 E17.46651
G1 X78.193 Y133.537 E17.62
G1 X77.963 Y133.476 E17.63662
G1 X77.585 Y133.397 E17.66359
G1 X77.391 Y133.356 E17.67744
G1 X76.075 Y133.124 E17.77077
G1 X75.47 Y133.017 E17.81369
G1 X74.864 Y132.872 E17.85721
G1 X73.586 Y132.566 E17.94899
G1 X73.394 Y132.495 E17.96329
G1 X71.801 Y131.9 E18.08207
G1 X71.442 Y131.715 E18.11027
G1 X70.257 Y131.101 E18.20349
G1 X69.618 Y130.78 E18.25344
G1 X68.673 Y130.602 E18.3206
G1 X68.508 Y130.628 E18.33227
G1 X68.279 Y130.665 E18.34847
G1 X68.321 Y130.508 E18.35047
G1 X68.426 Y130.119 E18.37112
G1 X68.485 Y129.441 E18.41866
G1 X68.453 Y129.07 E18.44467
G1 X68.655 Y129.253 E18.44742
G1 X69.839 Y130.331 E18.55926
G1 X69.889 Y130.363 E18.56318
G1 X70.484 Y130.751 E18.60365
G1 X71.573 Y131.461 E18.66016
G1 X71.925 Y131.616 E18.67408
G1 X73.468 Y132.296 E18.72862
G1 X73.644 Y132.342 E18.73314
G1 X74.91 Y132.676 E18.76831
G1 X75.514 Y132.802 E18.78436
G1 X76.109 Y132.927 E18.80003
G1 X77.425 Y133.158 E18.83332
G1 X77.627 Y133.194 E18.83869
G1 X78.008 Y133.284 E18.84866
G1 X78.244 Y133.34 E18.8548
G1 X80.371 Y133.892 E18.91099
G1 X80.616 Y133.978 E18.91772
G1 X80.904 Y134.081 E18.92555
G1 X81.385 Y134.312 E18.93905
G1 X83.412 Y135.203 E18.99361
G1 X83.508 Y135.263 E18.99698
G1 X83.974 Y135.553 E19.01017
G1 X85.725 Y136.684 E19.06115
G1 X85.84 Y136.759 E19.0641
G1 X86.243 Y137.082 E19.07737
G1 X86.274 Y137.107
G1 X87.903 Y138.572 E19.13473
G1 X88.216 Y138.887 E19.14606
G1 X88.317 Y138.989 E19.14882
G1 X88.704 Y139.477 E19.16447
G1 X90.091 Y141.198 E19.22168
G1 X90.214 Y141.396 E19.22804
G1 X90.404 Y141.699 E19.23692
G1 X91.486 Y143.596 E19.2937
G1 X91.666 Y143.972 E19.30439
G1 X91.728 Y144.1 E19.307
G1 X91.936 Y144.697 E19.32238
G1 X92.683 Y146.683 E19.37238
G1 X92.728 Y146.802 E19.37586
G1 X93.963 Y151.115 E19.48749
G1 X94.154 Y151.78 E19.50395
G1 X94.231 Y151.996 E19.50922
G1 X94.865 Y153.781 E19.55531
G1 X95.117 Y154.513 E19.5736
G1 X95.203 Y154.701 E19.57819
G1 X95.455 Y155.251 E19.59238
G1 X96.427 Y157.173 E19.64069
G1 X96.453 Y157.218 E19.64154
G1 X96.704 Y157.644 E19.65374
G1 X96.849 Y157.891 E19.66035
G1 X97.294 Y158.499 E19.67881
G1 X98.444 Y160.201 E19.73164
G1 X98.499 Y160.282 E19.73338
G1 X99.934 Y161.924 E19.782
G1 X100.48 Y162.53 E19.79948
G1 X100.548 Y162.588 E19.80094
G1 X101.228 Y163.174 E19.82099
G1 X101.324 Y163.233 E19.82293
G1 X102.086 Y163.702 E19.84295
G1 X102.183 Y163.742 E19.8447
G1 X103.017 Y164.089 E19.86496
G1 X103.124 Y164.114 E19.86682
G1 X103.996 Y164.325 E19.88706
G1 X104.104 Y164.333 E19.88894
G1 X105 Y164.405 E19.90906
G1 X105.114 Y164.396 E19.91103
G1 X106.004 Y164.325 E19.9309
G1 X106.104 Y164.301 E19.93258
G1 X106.983 Y164.089 E19.95264
G1 X107.09 Y164.045 E19.95461
G1 X107.914 Y163.702 E19.97446
G1 X108.012 Y163.642 E19.97642
G1 X108.772 Y163.174 E19.99642
G1 X108.866 Y163.093 E19.99865
G1 X109.528 Y162.524 E20.01942
G1 X110.958 Y160.89 E20.07196
G1 X111.48 Y160.309 E20.09049
G1 X111.603 Y160.141 E20.09518
G1 X111.959 Y159.654 E20.1095
G1 X113.164 Y157.869 E20.15839
G1 X113.209 Y157.792 E20.16017
G1 X113.437 Y157.403 E20.17133
G1 X113.585 Y157.152 E20.17808
G1 X113.891 Y156.486 E20.19598
G1 X114.83 Y154.628 E20.24908
G1 X114.872 Y154.545 E20.25079
G1 X115.602 Y152.491 E20.30163
G1 X115.847 Y151.772 E20.3197
G1 X115.875 Y151.672 E20.32196
G1 X117.119 Y147.335 E20.43536
G1 X117.27 Y146.809 E20.44954
G1 X117.404 Y146.425 E20.46002
G1 X117.489 Y146.182 E20.46652
G1 X118.26 Y144.124 E20.52269
G1 X118.368 Y143.897 E20.52926
G1 X118.497 Y143.629 E20.53693
G1 X118.783 Y143.164 E20.55069
G1 X119.875 Y141.249 E20.60511
G1 X119.949 Y141.154 E20.60866
G1 X120.296 Y140.709 E20.62228
G1 X121.594 Y139.098 E20.67311
G1 X121.67 Y139.003 E20.6766
G1 X122.045 Y138.625 E20.69024
G1 X122.096 Y138.573 E20.69235
G1 X123.719 Y137.114 E20.7491
G1 X124.045 Y136.851 E20.7597
G1 X124.163 Y136.756 E20.76292
G1 X124.682 Y136.428 E20.77835
G1 X126.531 Y135.233 E20.83489
G1 X126.75 Y135.127 E20.84147
G1 X127.042 Y134.984 E20.84951
G1 X129.083 Y134.086 E20.90703
G1 X129.464 Y133.95 E20.91747
G1 X129.608 Y133.899 E20.92073
G1 X130.213 Y133.758 E20.93579
G1 X132.266 Y133.224 E20.98529
G1 X132.384 Y133.193 E20.9886
G1 X134.264 Y132.862 E21.03584
G1 X134.581 Y132.806 E21.04346
G1 X134.682 Y132.78 E21.04368
G1 X136.355 Y132.348 E21.08901
G1 X136.471 Y132.318 E21.09177
G1 X138.071 Y131.624 E21.14766
G1 X138.316 Y131.518 E21.15712
G1 X139.79 Y130.582 E21.23583
G1 X140.011 Y130.441 E21.25153
G1 X140.167 Y130.304 E21.26507
G1 X141.132 Y129.454 E21.35489
G1 X141.303 Y129.303 E21.37082
G1 X141.49 Y129.138 E21.38824
G1 X141.545 Y129.079 E21.39387
G1 X141.542 Y129.141
G1 X141.516 Y129.543 E21.40787
G1 X141.542 Y129.77 E21.4208
G1 X141.586 Y130.143 E21.44703
G1 X141.594 Y130.218 E21.4523
G1 X141.718 Y130.638 E21.48289
G1 X141.602 Y130.64
G1 X141.526 Y130.641 E21.48772
G1 X140.818 Y130.654 E21.53718
M204 S3000
M205 X10 Y10
G0 F3000 X142.534 Y131.434
G0 X143.178 Y131.957
G0 X144.128 Y134.481
M204 S1800
M205 X8 Y8
G1 F1800 X144.189 Y134.094 E21.56454
G1 X144.288 Y133.48 E21.60798
G1 X144.226 Y133.152 E21.6313
G1 X144.358 Y133.183
G1 X144.842 Y133.299 E21.66606
G1 X145.269 Y133.326 E21.69594
G1 X145.521 Y133.341 E21.71358
G1 X145.967 Y133.29 E21.74493
G1 X145.716 Y133.538 E21.7496
G1 X145.554 Y133.697 E21.76202
G1 X145.361 Y133.86 E21.77669
G1 X145.233 Y133.968 E21.78839
G1 X144.584 Y134.441 E21.84448
G1 X144.268 Y134.672 E21.86451
G1 X143.851 Y134.977 E21.90059
G1 X144.128 Y134.481 E21.91108
M204 S3000
M205 X10 Y10
G0 F3000 X147.666 Y131.965
G0 X149.129 Y130.092
G0 X150.076 Y128.484
G0 X150.413 Y127.397
G0 X150.387 Y124.252
M204 S1800
M205 X8 Y8
G1 F1800 X150.868 Y123.923 E21.95178
G1 X151.224 Y123.68 E21.98189
G1 X151.522 Y123.267 E22.01746
G1 X151.43 Y123.721 E22.02284
G1 X151.345 Y124.143 E22.0442
G1 X151.201 Y124.846 E22.09432
G1 X151.053 Y125.258 E22.1249
G1 X150.962 Y125.512 E22.14375
G1 X150.822 Y125.9 E22.17256
G1 X150.66 Y125.404 E22.18692
G1 X150.533 Y125.166 E22.20206
G1 X150.338 Y124.801 E22.23096
G1 X150.09 Y124.487 E22.25891
G1 X149.985 Y124.354 E22.27075
G1 X150.21 Y124.297 E22.27751
G1 X150.387 Y124.252 E22.28556
M204 S3000
M205 X10 Y10
G0 F3000 X148.536 Y123.892
G0 X146.354 Y122.308
M204 S1800
M205 X8 Y8
G1 F1800 X146.621 Y122.9 E22.33092
G1 X146.635 Y122.932 E22.33336
G1 X146.694 Y123.062 E22.34333
G1 X146.184 Y123.136 E22.36817
G1 X146.15 Y123.147 E22.37067
G1 X145.538 Y123.346 E22.41562
G1 X145.222 Y123.516 E22.44068
G1 X144.939 Y123.667 E22.46308
G1 X144.843 Y123.742 E22.47159
G1 X144.562 Y123.962 E22.49652
G1 X144.701 Y123.581 E22.50411
G1 X144.706 Y123.568
G1 X144.766 Y123.253 E22.52096
G1 X145.094 Y121.534 E22.6432
G1 X145.149 Y119.519 E22.78399
G1 X142.264 Y64.467 E26.63444
G1 X142.19 Y63.808 E26.68076
G1 X141.91 Y61.804 E26.82209
G1 X141.736 Y61.095 E26.87308
G1 X141.49 Y60.35 E26.92788
G1 X141.433 Y60.176 E26.94067
G1 X141.308 Y59.798 E26.96848
G1 X141.79 Y60.058 E26.98626
G1 X141.964 Y60.116 E26.99718
G1 X142.433 Y60.273 E27.03173
G1 X142.941 Y60.349 E27.0676
G1 X143.108 Y60.373 E27.07939
G1 X143.411 Y60.364 E27.10056
G1 X143.374 Y60.467
G1 X143.318 Y60.626 E27.11007
G1 X143.162 Y61.062 E27.14242
G1 X143.165 Y61.909 E27.20158
G1 X143.454 Y64.333 E27.37208
G1 X146.344 Y119.341 E31.21949
G1 X146.293 Y121.474 E31.36851
G1 X146.354 Y122.308 E31.42692
M204 S3000
M205 X10 Y10
G0 F3000 X143.683 Y61.152
G0 X143.962 Y60.371
G0 X144.493 Y59.731
G0 X147.023 Y58.801
M204 S1800
M205 X8 Y8
G1 F1800 X146.582 Y58.728 E31.45814
G1 X146.526 Y58.718 E31.46211
G1 X146.598 Y58.628
G1 X146.621 Y58.584
G1 X146.923 Y58.028 E31.50631
G1 X147.061 Y57.615 E31.53672
G1 X147.137 Y57.385 E31.55364
G1 X147.237 Y56.71 E31.6013
G1 X147.231 Y56.467 E31.61828
G1 X147.228 Y56.39 E31.62366
G1 X147.264 Y56.466
G1 X147.332 Y56.679 E31.62504
G1 X147.519 Y57.262 E31.64622
G1 X147.593 Y57.493 E31.66087
G1 X148.029 Y58.853 E31.76062
G1 X148.148 Y59.225 E31.7879
G1 X148.276 Y59.624 E31.81717
G1 X148.306 Y59.777 E31.82806
G1 X148.218 Y59.674 E31.82834
G1 X147.905 Y59.304 E31.84037
