;FLAVOR:Marlin
;TIME:14423
;Filament used: 24.6642m
;Layer height: 0.3
;MINX:24.883
;MINY:37.841
;MINZ:0.3
;MAXX:185.159
;MAXY:172.16
;MAXZ:21.9
;Generated with Cura_SteamEngine master
M140 S60
M105
M190 S60
M104 S200
M105
M109 S200
M82 ;absolute extrusion mode
G21 ;metric values
G90 ;absolute positioning
M82 ;set extruder to absolute mode
M107 ;start with the fan off
G28 X0 Y0 ;move X/Y to min endstops
G28 Z0 ;move Z to min endstops
G1 Z15.0 F100 ;move the platform down 15mm
G92 E0 ;zero the extruded length
G1 F200 E3 ;extrude 3mm of feed stock
G92 E0 ;zero the extruded length again
G1 F100
M117 Printing...
G5
G92 E0
G92 E0
G1 F2400 E-6
;LAYER_COUNT:73
;LAYER:0
M106 S255
M204 S3000
M205 X10 Y10
G1 F600 Z0.375
G0 F3000 X27.722 Y39.331 Z0.375
M204 S1800
M205 X8 Y8
;TYPE:SKIRT
G1 F600 Z0.3
G1 F2400 E0
G1 X28.329 Y38.951 E0.05002
G1 X28.922 Y38.663 E0.09606
G1 X29.425 Y38.45 E0.13422
G1 X30.099 Y38.208 E0.18424
G1 X30.795 Y38.043 E0.2342
G1 X31.749 Y37.945 E0.30118
G1 X32.27 Y37.931 E0.33758
G1 X32.442 Y37.929 E0.3496
G1 X60.821 Y37.929 E2.33177
G1 X61.394 Y37.927 E2.37179
G1 X76.281 Y37.841 E3.41161
G1 X76.33 Y37.841 E3.41503
G1 X101.625 Y37.889 E5.18179
G1 X101.714 Y37.89 E5.18801
G1 X103.483 Y37.918 E5.31158
G1 X107.094 Y37.908 E5.5638
G1 X108.694 Y37.874 E5.67558
G1 X108.823 Y37.873 E5.68459
G1 X133.931 Y37.842 E7.43829
G1 X133.939 Y37.842 E7.43885
G1 X177.373 Y37.841 E10.47255
G1 X177.465 Y37.842 E10.47898
G1 X178.161 Y37.852 E10.5276
G1 X178.874 Y37.902 E10.57752
G1 X179.578 Y38.031 E10.62751
G1 X180.521 Y38.339 E10.6968
G1 X180.697 Y38.412 E10.71011
G1 X181.341 Y38.723 E10.76006
G1 X181.947 Y39.103 E10.81002
G1 X182.506 Y39.549 E10.85997
G1 X182.881 Y39.912 E10.89642
G1 X183.058 Y40.098 E10.91436
G1 X183.162 Y40.21 E10.92503
G1 X183.426 Y40.501 E10.95248
G1 X183.876 Y41.057 E11.00244
G1 X184.262 Y41.659 E11.05238
G1 X184.577 Y42.301 E11.10233
G1 X184.773 Y42.825 E11.14141
G1 X184.835 Y43.016 E11.15543
G1 X185.018 Y43.708 E11.20543
G1 X185.144 Y44.762 E11.27957
G1 X185.155 Y45.068 E11.30096
G1 X185.159 Y45.309 E11.31779
G1 X184.957 Y159.371 E19.28461
G1 X184.991 Y162.114 E19.47622
G1 X185.102 Y164.834 E19.66636
G1 X185.091 Y165.549 E19.7163
G1 X185 Y166.259 E19.7663
G1 X184.779 Y167.119 E19.82832
G1 X184.702 Y167.35 E19.84533
G1 X184.438 Y168.015 E19.8953
G1 X184.102 Y168.646 E19.94523
G1 X183.697 Y169.236 E19.99522
G1 X183.03 Y169.973 E20.06464
G1 X182.672 Y170.312 E20.09908
G1 X182.126 Y170.774 E20.14904
G1 X181.464 Y171.212 E20.20448
G1 X181.358 Y171.273 E20.21302
G1 X180.719 Y171.595 E20.263
G1 X180.048 Y171.843 E20.31296
G1 X179.354 Y172.015 E20.3629
G1 X178.645 Y172.108 E20.41285
G1 X178.284 Y172.125 E20.43809
G1 X177.363 Y172.142 E20.50243
G1 X177.247 Y172.143 E20.51053
G1 X126.073 Y172.159 E24.08485
G1 X126.061 Y172.159 E24.08569
G1 X108.61 Y172.133 E25.30457
G1 X108.521 Y172.132 E25.31079
G1 X106.656 Y172.103 E25.44107
G1 X103.415 Y172.107 E25.66744
G1 X101.418 Y172.143 E25.80695
G1 X101.306 Y172.144 E25.81477
G1 X76.065 Y172.159 E27.57776
G1 X76.061 Y172.159 E27.57804
G1 X32.627 Y172.16 E30.61174
G1 X32.535 Y172.159 E30.61817
G1 X31.838 Y172.149 E30.66686
G1 X31.125 Y172.099 E30.71678
G1 X30.421 Y171.97 E30.76677
G1 X29.737 Y171.762 E30.81671
G1 X29.379 Y171.62 E30.84361
G1 X29.165 Y171.527 E30.8599
G1 X28.526 Y171.205 E30.90988
G1 X27.927 Y170.815 E30.95981
G1 X27.449 Y170.427 E31.00281
G1 X27.117 Y170.13 E31.03392
G1 X26.611 Y169.624 E31.0839
G1 X26.165 Y169.065 E31.13385
G1 X25.785 Y168.459 E31.18381
G1 X25.563 Y168.02 E31.21817
G1 X25.462 Y167.799 E31.23514
G1 X25.202 Y167.133 E31.28508
G1 X25.017 Y166.442 E31.33504
G1 X24.911 Y165.735 E31.38498
G1 X24.883 Y165.086 E31.43035
G1 X24.895 Y163.64 E31.53135
G1 X24.896 Y163.611 E31.53338
G1 X24.928 Y161.128 E31.70682
G1 X24.928 Y115.04 E34.9259
G1 X24.929 Y47.105 E39.6709
G1 X24.91 Y45.891 E39.75571
G1 X24.909 Y45.816 E39.76095
G1 X24.905 Y44.784 E39.83303
G1 X24.942 Y44.07 E39.88296
G1 X25.059 Y43.364 E39.93295
G1 X25.254 Y42.676 E39.9829
G1 X25.524 Y42.013 E40.0329
G1 X25.713 Y41.646 E40.06173
G1 X25.826 Y41.443 E40.07796
G1 X26.208 Y40.839 E40.12787
G1 X26.656 Y40.281 E40.17786
G1 X27.162 Y39.776 E40.22779
G1 X27.722 Y39.331 E40.27775
M204 S3000
M205 X10 Y10
G0 F3000 X28.146 Y39.718
M204 S1800
M205 X8 Y8
G1 F2400 X28.734 Y39.369 E40.32551
G1 X29.141 Y39.178 E40.35691
G1 X29.644 Y38.965 E40.39506
G1 X30.287 Y38.736 E40.44274
G1 X30.953 Y38.584 E40.49045
G1 X31.764 Y38.505 E40.54736
G1 X32.285 Y38.491 E40.58377
G1 X32.442 Y38.489 E40.59473
G1 X60.823 Y38.489 E42.57704
G1 X61.397 Y38.487 E42.61713
G1 X76.284 Y38.401 E43.65695
G1 X76.329 Y38.401 E43.66009
G1 X101.624 Y38.449 E45.42686
G1 X101.705 Y38.45 E45.43252
G1 X103.475 Y38.478 E45.55616
G1 X107.108 Y38.468 E45.80991
G1 X108.706 Y38.434 E45.92155
G1 X108.824 Y38.433 E45.92979
G1 X133.932 Y38.402 E47.6835
G1 X133.939 Y38.402 E47.68398
G1 X177.373 Y38.401 E50.71769
G1 X177.457 Y38.402 E50.72356
G1 X178.153 Y38.412 E50.77217
G1 X178.834 Y38.461 E50.81986
G1 X179.505 Y38.59 E50.86759
G1 X180.306 Y38.857 E50.92656
G1 X180.482 Y38.93 E50.93987
G1 X181.097 Y39.228 E50.9876
G1 X181.673 Y39.596 E51.03534
G1 X182.202 Y40.029 E51.08309
G1 X182.476 Y40.298 E51.10991
G1 X182.653 Y40.484 E51.12784
G1 X182.747 Y40.586 E51.13753
G1 X183.011 Y40.877 E51.16498
G1 X183.44 Y41.409 E51.21271
G1 X183.804 Y41.987 E51.26042
G1 X184.097 Y42.604 E51.30813
G1 X184.241 Y42.998 E51.33743
G1 X184.303 Y43.189 E51.35145
G1 X184.475 Y43.85 E51.39916
G1 X184.584 Y44.782 E51.4647
G1 X184.595 Y45.088 E51.48609
G1 X184.599 Y45.308 E51.50145
G1 X184.397 Y159.378 E59.46883
G1 X184.431 Y162.144 E59.66204
G1 X184.542 Y164.857 E59.85169
G1 X184.53 Y165.54 E59.89941
G1 X184.438 Y166.217 E59.94713
G1 X184.247 Y166.942 E59.99949
G1 X184.17 Y167.173 E60.0165
G1 X183.917 Y167.807 E60.06418
G1 X183.591 Y168.408 E60.11193
G1 X183.197 Y168.966 E60.15964
G1 X182.645 Y169.566 E60.21659
G1 X182.287 Y169.905 E60.25103
G1 X181.765 Y170.345 E60.29871
G1 X181.185 Y170.727 E60.34722
G1 X181.079 Y170.788 E60.35576
G1 X180.468 Y171.093 E60.40346
G1 X179.825 Y171.325 E60.4512
G1 X179.16 Y171.481 E60.49891
G1 X178.274 Y171.565 E60.56107
G1 X177.353 Y171.582 E60.62541
G1 X177.247 Y171.583 E60.63282
G1 X126.073 Y171.599 E64.20713
G1 X126.062 Y171.599 E64.2079
G1 X108.611 Y171.573 E65.42679
G1 X108.529 Y171.572 E65.43252
G1 X106.664 Y171.543 E65.56279
G1 X103.404 Y171.547 E65.79049
G1 X101.407 Y171.583 E65.93
G1 X101.305 Y171.584 E65.93712
G1 X76.064 Y171.599 E67.70011
G1 X76.061 Y171.599 E67.70032
G1 X32.627 Y171.6 E70.73403
G1 X32.543 Y171.599 E70.7399
G1 X31.846 Y171.589 E70.78858
G1 X31.165 Y171.54 E70.83627
G1 X30.494 Y171.411 E70.884
G1 X29.602 Y171.106 E70.94984
G1 X29.388 Y171.013 E70.96614
G1 X28.779 Y170.705 E71.01381
G1 X28.209 Y170.327 E71.06158
G1 X27.822 Y170.01 E71.09652
G1 X27.49 Y169.713 E71.12763
G1 X27.009 Y169.228 E71.17534
G1 X26.587 Y168.691 E71.22304
G1 X26.231 Y168.107 E71.27082
G1 X26.072 Y167.787 E71.29577
G1 X25.971 Y167.566 E71.31275
G1 X25.724 Y166.93 E71.3604
G1 X25.553 Y166.268 E71.40816
G1 X25.461 Y165.591 E71.45588
G1 X25.443 Y165.091 E71.49082
G1 X25.455 Y163.645 E71.59182
G1 X25.455 Y163.618 E71.59371
G1 X25.488 Y161.053 E71.77288
G1 X25.488 Y115.04 E74.98672
G1 X25.489 Y47.069 E79.73424
G1 X25.47 Y45.882 E79.81716
G1 X25.469 Y45.814 E79.82191
G1 X25.465 Y44.782 E79.89399
G1 X25.502 Y44.099 E79.94176
G1 X25.619 Y43.426 E79.98948
G1 X25.814 Y42.771 E80.03721
G1 X26.202 Y41.919 E80.1026
G1 X26.315 Y41.716 E80.11883
G1 X26.682 Y41.139 E80.16659
G1 X27.113 Y40.609 E80.2143
G1 X27.604 Y40.134 E80.26202
G1 X28.146 Y39.718 E80.30974
M204 S3000
M205 X10 Y10
G0 F3000 X28.567 Y40.112
M204 S1800
M205 X8 Y8
G1 F2400 X29.359 Y39.694 E80.37229
G1 X29.862 Y39.481 E80.41044
G1 X30.475 Y39.265 E80.45584
G1 X31.109 Y39.126 E80.50117
G1 X31.779 Y39.065 E80.54816
G1 X32.3 Y39.051 E80.58457
G1 X32.442 Y39.049 E80.59449
G1 X60.825 Y39.049 E82.57693
G1 X61.4 Y39.047 E82.6171
G1 X76.287 Y38.961 E83.65691
G1 X76.328 Y38.961 E83.65978
G1 X101.623 Y39.009 E85.42654
G1 X101.696 Y39.01 E85.43164
G1 X103.468 Y39.038 E85.55542
G1 X107.121 Y39.028 E85.81057
G1 X108.718 Y38.994 E85.92214
G1 X108.824 Y38.993 E85.92955
G1 X133.932 Y38.962 E87.68325
G1 X133.939 Y38.962 E87.68374
G1 X177.373 Y38.961 E90.71744
G1 X177.449 Y38.962 E90.72275
G1 X178.145 Y38.972 E90.77137
G1 X178.793 Y39.021 E90.81676
G1 X179.429 Y39.149 E90.86207
G1 X180.092 Y39.374 E90.91097
G1 X180.268 Y39.447 E90.92428
G1 X180.851 Y39.732 E90.96961
G1 X181.396 Y40.087 E91.01504
G1 X182.07 Y40.684 E91.07793
G1 X182.247 Y40.87 E91.09586
G1 X182.333 Y40.962 E91.10466
G1 X182.597 Y41.253 E91.1321
G1 X183.003 Y41.76 E91.17747
G1 X183.343 Y42.313 E91.22281
G1 X183.708 Y43.171 E91.28793
G1 X183.77 Y43.362 E91.30196
G1 X183.932 Y43.991 E91.34733
G1 X184.025 Y44.802 E91.40434
G1 X184.036 Y45.108 E91.42573
G1 X184.039 Y45.307 E91.43963
G1 X183.837 Y159.385 E99.40757
G1 X183.871 Y162.138 E99.59987
G1 X183.983 Y164.88 E99.79155
G1 X183.969 Y165.529 E99.83689
G1 X183.876 Y166.172 E99.88227
G1 X183.716 Y166.765 E99.92517
G1 X183.639 Y166.996 E99.94217
G1 X183.396 Y167.598 E99.98752
G1 X183.081 Y168.166 E100.03288
G1 X182.699 Y168.691 E100.07823
G1 X182.26 Y169.16 E100.1231
G1 X181.902 Y169.499 E100.15754
G1 X181.404 Y169.916 E100.2029
G1 X180.906 Y170.241 E100.24444
G1 X180.8 Y170.302 E100.25298
G1 X180.218 Y170.591 E100.29837
G1 X179.605 Y170.806 E100.34374
G1 X178.97 Y170.944 E100.38913
G1 X178.263 Y171.005 E100.43869
G1 X177.342 Y171.022 E100.50303
G1 X177.247 Y171.023 E100.50967
G1 X126.073 Y171.039 E104.08398
G1 X126.063 Y171.039 E104.08468
G1 X108.612 Y171.013 E105.30357
G1 X108.538 Y171.012 E105.30874
G1 X106.672 Y170.983 E105.43909
G1 X103.393 Y170.987 E105.66811
G1 X101.397 Y171.023 E105.80755
G1 X101.305 Y171.024 E105.81398
G1 X76.064 Y171.039 E107.57697
G1 X76.061 Y171.039 E107.57718
G1 X32.627 Y171.04 E110.61088
G1 X32.551 Y171.039 E110.61619
G1 X31.854 Y171.029 E110.66488
G1 X31.207 Y170.98 E110.7102
G1 X30.57 Y170.852 E110.75558
G1 X29.826 Y170.592 E110.81062
G1 X29.612 Y170.499 E110.82692
G1 X29.033 Y170.204 E110.87231
G1 X28.495 Y169.841 E110.91764
G1 X28.196 Y169.592 E110.94482
G1 X27.864 Y169.295 E110.97593
G1 X27.407 Y168.833 E111.02132
G1 X27.011 Y168.318 E111.0667
G1 X26.582 Y167.555 E111.12784
G1 X26.481 Y167.334 E111.14481
G1 X26.248 Y166.727 E111.19022
G1 X26.091 Y166.097 E111.23557
G1 X26.012 Y165.452 E111.28096
G1 X26.003 Y165.095 E111.3059
G1 X26.015 Y163.649 E111.4069
G1 X26.015 Y163.625 E111.40858
G1 X26.048 Y161.06 E111.58775
G1 X26.048 Y115.04 E114.80207
G1 X26.049 Y47.069 E119.5496
G1 X26.03 Y45.874 E119.63307
G1 X26.029 Y45.811 E119.63747
G1 X26.025 Y44.779 E119.70955
G1 X26.062 Y44.131 E119.75489
G1 X26.179 Y43.492 E119.80026
G1 X26.374 Y42.872 E119.84566
G1 X26.692 Y42.191 E119.89815
G1 X26.805 Y41.988 E119.91438
G1 X27.155 Y41.441 E119.95974
G1 X27.57 Y40.941 E120.00512
G1 X28.043 Y40.496 E120.05048
G1 X28.567 Y40.112 E120.09586
M204 S3000
M205 X10 Y10
G1 F2400 E114.09586
;MESH:celeste-box.stl
G0 F3000 X31.593 Y43.755
G0 X32.183 Y45.185
G0 X61.096 Y45.729
M204 S1800
M205 X8 Y8
;TYPE:WALL-INNER
G1 F2400 E120.09586
G1 F1800 X76.066 Y45.641 E121.14148
G1 X101.325 Y45.673 E122.90573
G1 X101.36 Y89.47 E125.96478
G1 X101.361 Y164.343 E131.19438
G1 X76.061 Y164.359 E132.9615
G1 X33.008 Y164.36 E135.96859
G1 X32.728 Y164.36 E135.98814
G1 X32.728 Y164.08 E136.0008
G1 X32.728 Y115.04 E139.42607
G1 X32.729 Y45.731 E144.26704
G1 X61.096 Y45.729 E146.24837
M204 S3000
M205 X10 Y10
G0 F3000 X61.094 Y45.169
M204 S1800
M205 X8 Y8
G1 F1800 X76.064 Y45.081 E147.29399
G1 X101.885 Y45.114 E149.09749
G1 X101.92 Y89.47 E152.19559
G1 X101.921 Y164.802 E157.45725
G1 X101.836 Y164.903 E157.46647
G1 X76.061 Y164.919 E159.26676
G1 X32.448 Y164.92 E162.31297
G1 X32.168 Y164.92 E162.33253
G1 X32.168 Y164.64 E162.34519
G1 X32.168 Y115.04 E165.80956
G1 X32.169 Y45.171 E170.68965
G1 X61.094 Y45.169 E172.70995
M204 S3000
M205 X10 Y10
G0 F3000 X61.094 Y45.269
G0 X31.677 Y165.125
G0 X31.608 Y165.117
M204 S1800
M205 X8 Y8
;TYPE:WALL-OUTER
G1 F1800 X31.608 Y165.097 E172.71135
G1 X31.608 Y115.04 E176.20765
G1 X31.609 Y44.979 E181.10115
G1 X31.586 Y44.804 E181.11348
G1 X31.605 Y44.771 E181.11614
G1 X31.997 Y44.611 E181.14571
G1 X61.092 Y44.609 E183.17789
G1 X76.062 Y44.521 E184.2235
G1 X102.065 Y44.554 E186.03972
G1 X102.177 Y44.563 E186.04756
G1 X102.223 Y44.594 E186.05144
G1 X102.447 Y44.959 E186.08135
G1 X102.48 Y89.47 E189.19028
G1 X102.481 Y164.964 E194.46326
G1 X102.464 Y165.026 E194.46775
G1 X102.148 Y165.402 E194.50205
G1 X102.064 Y165.463 E194.5093
G1 X76.061 Y165.479 E196.32552
G1 X32 Y165.48 E199.40301
G1 X31.98 Y165.48 E199.40441
G1 X31.867 Y165.428 E199.4131
G1 X31.601 Y165.19 E199.43803
G1 X31.581 Y165.145 E199.44147
G1 X31.608 Y165.117 E199.44328
M204 S3000
M205 X10 Y10
G0 F3000 X31.608 Y165.097
G0 X31.608 Y164.917
G0 X31.682 Y165.129
G0 X33.278 Y163.81
M204 S1800
M205 X8 Y8
;TYPE:SKIN
G1 F1800 X33.278 Y115.04 E202.84969
G1 X33.279 Y46.281 E207.65225
G1 X61.098 Y46.279 E209.5953
G1 X76.07 Y46.191 E210.64106
G1 X100.775 Y46.223 E212.36661
G1 X100.81 Y89.47 E215.38725
G1 X100.811 Y163.793 E220.57844
G1 X76.061 Y163.809 E222.30713
G1 X33.278 Y163.81 E225.29537
M204 S3000
M205 X10 Y10
G0 F3000 X33.667 Y163.548
M204 S1800
M205 X8 Y8
G1 F1800 X33.538 Y163.419 E225.30811
M204 S3000
M205 X10 Y10
G0 F3000 X33.538 Y162.627
M204 S1800
M205 X8 Y8
G1 F1800 X34.459 Y163.548 E225.39908
M204 S3000
M205 X10 Y10
G0 F3000 X35.251 Y163.548
M204 S1800
M205 X8 Y8
G1 F1800 X33.538 Y161.835 E225.56829
M204 S3000
M205 X10 Y10
G0 F3000 X33.538 Y161.043
M204 S1800
M205 X8 Y8
G1 F1800 X36.043 Y163.548 E225.81573
M204 S3000
M205 X10 Y10
G0 F3000 X36.835 Y163.548
M204 S1800
M205 X8 Y8
G1 F1800 X33.538 Y160.251 E226.1414
M204 S3000
M205 X10 Y10
G0 F3000 X33.538 Y159.459
M204 S1800
M205 X8 Y8
G1 F1800 X37.627 Y163.548 E226.5453
M204 S3000
M205 X10 Y10
G0 F3000 X38.419 Y163.548
M204 S1800
M205 X8 Y8
G1 F1800 X33.538 Y158.667 E227.02743
M204 S3000
M205 X10 Y10
G0 F3000 X33.538 Y157.875
M204 S1800
M205 X8 Y8
G1 F1800 X39.211 Y163.548 E227.5878
M204 S3000
M205 X10 Y10
G0 F3000 X40.003 Y163.548
M204 S1800
M205 X8 Y8
G1 F1800 X33.538 Y157.083 E228.22639
M204 S3000
M205 X10 Y10
G0 F3000 X33.538 Y156.291
M204 S1800
M205 X8 Y8
G1 F1800 X40.795 Y163.548 E228.94322
M204 S3000
M205 X10 Y10
G0 F3000 X41.587 Y163.548
M204 S1800
M205 X8 Y8
G1 F1800 X33.538 Y155.499 E229.73828
M204 S3000
M205 X10 Y10
G0 F3000 X33.538 Y154.707
M204 S1800
M205 X8 Y8
G1 F1800 X42.379 Y163.548 E230.61158
M204 S3000
M205 X10 Y10
G0 F3000 X43.17 Y163.548
M204 S1800
M205 X8 Y8
G1 F1800 X33.538 Y153.915 E231.56305
M204 S3000
M205 X10 Y10
G0 F3000 X33.538 Y153.123
M204 S1800
M205 X8 Y8
G1 F1800 X43.962 Y163.548 E232.59276
M204 S3000
M205 X10 Y10
G0 F3000 X44.754 Y163.548
M204 S1800
M205 X8 Y8
G1 F1800 X33.538 Y152.332 E233.70065
M204 S3000
M205 X10 Y10
G0 F3000 X33.538 Y151.54
M204 S1800
M205 X8 Y8
G1 F1800 X45.546 Y163.548 E234.88677
M204 S3000
M205 X10 Y10
G0 F3000 X46.338 Y163.548
M204 S1800
M205 X8 Y8
G1 F1800 X33.538 Y150.748 E236.15112
M204 S3000
M205 X10 Y10
G0 F3000 X33.538 Y149.956
M204 S1800
M205 X8 Y8
G1 F1800 X47.13 Y163.548 E237.49371
M204 S3000
M205 X10 Y10
G0 F3000 X47.922 Y163.548
M204 S1800
M205 X8 Y8
G1 F1800 X33.538 Y149.164 E238.91452
M204 S3000
M205 X10 Y10
G0 F3000 X33.538 Y148.372
M204 S1800
M205 X8 Y8
G1 F1800 X48.714 Y163.548 E240.41357
M204 S3000
M205 X10 Y10
G0 F3000 X49.506 Y163.548
M204 S1800
M205 X8 Y8
G1 F1800 X33.538 Y147.58 E241.99085
M204 S3000
M205 X10 Y10
G0 F3000 X33.538 Y146.788
M204 S1800
M205 X8 Y8
G1 F1800 X50.298 Y163.548 E243.64636
M204 S3000
M205 X10 Y10
G0 F3000 X51.09 Y163.548
M204 S1800
M205 X8 Y8
G1 F1800 X33.538 Y145.996 E245.38011
M204 S3000
M205 X10 Y10
G0 F3000 X33.538 Y145.204
M204 S1800
M205 X8 Y8
G1 F1800 X51.882 Y163.548 E247.19208
M204 S3000
M205 X10 Y10
G0 F3000 X52.674 Y163.548
M204 S1800
M205 X8 Y8
G1 F1800 X33.538 Y144.412 E249.08229
M204 S3000
M205 X10 Y10
G0 F3000 X33.538 Y143.62
M204 S1800
M205 X8 Y8
G1 F1800 X53.466 Y163.548 E251.05073
M204 S3000
M205 X10 Y10
G0 F3000 X54.258 Y163.548
