;FLAVOR:Marlin
;TIME:2228
;Filament used: 2.5698m
;Layer height: 0.3
;MINX:7.41
;MINY:31.596
;MINZ:0.3
;MAXX:202.45
;MAXY:178.105
;MAXZ:4.8
;Generated with Cura_SteamEngine master
M140 S60
M105
M190 S60
M104 S200
M105
M109 S200
M82 ;absolute extrusion mode
G21 ;metric values
G90 ;absolute positioning
M82 ;set extruder to absolute mode
M107 ;start with the fan off
G28 X0 Y0 ;move X/Y to min endstops
G28 Z0 ;move Z to min endstops
G1 Z15.0 F100 ;move the platform down 15mm
G92 E0 ;zero the extruded length
G1 F200 E3 ;extrude 3mm of feed stock
G92 E0 ;zero the extruded length again
G1 F100
G0 Y20 F100
M117 Printing...
G5
G92 E0
G92 E0
G1 F2400 E-6
;LAYER_COUNT:16
;LAYER:0
M106 S255
M204 S3000
M205 X10 Y10
G1 F600 Z0.375
;MESH:GRENG MVP Face Shield v1.STL
G0 F3000 X23.411 Y41.694 Z0.375
M204 S1800
M205 X8 Y8
;TYPE:WALL-INNER
G1 F600 Z0.3
G1 F2400 E0
G1 F1800 X23.406 Y41.694 E0.00035
G1 X22.657 Y41.597 E0.0531
G1 X21.903 Y41.7 E0.10625
G1 X21.203 Y41.994 E0.15928
G1 X20.603 Y42.459 E0.2123
G1 X20.143 Y43.065 E0.26544
G1 X20.115 Y43.132 E0.27052
G1 X19.855 Y43.769 E0.31857
G1 X19.771 Y44.43 E0.36511
G1 X19.777 Y46.414 E0.50369
G1 X19.771 Y46.458 E0.50679
G1 X19.756 Y46.562 E0.51413
G1 X19.737 Y46.587 E0.51632
G1 X19.706 Y46.605 E0.51882
G1 X19.683 Y46.608 E0.52044
G1 X19.638 Y46.598 E0.52366
G1 X19.622 Y46.584 E0.52387
G1 X19.602 Y46.565 E0.52438
G1 X19.593 Y46.544
G1 X19.58 Y46.441 E0.52665
G1 X19.578 Y46.431
G1 X19.578 Y46.415
G1 X19.572 Y44.431 E0.57594
G1 X19.569 Y43.771 E0.59656
G1 X19.567 Y43.083 E0.63309
G1 X19.564 Y42.605 E0.66647
G1 X19.609 Y41.996 E0.70913
G1 X19.74 Y41.491 E0.74557
G1 X19.961 Y41 E0.78317
G1 X20.254 Y40.566 E0.81975
G1 X20.623 Y40.185 E0.8568
G1 X21.052 Y39.868 E0.89405
G1 X21.528 Y39.631 E0.93119
G1 X22.753 Y39.264 E1.02051
G1 X23.401 Y38.943 E1.07102
G1 X23.429 Y38.929 E1.07321
G1 X23.948 Y38.546 E1.11826
G1 X23.949 Y38.927 E1.1276
G1 X23.949 Y38.959 E1.12977
G1 X23.96 Y41.685 E1.32017
G1 X23.96 Y41.691 E1.32059
G1 X23.961 Y41.917 E1.33638
G1 X23.411 Y41.694 E1.36518
M204 S3000
M205 X10 Y10
G0 F3000 X24.693 Y45.169
G0 X24.712 Y49.732
G0 X24.929 Y55.587
G0 X25.503 Y60.859
G0 X26.524 Y66.643
G0 X27.897 Y72.063
G0 X29.644 Y77.373
G0 X31.758 Y82.548
G0 X34.227 Y87.562
G0 X37.04 Y92.392
G0 X40.184 Y97.014
G0 X43.641 Y101.406
G0 X47.397 Y105.544
G0 X51.432 Y109.413
G0 X55.727 Y112.989
G0 X60.262 Y116.258
G0 X65.014 Y119.202
G0 X69.959 Y121.807
G0 X75.074 Y124.061
G0 X80.333 Y125.953
G0 X85.712 Y127.473
G0 X91.184 Y128.615
G0 X96.722 Y129.371
G0 X102.31 Y129.38
G0 X107.874 Y129.359
G0 X113.462 Y129.309
G0 X118.994 Y128.51
G0 X124.458 Y127.327
G0 X129.825 Y125.765
G0 X135.07 Y123.834
G0 X140.167 Y121.541
G0 X145.092 Y118.898
G0 X149.821 Y115.919
G0 X154.33 Y112.616
G0 X158.598 Y109.008
G0 X162.604 Y105.109
G0 X166.329 Y100.94
G0 X169.754 Y96.523
G0 X172.862 Y91.878
G0 X175.638 Y87.027
G0 X178.07 Y81.994
G0 X180.144 Y76.804
G0 X181.851 Y71.48
G0 X183.182 Y66.052
G0 X184.133 Y60.544
G0 X184.697 Y54.983
G0 X184.868 Y48.509
G0 X184.851 Y44.3
G0 X186.102 Y41.079
M204 S1800
M205 X8 Y8
G1 F1800 X185.559 Y41.308 E1.40634
G1 X185.559 Y41.082 E1.40939
G1 X185.559 Y41.073 E1.41002
G1 X185.548 Y38.346 E1.60049
G1 X185.548 Y38.316 E1.60258
G1 X185.546 Y37.934 E1.62927
G1 X186.07 Y38.313 E1.65717
G1 X186.096 Y38.326 E1.65914
G1 X186.748 Y38.643 E1.70978
G1 X187.977 Y39.001 E1.79919
G1 X188.447 Y39.229 E1.83567
G1 X188.882 Y39.543 E1.87314
G1 X189.243 Y39.913 E1.90925
G1 X189.554 Y40.363 E1.94746
G1 X189.77 Y40.831 E1.98346
G1 X189.906 Y41.342 E2.02039
G1 X189.961 Y41.942 E2.06248
G1 X189.963 Y42.432 E2.0967
G1 X189.965 Y43.121 E2.14483
G1 X189.968 Y43.787 E2.19134
G1 X189.977 Y45.779 E2.33048
G1 X189.973 Y45.806 E2.33238
G1 X189.955 Y45.917 E2.34024
G1 X189.945 Y45.928 E2.34128
G1 X189.922 Y45.953 E2.34365
G1 X189.901 Y45.962 E2.34525
G1 X189.857 Y45.963 E2.34832
G1 X189.833 Y45.953 E2.35014
G1 X189.818 Y45.941 E2.35148
G1 X189.8 Y45.919
G1 X189.793 Y45.901
G1 X189.781 Y45.804 E2.3533
G1 X189.777 Y45.775
G1 X189.769 Y43.788 E2.40263
G1 X189.68 Y43.123 E2.423
G1 X189.414 Y42.488 E2.4595
G1 X189.385 Y42.42 E2.46467
G1 X188.92 Y41.82 E2.51768
G1 X188.314 Y41.358 E2.57091
G1 X187.609 Y41.073 E2.62402
G1 X186.858 Y40.976 E2.67691
G1 X186.11 Y41.078 E2.72964
G1 X186.102 Y41.079 E2.7302
M204 S3000
M205 X10 Y10
G0 F3000 X188.034 Y41.849
M204 S1800
M205 X8 Y8
G1 F1800 X187.466 Y41.619 E2.773
G1 X186.86 Y41.541 E2.81568
G1 X186.251 Y41.624 E2.85861
G1 X185.688 Y41.861 E2.90127
G1 X185.492 Y42.012 E2.91855
G1 X185.203 Y42.235 E2.94405
G1 X185.004 Y42.497 E2.96703
G1 X185.004 Y42.236 E2.96921
G1 X185.003 Y41.871 E2.98734
G1 X184.983 Y37.196 E3.31387
G1 X184.983 Y36.979 E3.32903
G1 X184.981 Y36.437 E3.36689
G1 X184.98 Y36.409 E3.36884
G1 X184.993 Y36.436
G1 X185.366 Y36.977 E3.38883
G1 X185.518 Y37.132 E3.40178
G1 X185.827 Y37.447 E3.4326
G1 X186.359 Y37.831 E3.47842
G1 X186.95 Y38.119 E3.52434
G1 X188.181 Y38.477 E3.61389
G1 X188.734 Y38.746 E3.65684
G1 X189.245 Y39.115 E3.70086
G1 X189.681 Y39.561 E3.74443
G1 X190.04 Y40.08 E3.7885
G1 X190.299 Y40.641 E3.83166
G1 X190.46 Y41.247 E3.87546
G1 X190.521 Y41.912 E3.9221
G1 X190.537 Y45.816 E4.19478
G1 X190.508 Y46.045 E4.21091
G1 X190.445 Y46.199 E4.22253
G1 X190.339 Y46.338 E4.23474
G1 X190.207 Y46.441 E4.24643
G1 X190.048 Y46.507 E4.25846
G1 X189.882 Y46.53 E4.27016
G1 X189.71 Y46.508 E4.28227
G1 X189.552 Y46.443 E4.2942
G1 X189.42 Y46.342 E4.30581
G1 X189.312 Y46.203 E4.31811
G1 X189.248 Y46.05 E4.32969
G1 X189.217 Y45.808 E4.34673
G1 X189.209 Y43.826 E4.48517
G1 X189.135 Y43.271 E4.52428
G1 X188.897 Y42.705 E4.56716
G1 X188.522 Y42.221 E4.60993
G1 X188.034 Y41.849 E4.65279
M204 S3000
M205 X10 Y10
G0 F3000 X186.295 Y41.784
G0 X185.321 Y42.352
G0 X185.107 Y43.427
G0 X184.706 Y48.36
G0 X185.287 Y55.312
M204 S1800
M205 X8 Y8
G1 F1800 X185.553 Y56.219 E4.71881
G1 X184.717 Y56.37 E4.77814
G1 X184.829 Y55.266 E4.85565
G1 X184.857 Y54.994 E4.87475
G1 X184.904 Y53.488 E4.97999
G1 X185.204 Y54.92 E5.01176
G1 X185.287 Y55.312 E5.03338
M204 S3000
M205 X10 Y10
G0 F3000 X184.292 Y60.566
M204 S1800
M205 X8 Y8
G1 F1800 X184.59 Y57.626 E5.23978
G1 X184.592 Y60.565 E5.29456
G1 X184.593 Y60.682 E5.30274
G1 X184.6 Y62.447 E5.42602
G1 X183.978 Y62.384 E5.46968
G1 X184.281 Y60.629 E5.5923
G1 X184.292 Y60.566 E5.59389
M204 S3000
M205 X10 Y10
G0 F3000 X185.119 Y56.836
G0 X191.12 Y66.327
G0 X196.991 Y74.012
G0 X198.887 Y76.756
G0 X200.052 Y78.749
G0 X200.734 Y80.16
G0 X201.243 Y81.441
G0 X201.62 Y82.646
G0 X201.886 Y83.809
G0 X202.055 Y84.954
G0 X202.128 Y86.112
G0 X202.107 Y87.309
G0 X201.986 Y88.528
G0 X200.97 Y94.373
G0 X199.608 Y100.143
G0 X198.07 Y105.245
G0 X193.096 Y118.441
M204 S1800
M205 X8 Y8
G1 F1800 X192.733 Y118.588 E5.62125
G1 X192.868 Y118.325 E5.62446
G1 X192.924 Y118.216 E5.62469
G1 X193.098 Y117.877 E5.6513
G1 X193.314 Y118.338 E5.66907
G1 X193.362 Y118.44 E5.67522
G1 X193.096 Y118.441 E5.68478
M204 S3000
M205 X10 Y10
G0 F3000 X190.547 Y122.373
G0 X189.586 Y121.803
G0 X188.804 Y121.091
G0 X187.752 Y120.86
G0 X186.728 Y121.184
G0 X185.999 Y121.977
G0 X185.765 Y123.026
G0 X186.084 Y124.052
G0 X187.463 Y124.816
G0 X188.817 Y125.122
G0 X185.187 Y131.012
G0 X181.518 Y135.912
G0 X177.551 Y140.573
G0 X173.298 Y144.979
G0 X168.333 Y149.016
G0 X167.196 Y149.278
M204 S1800
M205 X8 Y8
G1 F1800 X167.494 Y148.944 E5.71605
G1 X167.507 Y148.957
G1 X167.932 Y149.369 E5.75739
G1 X167.533 Y149.692 E5.79325
G1 X164.02 Y152.539 E6.10908
G1 X163.672 Y152.786 E6.13888
G1 X162.518 Y153.608 E6.23784
G1 X163.616 Y152.708 E6.24647
G1 X163.911 Y152.426 E6.25248
G1 X167.196 Y149.278 E6.44873
M204 S3000
M205 X10 Y10
G0 F3000 X173.082 Y141.347
G0 X175.762 Y137.215
G0 X178.11 Y132.894
G0 X180.123 Y128.398
G0 X181.857 Y123.479
G0 X183.083 Y118.974
G0 X184.004 Y114.14
G0 X184.547 Y109.306
G0 X184.717 Y104.399
G0 X184.549 Y62.614
G0 X179.457 Y79.187
G0 X171.544 Y94.27
G0 X161.172 Y106.843
G0 X146.667 Y118.139
G0 X133.251 Y124.76
G0 X124.107 Y127.175
G0 X110.595 Y129.682
M204 S1800
M205 X8 Y8
G1 F1800 X110.683 Y129.675 E6.45489
G1 X110.631 Y130.158 E6.4786
G1 X110.581 Y130.148
G1 X108.983 Y129.8 E6.59283
G1 X110.595 Y129.682 E6.64009
M204 S3000
M205 X10 Y10
G0 F3000 X99.569 Y130.197
M204 S1800
M205 X8 Y8
G1 F1800 X99.515 Y130.21 E6.64397
G1 X99.459 Y129.713 E6.66898
G1 X99.547 Y129.718
G1 X101.201 Y129.829 E6.78476
G1 X99.569 Y130.197 E6.8357
M204 S3000
M205 X10 Y10
G0 F3000 X94.492 Y132.864
G0 X92.936 Y133.863
G0 X91.475 Y134.994
G0 X89.771 Y136.628
G0 X88.869 Y137.621
G0 X87.747 Y139.094
G0 X86.762 Y140.652
G0 X85.905 Y142.313
G0 X85.207 Y144.017
G0 X84.654 Y145.793
G0 X84.264 Y147.591
G0 X84.029 Y149.43
G0 X83.955 Y151.279
G0 X84.043 Y153.127
G0 X84.291 Y154.963
G0 X84.699 Y156.768
G0 X85.265 Y158.539
G0 X85.972 Y160.231
G0 X86.839 Y161.881
G0 X87.839 Y163.437
G0 X88.97 Y164.899
G0 X90.227 Y166.26
G0 X91.949 Y167.773
G0 X93.07 Y168.626
G0 X94.635 Y169.615
G0 X97.789 Y171.466
G0 X99.627 Y172.22
M204 S1800
M205 X8 Y8
G1 F1800 X99.983 Y172.298 E6.86115
G1 X99.625 Y172.281 E6.86238
G1 X98.019 Y172.201 E6.9747
G1 X97.915 Y172.195 E6.98197
G1 X98.042 Y171.726 E7.00549
G1 X98.059 Y171.731
G1 X99.627 Y172.22 E7.06109
M204 S3000
M205 X10 Y10
G0 F3000 X105.28 Y173.479
M204 S1800
M205 X8 Y8
G1 F1800 X105.28 Y173.782 E7.08225
G1 X105.28 Y176.159 E7.24827
G1 X105.281 Y176.963 E7.30443
G1 X105.272 Y176.963 E7.30506
G1 X105.263 Y176.16 E7.30633
G1 X105.258 Y173.782 E7.31215
G1 X105.178 Y173.51 E7.31397
G1 X105.087 Y173.202 E7.33593
G1 X105.073 Y173.192 E7.33713
G1 X104.701 Y172.918 E7.3694
G1 X105.097 Y172.933 E7.37508
G1 X105.257 Y172.94 E7.37853
G1 X105.731 Y172.917 E7.41168
G1 X105.534 Y173.162 E7.41637
G1 X105.34 Y173.404 E7.42968
G1 X105.28 Y173.479
M204 S3000
M205 X10 Y10
G0 F3000 X110.881 Y172.177
M204 S1800
M205 X8 Y8
G1 F1800 X112.497 Y171.662 E7.54815
G1 X112.516 Y171.655 E7.54956
G1 X112.649 Y172.137 E7.57475
G1 X112.544 Y172.142
G1 X110.885 Y172.237 E7.63075
G1 X110.523 Y172.258 E7.65608
G1 X110.881 Y172.177 E7.65769
M204 S3000
M205 X10 Y10
G0 F3000 X105.256 Y172.779
G0 X97.384 Y172.129
G0 X91.437 Y171.852
G0 X85.818 Y170.908
G0 X80.263 Y169.638
G0 X74.791 Y168.048
G0 X69.422 Y166.142
G0 X64.171 Y163.929
G0 X59.055 Y161.412
G0 X54.777 Y158.937
G0 X51.323 Y156.127
G0 X43.14 Y149.746
M204 S1800
M205 X8 Y8
G1 F1800 X46.671 Y153.079 E7.99683
G1 X46.747 Y153.15 E8.0041
G1 X47.888 Y154.071 E8.10651
G1 X46.687 Y153.237 E8.11602
G1 X46.588 Y153.168 E8.11817
G1 X42.805 Y150.169 E8.31659
G1 X42.402 Y149.849 E8.35253
G1 X42.826 Y149.43 E8.39416
G1 X42.84 Y149.416 E8.39555
G1 X43.14 Y149.746 E8.41727
M204 S3000
M205 X10 Y10
G0 F3000 X42.002 Y149.496
G0 X37.005 Y145.494
G0 X32.721 Y141.121
G0 X28.717 Y136.491
G0 X25.011 Y131.619
G0 X21.471 Y126.208
G0 X22.436 Y125.643
G0 X23.439 Y125.303
G0 X24.153 Y124.499
G0 X24.372 Y123.448
G0 X24.034 Y122.425
G0 X23.231 Y121.708
G0 X22.181 Y121.487
G0 X21.159 Y121.821
G0 X20.177 Y122.977
G0 X16.708 Y119.127
M204 S1800
M205 X8 Y8
G1 F1800 X16.739 Y119.04 E8.42372
G1 X16.952 Y118.448 E8.46766
G1 X17.178 Y118.881 E8.48086
G1 X17.264 Y119.045 E8.49123
G1 X17.402 Y119.309 E8.51204
G1 X17.057 Y119.154 E8.52077
G1 X16.708 Y119.154 E8.53598
G1 X16.628 Y119.153 E8.53756
G1 X16.708 Y119.127
M204 S3000
M205 X10 Y10
G0 F3000 X14.894 Y113.611
G0 X14.205 Y112.071
G0 X12.112 Y106.523
G0 X10.359 Y100.859
G0 X8.951 Y95.1
G0 X7.891 Y89.238
G0 X7.757 Y88.002
G0 X7.733 Y86.803
G0 X7.803 Y85.647
G0 X7.965 Y84.502
G0 X8.226 Y83.337
G0 X8.597 Y82.128
G0 X9.102 Y80.84
G0 X9.785 Y79.413
G0 X10.951 Y77.389
G0 X21.738 Y61.877
G0 X23.837 Y57.019
G0 X25.343 Y60.882
M204 S1800
M205 X8 Y8
G1 F1800 X25.729 Y63.068 E8.69261
G1 X25.081 Y63.127 E8.73805
G1 X25.073 Y60.884 E8.89472
G1 X25.062 Y58.302 E9.07506
G1 X25.343 Y60.882 E9.11929
M204 S3000
M205 X10 Y10
G0 F3000 X24.326 Y55.969
M204 S1800
M205 X8 Y8
G1 F1800 X24.416 Y55.528 E9.15073
G1 X24.712 Y54.077 E9.25416
G1 X24.768 Y55.599 E9.28978
G1 X24.802 Y55.917 E9.30539
G1 X24.915 Y56.948 E9.37783
G1 X24.085 Y56.805 E9.43666
G1 X24.326 Y55.969 E9.49743
M204 S3000
M205 X10 Y10
G0 F3000 X24.869 Y50.039
G0 X24.849 Y44.458
G0 X23.835 Y42.47
M204 S1800
M205 X8 Y8
G1 F1800 X23.268 Y42.24 E9.54016
G1 X22.659 Y42.162 E9.58305
G1 X22.052 Y42.245 E9.62584
G1 X21.488 Y42.482 E9.66857
G1 X21.004 Y42.857 E9.71133
G1 X20.633 Y43.345 E9.75415
G1 X20.401 Y43.913 E9.797
G1 X20.331 Y44.465 E9.83587
G1 X20.337 Y46.445 E9.97416
G1 X20.308 Y46.69 E9.9914
G1 X20.245 Y46.844 E10.00302
G1 X20.14 Y46.982 E10.01513
G1 X20.006 Y47.086 E10.02698
G1 X19.854 Y47.15 E10.0385
G1 X19.682 Y47.172 E10.05061
G1 X19.51 Y47.151 E10.06271
G1 X19.356 Y47.088 E10.07433
G1 X19.217 Y46.982 E10.08654
G1 X19.114 Y46.85 E10.09824
G1 X19.048 Y46.691 E10.11026
G1 X19.018 Y46.47 E10.12584
G1 X19.004 Y42.592 E10.3967
G1 X19.055 Y41.903 E10.44496
G1 X19.211 Y41.301 E10.4884
G1 X19.468 Y40.73 E10.53213
G1 X19.819 Y40.21 E10.57595
G1 X20.252 Y39.762 E10.61947
G1 X20.758 Y39.389 E10.66338
G1 X21.32 Y39.109 E10.70723
G1 X22.547 Y38.741 E10.7967
G1 X23.136 Y38.449 E10.84262
G1 X23.665 Y38.059 E10.88853
G1 X23.971 Y37.743 E10.91925
G1 X24.121 Y37.587 E10.93437
G1 X24.49 Y37.042 E10.98034
G1 X24.502 Y37.014 E10.98246
G1 X24.502 Y37.041
G1 X24.504 Y37.585 E10.99822
G1 X24.504 Y37.802 E11.01115
G1 X24.523 Y42.477 E11.33769
G1 X24.524 Y42.841 E11.36311
G1 X24.526 Y43.104 E11.38148
G1 X24.323 Y42.842 E11.38848
G1 X24.034 Y42.622 E11.40654
G1 X23.835 Y42.47 E11.42403
M204 S3000
M205 X10 Y10
G0 F3000 X24.429 Y44.03
G0 X25.742 Y63.555
G0 X25.683 Y63.635
M204 S1800
M205 X8 Y8
;TYPE:WALL-OUTER
G1 F1800 X25.19 Y63.68 E11.45861
G1 X25.182 Y63.945 E11.47713
G1 X25.166 Y64.453 E11.51263
G1 X25.319 Y105.005 E14.34505
G1 X25.528 Y109.912 E14.6881
G1 X26.113 Y114.791 E15.03132
G1 X27.075 Y119.611 E15.37462
G1 X28.404 Y124.343 E15.71792
G1 X30.096 Y128.958 E16.06124
G1 X32.137 Y133.429 E16.40453
G1 X34.518 Y137.729 E16.74783
G1 X37.223 Y141.833 E17.09115
G1 X40.236 Y145.716 E17.43443
G1 X43.54 Y149.354 E17.77769
G1 X47.116 Y152.728 E18.12108
G1 X50.94 Y155.816 E18.46439
G1 X54.99 Y158.599 E18.80761
G1 X59.243 Y161.06 E19.15082
G1 X64.337 Y163.566 E19.54734
G1 X69.566 Y165.77 E19.94368
G1 X74.913 Y167.668 E20.33998
G1 X80.363 Y169.251 E20.73638
G1 X85.895 Y170.516 E21.13274
G1 X91.491 Y171.456 E21.52907
G1 X97.105 Y172.068 E21.92351
G1 X97.362 Y172.096 E21.94157
G1 X97.487 Y171.632 E21.97514
G1 X97.25 Y171.528 E21.99193
G1 X95.603 Y170.804 E22.11759
G1 X93.974 Y169.921 E22.24701
G1 X92.414 Y168.895 E22.37743
G1 X90.951 Y167.742 E22.50753
G1 X89.599 Y166.475 E22.63695
G1 X88.353 Y165.092 E22.76697
G1 X87.23 Y163.608 E22.89696
G1 X86.241 Y162.038 E23.02656
G1 X85.384 Y160.378 E23.15704
G1 X84.673 Y158.658 E23.28704
G1 X84.112 Y156.885 E23.41693
G1 X83.704 Y155.071 E23.54679
G1 X83.454 Y153.239 E23.67594
G1 X83.358 Y151.369 E23.80672
G1 X83.422 Y149.511 E23.93657
G1 X83.645 Y147.663 E24.06659
G1 X84.024 Y145.843 E24.19643
G1 X84.557 Y144.061 E24.32635
G1 X85.234 Y142.342 E24.45539
G1 X86.073 Y140.655 E24.58699
G1 X87.032 Y139.078 E24.7159
G1 X88.132 Y137.575 E24.84599
G1 X89.354 Y136.174 E24.97584
G1 X90.692 Y134.881 E25.1058
G1 X92.137 Y133.704 E25.23597
G1 X93.673 Y132.658 E25.36577
G1 X95.291 Y131.749 E25.4954
G1 X96.986 Y130.975 E25.62554
G1 X98.724 Y130.356 E25.75441
G1 X98.959 Y130.273 E25.77181
G1 X98.909 Y129.831 E25.80288
G1 X98.661 Y129.803 E25.81855
G1 X93.321 Y129.192 E26.19397
G1 X87.817 Y128.2 E26.58459
G1 X82.426 Y126.838 E26.97297
G1 X77.126 Y125.1 E27.36255
G1 X71.958 Y122.998 E27.75223
G1 X66.959 Y120.547 E28.1411
G1 X62.033 Y117.693 E28.53874
G1 X57.524 Y114.632 E28.91939
G1 X53.119 Y111.185 E29.31007
G1 X48.976 Y107.452 E29.69958
G1 X45.114 Y103.451 E30.08798
G1 X41.527 Y99.18 E30.47755
G1 X38.246 Y94.671 E30.86704
G1 X35.285 Y89.943 E31.25669
G1 X32.661 Y85.025 E31.64603
G1 X30.379 Y79.923 E32.0364
G1 X28.465 Y74.697 E32.42513
G1 X26.915 Y69.341 E32.81458
G1 X25.738 Y63.894 E33.20381
G1 X25.683 Y63.635 E33.22124
M204 S3000
M205 X10 Y10
G0 F3000 X25.484 Y63.653
G0 X25.775 Y63.591
G0 X25.127 Y64.453
G0 X25.28 Y105.005
G0 X25.489 Y109.915
G0 X26.075 Y114.805
G0 X27.037 Y119.621
G0 X28.366 Y124.355
