;FLAVOR:Marlin
;TIME:344
;Filament used: 0.167245m
;Layer height: 0.1
;MINX:91.612
;MINY:93.167
;MINZ:0.1
;MAXX:118.4
;MAXY:116.833
;MAXZ:4
;Generated with Cura_SteamEngine master
M140 S60
M105
M190 S60
M104 S200
M105
M109 S200
M82 ;absolute extrusion mode
; Sliced for AnyCubic Mega S
;
G21 ;metric values
G90 ;absolute positioning
M82 ;set extruder to absolute mode
M107 ;start with the fan off
G28 X0 Y0 ;move X/Y to min endstops
G28 Z0 ;move Z to min endstops
G1 Z15.0 F50 ;move the platform down 15mm
G92 E0 ;zero the extruded length
G1 F200 E3 ;extrude 3mm of feed stock
G92 E0 ;zero the extruded length again
G1 F50
M117 Printing...
G5
G92 E0
G92 E0
G1 F2400 E-6
;LAYER_COUNT:40
;LAYER:0
M106 S255
M204 S3000
M205 X10 Y10
G1 F600 Z0.175
G0 F1500 X93.351 Y95.202 Z0.175
M204 S1800
M205 X8 Y8
;TYPE:SKIRT
G1 F600 Z0.1
G1 F2400 E0
G1 X93.869 Y94.709 E0.01665
G1 X94.439 Y94.277 E0.0333
G1 X95.054 Y93.911 E0.04996
G1 X95.705 Y93.616 E0.0666
G1 X96.386 Y93.396 E0.08327
G1 X97.087 Y93.253 E0.09992
G1 X97.726 Y93.191 E0.11487
G1 X97.97 Y93.18 E0.12056
G1 X98.205 Y93.174 E0.12603
G1 X99.05 Y93.167 E0.1457
G1 X99.104 Y93.167 E0.14696
G1 X111.298 Y93.168 E0.43086
G1 X111.389 Y93.169 E0.43298
G1 X112.082 Y93.179 E0.44912
G1 X112.796 Y93.229 E0.46578
G1 X113.499 Y93.359 E0.48243
G1 X114.184 Y93.566 E0.49909
G1 X114.841 Y93.848 E0.51573
G1 X115.463 Y94.202 E0.53239
G1 X116.041 Y94.623 E0.54904
G1 X116.568 Y95.106 E0.56569
G1 X117.039 Y95.645 E0.58235
G1 X117.446 Y96.233 E0.599
G1 X117.785 Y96.862 E0.61564
G1 X118.052 Y97.526 E0.6323
G1 X118.243 Y98.215 E0.64895
G1 X118.356 Y98.922 E0.66561
G1 X118.387 Y99.373 E0.67614
G1 X118.397 Y99.685 E0.68341
G1 X118.4 Y99.89 E0.68818
G1 X118.4 Y109.775 E0.91832
G1 X118.391 Y110.502 E0.93525
G1 X118.342 Y111.216 E0.95191
G1 X118.214 Y111.92 E0.96857
G1 X118.008 Y112.605 E0.98523
G1 X117.727 Y113.262 E1.00186
G1 X117.374 Y113.885 E1.01854
G1 X116.954 Y114.464 E1.03519
G1 X116.472 Y114.992 E1.05183
G1 X115.935 Y115.464 E1.06848
G1 X115.347 Y115.872 E1.08514
G1 X114.718 Y116.213 E1.1018
G1 X114.055 Y116.481 E1.11845
G1 X113.366 Y116.673 E1.1351
G1 X112.66 Y116.788 E1.15176
G1 X112.17 Y116.821 E1.16319
G1 X111.848 Y116.83 E1.17069
G1 X111.669 Y116.832 E1.17486
G1 X98.71 Y116.833 E1.47657
G1 X98.616 Y116.832 E1.47876
G1 X97.934 Y116.822 E1.49464
G1 X97.221 Y116.772 E1.51128
G1 X96.517 Y116.642 E1.52795
G1 X95.833 Y116.435 E1.54459
G1 X95.176 Y116.152 E1.56124
G1 X94.554 Y115.798 E1.5779
G1 X93.976 Y115.377 E1.59455
G1 X93.449 Y114.894 E1.61119
G1 X92.978 Y114.355 E1.62786
G1 X92.571 Y113.767 E1.64451
G1 X92.232 Y113.137 E1.66117
G1 X91.965 Y112.473 E1.67783
G1 X91.774 Y111.784 E1.69447
G1 X91.662 Y111.078 E1.71112
G1 X91.63 Y110.599 E1.72229
G1 X91.612 Y109.943 E1.73757
G1 X91.613 Y109.588 E1.74584
G1 X91.631 Y108.946 E1.76079
G1 X91.634 Y108.855 E1.76291
G1 X91.702 Y107.239 E1.80057
G1 X91.739 Y104.592 E1.8622
G1 X91.7 Y101.958 E1.92353
G1 X91.639 Y100.533 E1.95674
G1 X91.636 Y100.438 E1.95895
G1 X91.617 Y99.766 E1.97461
G1 X91.636 Y99.051 E1.99126
G1 X91.736 Y98.343 E2.00791
G1 X91.914 Y97.65 E2.02456
G1 X92.168 Y96.981 E2.04122
G1 X92.495 Y96.345 E2.05787
G1 X92.891 Y95.749 E2.07453
G1 X93.351 Y95.202 E2.09117
M204 S3000
M205 X10 Y10
G0 F1500 X93.908 Y95.432
M204 S1800
M205 X8 Y8
G1 F2400 X94.421 Y94.981 E2.10708
G1 X94.984 Y94.593 E2.123
G1 X95.588 Y94.273 E2.13891
G1 X96.225 Y94.026 E2.15482
G1 X96.886 Y93.855 E2.17071
G1 X97.751 Y93.751 E2.191
G1 X97.995 Y93.74 E2.19668
G1 X98.21 Y93.734 E2.20169
G1 X99.055 Y93.727 E2.22137
G1 X99.103 Y93.727 E2.22248
G1 X111.297 Y93.728 E2.50638
G1 X111.381 Y93.729 E2.50834
G1 X112.074 Y93.739 E2.52448
G1 X112.756 Y93.788 E2.5404
G1 X113.427 Y93.917 E2.5563
G1 X114.078 Y94.124 E2.57221
G1 X114.701 Y94.405 E2.58812
G1 X115.286 Y94.757 E2.60402
G1 X115.827 Y95.175 E2.61993
G1 X116.315 Y95.653 E2.63584
G1 X116.743 Y96.185 E2.65173
G1 X117.107 Y96.764 E2.66766
G1 X117.401 Y97.38 E2.68355
G1 X117.62 Y98.027 E2.69945
G1 X117.763 Y98.696 E2.71538
G1 X117.827 Y99.391 E2.73163
G1 X117.837 Y99.703 E2.7389
G1 X117.84 Y99.89 E2.74325
G1 X117.84 Y109.768 E2.97323
G1 X117.831 Y110.495 E2.99016
G1 X117.782 Y111.177 E3.00608
G1 X117.654 Y111.848 E3.02198
G1 X117.449 Y112.5 E3.03789
G1 X117.169 Y113.123 E3.0538
G1 X116.819 Y113.709 E3.06969
G1 X116.402 Y114.251 E3.08561
G1 X115.925 Y114.74 E3.10151
G1 X115.394 Y115.169 E3.11741
G1 X114.816 Y115.534 E3.13332
G1 X114.2 Y115.829 E3.14923
G1 X113.553 Y116.05 E3.16514
G1 X112.885 Y116.194 E3.18105
G1 X112.154 Y116.261 E3.19814
G1 X111.832 Y116.27 E3.20564
G1 X111.669 Y116.272 E3.20944
G1 X98.71 Y116.273 E3.51115
G1 X98.624 Y116.272 E3.51315
G1 X97.942 Y116.262 E3.52903
G1 X97.261 Y116.212 E3.54493
G1 X96.59 Y116.083 E3.56084
G1 X95.939 Y115.877 E3.57674
G1 X95.316 Y115.595 E3.59266
G1 X94.731 Y115.243 E3.60855
G1 X94.19 Y114.825 E3.62447
G1 X93.702 Y114.347 E3.64038
G1 X93.274 Y113.815 E3.65627
G1 X92.91 Y113.236 E3.6722
G1 X92.617 Y112.619 E3.6881
G1 X92.397 Y111.972 E3.70401
G1 X92.255 Y111.304 E3.71991
G1 X92.19 Y110.583 E3.73676
G1 X92.172 Y109.927 E3.75204
G1 X92.172 Y109.603 E3.75959
G1 X92.19 Y108.961 E3.77454
G1 X92.193 Y108.878 E3.77647
G1 X92.262 Y107.234 E3.81478
G1 X92.299 Y104.592 E3.8763
G1 X92.261 Y101.961 E3.93756
G1 X92.198 Y100.509 E3.9714
G1 X92.195 Y100.422 E3.97342
G1 X92.176 Y99.75 E3.98908
G1 X92.197 Y99.067 E4.00499
G1 X92.297 Y98.391 E4.0209
G1 X92.476 Y97.732 E4.03679
G1 X92.73 Y97.098 E4.0527
G1 X93.057 Y96.498 E4.0686
G1 X93.451 Y95.94 E4.08451
G1 X93.908 Y95.432 E4.10042
M204 S3000
M205 X10 Y10
G0 F1500 X94.011 Y96.142
M204 S1800
M205 X8 Y8
G1 F2400 X94.464 Y95.676 E4.11555
G1 X94.971 Y95.27 E4.13067
G1 X95.524 Y94.929 E4.1458
G1 X96.115 Y94.658 E4.16093
G1 X96.734 Y94.462 E4.17605
G1 X97.373 Y94.344 E4.19118
G1 X97.776 Y94.31 E4.2006
G1 X98.02 Y94.299 E4.20628
G1 X98.214 Y94.294 E4.2108
G1 X99.059 Y94.287 E4.23047
G1 X99.103 Y94.287 E4.2315
G1 X111.297 Y94.288 E4.5154
G1 X111.373 Y94.289 E4.51717
G1 X112.066 Y94.299 E4.53331
G1 X112.714 Y94.348 E4.54844
G1 X113.351 Y94.476 E4.56356
G1 X113.967 Y94.682 E4.57869
G1 X114.553 Y94.962 E4.59381
G1 X115.101 Y95.312 E4.60895
G1 X115.601 Y95.726 E4.62406
G1 X116.047 Y96.198 E4.63918
G1 X116.431 Y96.722 E4.6543
G1 X116.748 Y97.289 E4.66943
G1 X116.993 Y97.891 E4.68456
G1 X117.162 Y98.518 E4.69968
G1 X117.267 Y99.409 E4.72057
G1 X117.277 Y99.721 E4.72783
G1 X117.28 Y99.89 E4.73177
G1 X117.28 Y109.761 E4.96159
G1 X117.271 Y110.488 E4.97851
G1 X117.223 Y111.136 E4.99364
G1 X117.095 Y111.773 E5.00877
G1 X116.891 Y112.39 E5.0239
G1 X116.612 Y112.977 E5.03903
G1 X116.264 Y113.525 E5.05414
G1 X115.851 Y114.026 E5.06926
G1 X115.379 Y114.473 E5.0844
G1 X114.856 Y114.858 E5.09952
G1 X114.29 Y115.176 E5.11463
G1 X113.688 Y115.423 E5.12978
G1 X113.062 Y115.593 E5.14488
G1 X112.139 Y115.701 E5.16652
G1 X111.817 Y115.71 E5.17402
G1 X111.669 Y115.712 E5.17747
G1 X98.71 Y115.713 E5.47918
G1 X98.633 Y115.712 E5.48097
G1 X97.951 Y115.702 E5.49685
G1 X97.303 Y115.653 E5.51198
G1 X96.666 Y115.524 E5.52711
G1 X96.05 Y115.318 E5.54223
G1 X95.464 Y115.039 E5.55735
G1 X94.916 Y114.689 E5.57248
G1 X94.416 Y114.274 E5.58761
G1 X93.971 Y113.802 E5.60272
G1 X93.586 Y113.278 E5.61785
G1 X93.269 Y112.711 E5.63298
G1 X93.024 Y112.109 E5.64811
G1 X92.855 Y111.482 E5.66323
G1 X92.75 Y110.568 E5.68465
G1 X92.732 Y109.912 E5.69993
G1 X92.732 Y109.619 E5.70675
G1 X92.75 Y108.977 E5.7217
G1 X92.753 Y108.902 E5.72345
G1 X92.822 Y107.266 E5.76157
G1 X92.859 Y104.592 E5.82384
G1 X92.82 Y101.929 E5.88584
G1 X92.758 Y100.485 E5.91949
G1 X92.755 Y100.406 E5.92133
G1 X92.736 Y99.734 E5.93699
G1 X92.758 Y99.085 E5.9521
G1 X92.859 Y98.443 E5.96724
G1 X93.038 Y97.819 E5.98235
G1 X93.293 Y97.221 E5.99748
G1 X93.619 Y96.659 E6.01261
G1 X94.011 Y96.142 E6.02772
M204 S3000
M205 X10 Y10
G1 F2400 E0.02772
;MESH:DNA_Helix_Pencil_Holder_Optional_U_Snaps01.stl
G0 F1500 X97.822 Y100.986
G0 X106.335 Y101.551
G0 X108.052 Y101.551
G0 X108.565 Y101.963
G0 X110.32 Y104.094
M204 S1800
M205 X8 Y8
;TYPE:WALL-INNER
G1 F2400 E6.02772
G1 F1500 X110.06 Y103.224 E6.04886
G1 X110.042 Y103.189 E6.04977
G1 X109.632 Y102.406 E6.07035
G1 X109.06 Y101.693 E6.09163
G1 X108.808 Y101.481 E6.0993
G1 X108.4 Y101.137 E6.11173
G1 X108.4 Y100.967 E6.11568
G1 X108.934 Y100.967 E6.12405
G1 X110.6 Y100.968 E6.16284
G1 X110.6 Y103.184 E6.21444
G1 X110.6 Y103.224 E6.21535
G1 X110.6 Y104.094 E6.23012
G1 X110.6 Y105.011 E6.25147
G1 X110.6 Y105.91 E6.2724
G1 X110.6 Y106.796 E6.29303
G1 X110.6 Y106.818 E6.29354
G1 X110.6 Y109.032 E6.34509
G1 X108.931 Y109.032 E6.38395
G1 X108.4 Y109.032 E6.39631
G1 X108.4 Y108.858 E6.40036
G1 X108.807 Y108.518 E6.40871
G1 X109.049 Y108.315 E6.41606
G1 X109.63 Y107.596 E6.43758
G1 X110.041 Y106.815 E6.45813
G1 X110.051 Y106.796 E6.45862
G1 X110.318 Y105.91 E6.47478
G1 X110.403 Y105.011 E6.48381
G1 X110.32 Y104.094 E6.49298
M204 S3000
M205 X10 Y10
G0 X109.864 Y105.823
G0 X109.766 Y105.802
M204 S1800
M205 X8 Y8
G1 X109.841 Y105.01 E6.5115
G1 X109.767 Y104.201 E6.53041
G1 X109.539 Y103.436 E6.549
G1 X109.161 Y102.714 E6.56797
G1 X108.657 Y102.086 E6.58672
G1 X108.041 Y101.567 E6.60547
G1 X107.84 Y101.455 E6.61083
G1 X107.84 Y100.687 E6.62871
G1 X107.84 Y100.407 E6.63523
G1 X108.12 Y100.407 E6.63945
G1 X111.16 Y100.408 E6.71023
G1 X111.16 Y109.592 E6.92405
G1 X107.84 Y109.592 E7.00135
G1 X107.84 Y108.545 E7.02572
G1 X108.024 Y108.443 E7.03062
G1 X108.648 Y107.921 E7.04956
G1 X109.16 Y107.287 E7.06854
G1 X109.53 Y106.583 E7.08705
G1 X109.766 Y105.802 E7.10605
M204 S3000
M205 X10 Y10
G0 X109.864 Y105.823
G0 X109.055 Y103.633
G0 X107.308 Y100.024
G0 X107.28 Y100.052
M204 S1800
M205 X8 Y8
;TYPE:WALL-OUTER
G1 X105.272 Y100.052 E7.1528
G1 X105.273 Y99.847 E7.15757
G1 X107.28 Y99.847 E7.17467
G1 X107.457 Y99.847 E7.17879
G1 X111.72 Y99.848 E7.27804
G1 X111.72 Y110.152 E7.51794
G1 X107.28 Y110.152 E7.62131
G1 X105.272 Y110.152 E7.66806
G1 X105.273 Y109.95 E7.67277
G1 X107.28 Y109.948 E7.6897
G1 X107.28 Y108.215 E7.73005
G1 X107.706 Y107.979 E7.74138
G1 X108.247 Y107.527 E7.7578
G1 X108.69 Y106.978 E7.77422
G1 X109.009 Y106.37 E7.79021
G1 X109.214 Y105.693 E7.80668
G1 X109.279 Y105.009 E7.82267
G1 X109.214 Y104.308 E7.83906
G1 X109.018 Y103.648 E7.85509
G1 X108.69 Y103.022 E7.87155
G1 X108.254 Y102.479 E7.88776
G1 X107.722 Y102.03 E7.90397
G1 X107.28 Y101.785 E7.91573
G1 X107.28 Y100.229 E7.95196
G1 X107.28 Y100.052 E7.95516
M204 S3000
M205 X10 Y10
G0 X107.08 Y100.052
G0 X107.08 Y99.952
G0 X109.624 Y101.517
M204 S1800
M205 X8 Y8
;TYPE:SKIN
G1 X110.05 Y101.518 E7.96508
G1 X110.05 Y102.049 E7.97744
G1 X109.624 Y101.517 E7.99331
M204 S3000
M205 X10 Y10
G0 X110.05 Y107.952
M204 S1800
M205 X8 Y8
G1 X110.05 Y108.482 E8.00565
G1 X109.621 Y108.482 E8.01564
G1 X110.05 Y107.952 E8.03151
M204 S3000
M205 X10 Y10
;MESH:NONMESH
G0 F600 X110.05 Y107.952 Z0.2
G0 F1500 X109.294 Y107.378
;TIME_ELAPSED:18.942247
;LAYER:1
M140 S60
M204 S1800
M205 X8 Y8
;TYPE:WALL-INNER
;MESH:DNA_Helix_Pencil_Holder_Optional_U_Snaps01.stl
G1 F2164.7 X109.672 Y106.659 E8.04502
G1 X109.923 Y105.836 E8.05933
G1 X110.002 Y105.028 E8.07283
G1 X109.925 Y104.171 E8.08714
G1 X109.694 Y103.394 E8.10062
G1 X109.297 Y102.628 E8.11497
G1 X108.771 Y101.974 E8.12892
G1 X108.132 Y101.435 E8.14283
G1 X108 Y101.362 E8.14533
G1 X108 Y100.233 E8.16411
G1 X111 Y100.233 E8.214
G1 X111 Y109.767 E8.37255
G1 X108 Y109.767 E8.42244
G1 X108 Y108.638 E8.44122
G1 X108.083 Y108.592 E8.4428
G1 X108.744 Y108.051 E8.457
G1 X109.294 Y107.378 E8.47145
M204 S3000
M205 X10 Y10
G0 F2250 X107.67 Y110.003
G0 X107.6 Y109.933
M204 S1800
M205 X8 Y8
G1 F2164.7 X107.6 Y108.403 E8.4969
G1 X107.858 Y108.26 E8.5018
G1 X108.46 Y107.767 E8.51474
G1 X108.959 Y107.156 E8.52786
G1 X109.3 Y106.506 E8.54007
G1 X109.529 Y105.757 E8.55309
G1 X109.6 Y105.027 E8.56529
G1 X109.53 Y104.247 E8.57832
G1 X109.321 Y103.544 E8.59051
G1 X108.96 Y102.847 E8.60357
G1 X108.484 Y102.255 E8.6162
G1 X107.904 Y101.766 E8.62881
G1 X107.6 Y101.597 E8.6346
G1 X107.6 Y100.067 E8.66004
G1 X105.594 Y100.067 E8.6934
G1 X105.594 Y99.833 E8.69729
G1 X107.6 Y99.833 E8.71681
G1 X111.4 Y99.833 E8.78
G1 X111.4 Y110.167 E8.95186
G1 X107.6 Y110.167 E9.01505
G1 X105.594 Y110.167 E9.04841
G1 X105.594 Y109.933 E9.0523
G1 X107.6 Y109.933 E9.07182
M204 S3000
M205 X10 Y10
G0 F2250 X107.2 Y109.533
M204 S1800
M205 X8 Y8
;TYPE:WALL-OUTER
G1 F2164.7 X107.2 Y108.168 E9.09452
G1 X107.632 Y107.928 E9.10274
G1 X108.176 Y107.483 E9.11443
G1 X108.623 Y106.935 E9.12619
G1 X108.928 Y106.353 E9.13711
G1 X109.135 Y105.678 E9.14886
G1 X109.198 Y105.026 E9.15975
G1 X109.135 Y104.323 E9.17149
G1 X108.948 Y103.694 E9.1824
G1 X108.623 Y103.066 E9.19416
G1 X108.197 Y102.536 E9.20547
G1 X107.676 Y102.097 E9.2168
G1 X107.2 Y101.832 E9.22586
G1 X107.2 Y100.467 E9.24856
G1 X105.194 Y100.467 E9.28192
G1 X105.194 Y99.433 E9.29911
G1 X111.8 Y99.433 E9.40897
G1 X111.8 Y110.567 E9.59413
G1 X105.194 Y110.567 E9.70399
G1 X105.194 Y109.533 E9.72118
G1 X107.2 Y109.533 E9.75454
M204 S3000
M205 X10 Y10
G0 F2250 X107.2 Y109.333
G0 X107.7 Y109.333
G0 X108.39 Y109.377
M204 S1800
M205 X8 Y8
;TYPE:SKIN
G1 F1298.8 X108.39 Y108.845 E9.76339
G1 X109.021 Y108.328 E9.77696
G1 X109.621 Y107.594 E9.79272
G1 X110.035 Y106.807 E9.80751
G1 X110.307 Y105.912 E9.82307
G1 X110.394 Y105.03 E9.83781
G1 X110.31 Y104.097 E9.85338
G1 X110.057 Y103.248 E9.86812
G1 X109.625 Y102.414 E9.88374
G1 X109.052 Y101.701 E9.89895
G1 X108.39 Y101.141 E9.91337
G1 X108.39 Y100.623 E9.92198
G1 X110.61 Y100.623 E9.9589
G1 X110.61 Y109.377 E10.10448
G1 X108.39 Y109.377 E10.1414
M204 S3000
M205 X10 Y10
G0 F2250 X110.428 Y109.057
M204 S1800
M205 X8 Y8
G1 F1298.8 X110.288 Y109.197 E10.14469
M204 S3000
M205 X10 Y10
G0 F2250 X109.723 Y109.197
M204 S1800
M205 X8 Y8
G1 F1298.8 X110.428 Y108.491 E10.16128
M204 S3000
M205 X10 Y10
G0 F2250 X110.428 Y107.925
M204 S1800
M205 X8 Y8
G1 F1298.8 X109.157 Y109.197 E10.19119
M204 S3000
M205 X10 Y10
G0 F2250 X108.591 Y109.197
M204 S1800
M205 X8 Y8
G1 F1298.8 X110.428 Y107.36 E10.23439
M204 S3000
M205 X10 Y10
G0 F2250 X110.038 Y107.184
M204 S1800
M205 X8 Y8
G1 F1298.8 X110.428 Y106.794 E10.24356
M204 S3000
M205 X10 Y10
G0 F2250 X110.321 Y103.507
M204 S1800
M205 X8 Y8
G1 F1298.8 X110.429 Y103.399 E10.2461
M204 S3000
M205 X10 Y10
G0 F2250 X110.176 Y103.086
M204 S1800
M205 X8 Y8
G1 F1298.8 X110.429 Y102.833 E10.25205
M204 S3000
M205 X10 Y10
G0 F2250 X109.983 Y102.714
M204 S1800
M205 X8 Y8
G1 F1298.8 X110.429 Y102.268 E10.26254
M204 S3000
M205 X10 Y10
G0 F2250 X110.429 Y101.702
M204 S1800
M205 X8 Y8
G1 F1298.8 X109.79 Y102.341 E10.27757
M204 S3000
M205 X10 Y10
G0 F2250 X109.542 Y102.024
M204 S1800
M205 X8 Y8
G1 F1298.8 X110.429 Y101.136 E10.29844
M204 S3000
M205 X10 Y10
G0 F2250 X110.197 Y100.803
M204 S1800
M205 X8 Y8
G1 F1298.8 X109.289 Y101.71 E10.31979
M204 S3000
M205 X10 Y10
G0 F2250 X109.006 Y101.428
M204 S1800
M205 X8 Y8
G1 F1298.8 X109.631 Y100.803 E10.33449
M204 S3000
M205 X10 Y10
G0 F2250 X109.066 Y100.803
M204 S1800
M205 X8 Y8
G1 F1298.8 X108.7 Y101.168 E10.34308
M204 S3000
M205 X10 Y10
;MESH:NONMESH
G0 F600 X108.7 Y101.168 Z0.3
G0 F2250 X109.569 Y104.24
G0 X109.64 Y105.027
G0 X109.293 Y107.381
;TIME_ELAPSED:24.767693
;LAYER:2
M204 S1800
M205 X8 Y8
;TYPE:WALL-INNER
;MESH:DNA_Helix_Pencil_Holder_Optional_U_Snaps01.stl
G1 F3000 X109.662 Y106.677 E10.3563
G1 X109.923 Y105.837 E10.37093
G1 X110 Y105.046 E10.38414
G1 X109.926 Y104.174 E10.3987
G1 X109.698 Y103.409 E10.41197
G1 X109.298 Y102.629 E10.42655
G1 X108.771 Y101.974 E10.44053
G1 X108.132 Y101.435 E10.45443
G1 X108 Y101.362 E10.45694
G1 X108 Y99.994 E10.47969
G1 X110.8 Y99.992 E10.52626
G1 X111 Y99.992 E10.52958
G1 X111 Y100.192 E10.53174
G1 X111 Y110.008 E10.69498
G1 X108 Y110.008 E10.74487
G1 X108 Y108.639 E10.76763
G1 X108.051 Y108.611 E10.7686
G1 X108.728 Y108.066 E10.78305
G1 X109.293 Y107.381 E10.79782
M204 S3000
M205 X10 Y10
G0 X109.638 Y105.043
G0 X109.571 Y104.245
G0 X109.401 Y103.678
G0 X107.67 Y100.238
G0 X107.6 Y100.308
M204 S1800
M205 X8 Y8
G1 X105.594 Y100.308 E10.83118
G1 X105.594 Y99.596 E10.84302
G1 X111.2 Y99.592 E10.93625
G1 X111.4 Y99.592 E10.93958
G1 X111.4 Y99.792 E10.94173
G1 X111.4 Y110.408 E11.11827
