;FLAVOR:Marlin
;TIME:6653
;Filament used: 10.3995m
;Layer height: 0.3
;MINX:62.839
;MINY:37.83
;MINZ:0.3
;MAXX:147.161
;MAXY:172.17
;MAXZ:4.875
;Generated with Cura_SteamEngine master
M140 S60
M105
M190 S60
M104 S200
M105
M109 S200
M82 ;absolute extrusion mode
; Sliced for AnyCubic Mega S
;
G21 ;metric values
G90 ;absolute positioning
M82 ;set extruder to absolute mode
M107 ;start with the fan off
G28 X0 Y0 ;move X/Y to min endstops
G28 Z0 ;move Z to min endstops
G1 Z15.0 F100 ;move the platform down 15mm
G92 E0 ;zero the extruded length
G1 F200 E3 ;extrude 3mm of feed stock
G92 E0 ;zero the extruded length again
G1 F100
M117 Printing...
G5
G92 E0
G92 E0
G1 F2400 E-6
;LAYER_COUNT:16
;LAYER:0
M106 S255
M204 S3000
M205 X10 Y10
G1 F600 Z0.375
G0 F3000 X64.075 Y41.007 Z0.375
M204 S1800
M205 X8 Y8
;TYPE:SKIRT
G1 F600 Z0.3
G1 F2400 E0
G1 X64.349 Y40.637 E0.03216
G1 X64.528 Y40.413 E0.05219
G1 X65.005 Y39.88 E0.10214
G1 X65.539 Y39.403 E0.15216
G1 X66.122 Y38.989 E0.2021
G1 X66.743 Y38.646 E0.25165
G1 X66.954 Y38.544 E0.26802
G1 X67.135 Y38.46 E0.28196
G1 X67.245 Y38.411 E0.29037
G1 X67.913 Y38.157 E0.34028
G1 X68.606 Y37.979 E0.39026
G1 X69.657 Y37.86 E0.46414
G1 X69.99 Y37.85 E0.48741
G1 X70.18 Y37.847 E0.50068
G1 X114.058 Y37.83 E3.56539
G1 X114.06 Y37.83 E3.56553
G1 X139.375 Y37.831 E5.33369
G1 X139.469 Y37.832 E5.34026
G1 X140.151 Y37.842 E5.3879
G1 X140.864 Y37.892 E5.43782
G1 X141.568 Y38.022 E5.48782
G1 X142.133 Y38.187 E5.52893
G1 X142.48 Y38.306 E5.55456
G1 X143.143 Y38.576 E5.60456
G1 X143.771 Y38.917 E5.65447
G1 X144.357 Y39.327 E5.70442
G1 X145.032 Y39.939 E5.76806
G1 X145.267 Y40.185 E5.79183
G1 X145.731 Y40.729 E5.84177
G1 X146.132 Y41.322 E5.89177
G1 X146.464 Y41.955 E5.94169
G1 X146.785 Y42.822 E6.00626
G1 X146.895 Y43.201 E6.03383
G1 X147.056 Y43.898 E6.08379
G1 X147.147 Y44.839 E6.14983
G1 X147.158 Y45.321 E6.1835
G1 X147.16 Y45.467 E6.1937
G1 X147.161 Y120.531 E11.43664
G1 X147.16 Y164.276 E14.49207
G1 X147.159 Y164.361 E14.498
G1 X147.15 Y165.035 E14.54508
G1 X147.101 Y165.749 E14.59507
G1 X147.039 Y166.143 E14.62293
G1 X146.972 Y166.496 E14.64803
G1 X146.799 Y167.191 E14.69805
G1 X146.55 Y167.861 E14.74797
G1 X146.228 Y168.5 E14.79795
G1 X145.837 Y169.099 E14.84791
G1 X145.516 Y169.499 E14.88374
G1 X145.219 Y169.841 E14.91537
G1 X144.721 Y170.354 E14.96531
G1 X144.168 Y170.809 E15.01533
G1 X143.568 Y171.198 E15.06528
G1 X142.929 Y171.519 E15.11522
G1 X142.515 Y171.681 E15.14627
G1 X142.203 Y171.791 E15.16938
G1 X141.516 Y171.991 E15.21936
G1 X140.811 Y172.112 E15.26932
G1 X140.181 Y172.154 E15.31342
G1 X139.336 Y172.168 E15.37245
G1 X139.23 Y172.169 E15.37985
G1 X70.626 Y172.17 E20.17159
G1 X70.531 Y172.169 E20.17822
G1 X69.858 Y172.159 E20.22523
G1 X69.144 Y172.109 E20.27523
G1 X68.441 Y171.979 E20.32516
G1 X67.885 Y171.817 E20.36561
G1 X67.519 Y171.692 E20.39262
G1 X66.856 Y171.423 E20.4426
G1 X66.227 Y171.082 E20.49257
G1 X65.64 Y170.673 E20.54254
G1 X64.913 Y170.007 E20.61141
G1 X64.682 Y169.76 E20.63503
G1 X64.223 Y169.211 E20.68501
G1 X63.829 Y168.614 E20.73497
G1 X63.503 Y167.977 E20.78495
G1 X63.203 Y167.149 E20.84646
G1 X63.102 Y166.796 E20.87211
G1 X62.944 Y166.098 E20.92209
G1 X62.857 Y165.207 E20.98462
G1 X62.841 Y164.611 E21.02627
G1 X62.839 Y164.439 E21.03828
G1 X62.84 Y120.533 E24.10495
G1 X62.839 Y45.66 E29.33455
G1 X62.84 Y45.563 E29.34133
G1 X62.85 Y44.901 E29.38757
G1 X62.9 Y44.188 E29.43749
G1 X63.075 Y43.311 E29.49996
G1 X63.175 Y42.945 E29.52646
G1 X63.402 Y42.267 E29.5764
G1 X63.703 Y41.618 E29.62637
G1 X64.075 Y41.007 E29.67633
M204 S3000
M205 X10 Y10
G0 F3000 X64.787 Y40.986
M204 S1800
M205 X8 Y8
G1 F2400 X64.966 Y40.762 E29.69636
G1 X65.423 Y40.254 E29.74408
G1 X65.936 Y39.803 E29.79179
G1 X66.498 Y39.415 E29.83949
G1 X66.986 Y39.15 E29.87828
G1 X67.197 Y39.048 E29.89465
G1 X67.363 Y38.971 E29.90743
G1 X67.473 Y38.922 E29.91584
G1 X68.112 Y38.681 E29.96354
G1 X68.775 Y38.517 E30.01124
G1 X69.674 Y38.42 E30.0744
G1 X70.007 Y38.41 E30.09767
G1 X70.18 Y38.407 E30.10975
G1 X114.058 Y38.39 E33.17447
G1 X114.06 Y38.39 E33.17461
G1 X139.375 Y38.391 E34.94277
G1 X139.461 Y38.392 E34.94878
G1 X140.143 Y38.402 E34.99642
G1 X140.824 Y38.452 E35.04411
G1 X141.495 Y38.581 E35.09183
G1 X141.951 Y38.717 E35.12507
G1 X142.298 Y38.836 E35.15069
G1 X142.931 Y39.095 E35.19846
G1 X143.528 Y39.426 E35.24614
G1 X144.083 Y39.825 E35.29388
G1 X144.627 Y40.326 E35.34554
G1 X144.862 Y40.572 E35.3693
G1 X145.304 Y41.093 E35.41702
G1 X145.682 Y41.662 E35.46474
G1 X145.992 Y42.271 E35.51247
G1 X146.248 Y42.978 E35.56499
G1 X146.358 Y43.357 E35.59255
G1 X146.509 Y44.023 E35.64025
G1 X146.587 Y44.852 E35.69841
G1 X146.598 Y45.334 E35.73208
G1 X146.6 Y45.467 E35.74137
G1 X146.601 Y120.531 E40.98431
G1 X146.6 Y164.276 E44.03974
G1 X146.599 Y164.354 E44.04519
G1 X146.59 Y165.028 E44.09227
G1 X146.489 Y166.039 E44.16323
G1 X146.422 Y166.392 E44.18833
G1 X146.255 Y167.055 E44.23608
G1 X146.012 Y167.693 E44.28377
G1 X145.697 Y168.299 E44.33147
G1 X145.313 Y168.864 E44.37919
G1 X145.093 Y169.132 E44.4034
G1 X144.796 Y169.474 E44.43504
G1 X144.319 Y169.963 E44.48276
G1 X143.788 Y170.393 E44.53048
G1 X143.21 Y170.757 E44.57819
G1 X142.329 Y171.153 E44.64565
G1 X142.017 Y171.263 E44.66876
G1 X141.36 Y171.452 E44.71651
G1 X140.686 Y171.563 E44.76422
G1 X140.172 Y171.594 E44.80019
G1 X139.327 Y171.608 E44.85922
G1 X139.23 Y171.609 E44.86599
G1 X70.626 Y171.61 E49.65773
G1 X70.539 Y171.609 E49.6638
G1 X69.866 Y171.599 E49.71081
G1 X69.185 Y171.549 E49.75851
G1 X68.514 Y171.42 E49.80623
G1 X68.066 Y171.287 E49.83887
G1 X67.7 Y171.162 E49.86589
G1 X67.067 Y170.903 E49.91366
G1 X66.469 Y170.573 E49.96136
G1 X65.914 Y170.175 E50.00907
G1 X65.322 Y169.624 E50.06555
G1 X65.091 Y169.377 E50.08917
G1 X64.654 Y168.852 E50.13689
G1 X64.282 Y168.279 E50.1846
G1 X63.979 Y167.666 E50.23236
G1 X63.741 Y166.994 E50.28216
G1 X63.64 Y166.641 E50.3078
G1 X63.491 Y165.975 E50.35547
G1 X63.417 Y165.192 E50.4104
G1 X63.401 Y164.596 E50.45205
G1 X63.399 Y164.439 E50.46301
G1 X63.4 Y120.533 E53.52968
G1 X63.399 Y45.66 E58.75928
G1 X63.4 Y45.572 E58.76543
G1 X63.41 Y44.91 E58.81167
G1 X63.46 Y44.228 E58.85944
G1 X63.615 Y43.459 E58.91423
G1 X63.715 Y43.093 E58.94073
G1 X63.934 Y42.445 E58.98851
G1 X64.226 Y41.828 E59.03618
G1 X64.787 Y40.986 E59.10685
M204 S3000
M205 X10 Y10
G0 F3000 X65.224 Y41.336
M204 S1800
M205 X8 Y8
G1 F2400 X65.403 Y41.112 E59.12688
G1 X65.839 Y40.63 E59.17227
G1 X66.331 Y40.206 E59.21764
G1 X66.871 Y39.845 E59.26301
G1 X67.23 Y39.654 E59.29141
G1 X67.441 Y39.552 E59.30778
G1 X67.591 Y39.483 E59.31931
G1 X67.701 Y39.434 E59.32772
G1 X68.309 Y39.207 E59.37305
G1 X68.941 Y39.056 E59.41844
G1 X69.691 Y38.979 E59.4711
G1 X70.024 Y38.969 E59.49437
G1 X70.18 Y38.967 E59.50526
G1 X114.058 Y38.95 E62.56998
G1 X114.06 Y38.95 E62.57012
G1 X139.375 Y38.951 E64.33828
G1 X139.452 Y38.952 E64.34366
G1 X140.134 Y38.962 E64.3913
G1 X140.782 Y39.011 E64.43669
G1 X141.419 Y39.14 E64.48208
G1 X141.77 Y39.247 E64.50771
G1 X142.117 Y39.366 E64.53333
G1 X142.717 Y39.614 E64.57868
G1 X143.283 Y39.934 E64.62409
G1 X143.804 Y40.321 E64.66943
G1 X144.222 Y40.713 E64.70945
G1 X144.457 Y40.959 E64.73321
G1 X144.876 Y41.455 E64.77856
G1 X145.231 Y41.999 E64.82393
G1 X145.516 Y42.583 E64.86932
G1 X145.71 Y43.134 E64.91012
G1 X145.82 Y43.513 E64.93769
G1 X145.962 Y44.147 E64.98307
G1 X146.028 Y44.865 E65.03343
G1 X146.039 Y45.347 E65.0671
G1 X146.04 Y45.467 E65.07549
G1 X146.041 Y120.531 E70.31843
G1 X146.04 Y164.276 E73.37385
G1 X146.04 Y164.346 E73.37874
G1 X146.031 Y165.02 E73.42582
G1 X145.938 Y165.935 E73.49006
G1 X145.871 Y166.288 E73.51516
G1 X145.711 Y166.917 E73.56049
G1 X145.475 Y167.522 E73.60585
G1 X145.166 Y168.094 E73.65126
G1 X144.671 Y168.765 E73.7095
G1 X144.374 Y169.107 E73.74113
G1 X143.918 Y169.57 E73.78652
G1 X143.41 Y169.974 E73.83186
G1 X142.855 Y170.313 E73.87728
G1 X142.143 Y170.625 E73.93158
G1 X141.831 Y170.735 E73.95468
G1 X141.206 Y170.912 E74.00006
G1 X140.564 Y171.012 E74.04544
G1 X140.162 Y171.034 E74.07356
G1 X139.317 Y171.048 E74.13259
G1 X139.23 Y171.049 E74.13866
G1 X70.626 Y171.05 E78.9304
G1 X70.548 Y171.049 E78.93585
G1 X69.875 Y171.039 E78.98286
G1 X69.227 Y170.99 E79.02825
G1 X68.59 Y170.861 E79.07364
G1 X68.247 Y170.757 E79.09868
G1 X67.881 Y170.632 E79.12569
G1 X67.28 Y170.384 E79.1711
G1 X66.714 Y170.065 E79.21648
G1 X66.192 Y169.679 E79.26183
G1 X65.731 Y169.242 E79.30619
G1 X65.5 Y168.995 E79.32981
G1 X65.086 Y168.494 E79.37521
G1 X64.737 Y167.946 E79.42059
G1 X64.458 Y167.359 E79.46598
G1 X64.28 Y166.84 E79.50431
G1 X64.179 Y166.487 E79.52995
G1 X64.039 Y165.853 E79.5753
G1 X63.977 Y165.177 E79.62271
G1 X63.961 Y164.581 E79.66436
G1 X63.959 Y164.439 E79.67428
G1 X63.96 Y120.533 E82.74095
G1 X63.959 Y45.66 E87.97055
G1 X63.96 Y45.58 E87.97614
G1 X63.97 Y44.918 E88.02238
G1 X64.019 Y44.271 E88.0677
G1 X64.156 Y43.606 E88.11512
G1 X64.256 Y43.24 E88.14162
G1 X64.465 Y42.625 E88.18699
G1 X64.748 Y42.041 E88.23232
G1 X65.224 Y41.336 E88.29173
M204 S3000
M205 X10 Y10
G1 F2400 E82.29173
;MESH:Rye-Lid-Only.stl
G0 F3000 X68.63 Y44.696
G0 X70.098 Y45.107
G0 X70.64 Y120.533
M204 S1800
M205 X8 Y8
;TYPE:WALL-INNER
G1 F2400 E88.29173
G1 F1800 X70.639 Y45.647 E93.52224
G1 X114.06 Y45.63 E96.55504
G1 X139.36 Y45.631 E98.32215
G1 X139.361 Y120.532 E103.55371
G1 X139.36 Y164.369 E106.61556
G1 X70.919 Y164.37 E111.39591
G1 X70.639 Y164.37 E111.41546
G1 X70.639 Y164.09 E111.42812
G1 X70.64 Y120.533 E114.47042
M204 S3000
M205 X10 Y10
G0 F3000 X70.08 Y120.533
M204 S1800
M205 X8 Y8
G1 F1800 X70.079 Y45.105 E119.73878
G1 X70.084 Y45.087 E119.74009
G1 X114.06 Y45.07 E122.81165
G1 X139.911 Y45.071 E124.61725
G1 X139.92 Y45.102 E124.6195
G1 X139.921 Y120.532 E129.888
G1 X139.92 Y164.924 E132.98862
G1 X139.918 Y164.929 E132.989
G1 X70.351 Y164.93 E137.84799
G1 X70.089 Y164.93 E137.86629
G1 X70.079 Y164.896 E137.86877
G1 X70.079 Y164.634 E137.88707
G1 X70.08 Y120.533 E140.96736
M204 S3000
M205 X10 Y10
G0 F3000 X69.52 Y120.533
M204 S1800
M205 X8 Y8
;TYPE:WALL-OUTER
G1 F1800 X69.519 Y45.027 E146.24117
G1 X69.6 Y44.741 E146.26193
G1 X69.699 Y44.625 E146.27259
G1 X69.907 Y44.527 E146.28865
G1 X114.06 Y44.51 E149.37257
G1 X140.032 Y44.511 E151.18662
G1 X140.254 Y44.592 E151.20312
G1 X140.403 Y44.751 E151.21834
G1 X140.48 Y45.024 E151.23815
G1 X140.481 Y120.532 E156.51211
G1 X140.48 Y164.983 E159.61684
G1 X140.436 Y165.191 E159.63169
G1 X140.222 Y165.428 E159.654
G1 X140.036 Y165.489 E159.66767
G1 X69.969 Y165.49 E164.56159
G1 X69.746 Y165.408 E164.57818
G1 X69.597 Y165.25 E164.59335
G1 X69.519 Y164.975 E164.61332
G1 X69.52 Y120.533 E167.71743
M204 S3000
M205 X10 Y10
G0 F3000 X69.52 Y120.333
G0 X70.18 Y120.333
G0 X71.19 Y120.533
M204 S1800
M205 X8 Y8
;TYPE:SKIN
G1 F1800 X71.189 Y46.197 E172.90952
G1 X114.06 Y46.18 E175.9039
G1 X138.81 Y46.181 E177.6326
G1 X138.811 Y120.532 E182.82574
G1 X138.81 Y163.819 E185.84917
G1 X71.189 Y163.82 E190.57225
G1 X71.19 Y120.533 E193.59569
M204 S3000
M205 X10 Y10
G0 F3000 X71.691 Y163.558
M204 S1800
M205 X8 Y8
G1 F1800 X71.448 Y163.316 E193.61964
M204 S3000
M205 X10 Y10
G0 F3000 X71.448 Y162.524
M204 S1800
M205 X8 Y8
G1 F1800 X72.483 Y163.558 E193.72182
M204 S3000
M205 X10 Y10
G0 F3000 X73.275 Y163.558
M204 S1800
M205 X8 Y8
G1 F1800 X71.448 Y161.732 E193.90224
M204 S3000
M205 X10 Y10
G0 F3000 X71.448 Y160.94
M204 S1800
M205 X8 Y8
G1 F1800 X74.067 Y163.558 E194.16089
M204 S3000
M205 X10 Y10
G0 F3000 X74.859 Y163.558
M204 S1800
M205 X8 Y8
G1 F1800 X71.448 Y160.148 E194.49777
M204 S3000
M205 X10 Y10
G0 F3000 X71.448 Y159.356
M204 S1800
M205 X8 Y8
G1 F1800 X75.651 Y163.558 E194.91288
M204 S3000
M205 X10 Y10
G0 F3000 X76.443 Y163.558
M204 S1800
M205 X8 Y8
G1 F1800 X71.448 Y158.564 E195.40623
M204 S3000
M205 X10 Y10
G0 F3000 X71.448 Y157.772
M204 S1800
M205 X8 Y8
G1 F1800 X77.235 Y163.558 E195.97781
M204 S3000
M205 X10 Y10
G0 F3000 X78.027 Y163.558
M204 S1800
M205 X8 Y8
G1 F1800 X71.448 Y156.98 E196.62761
M204 S3000
M205 X10 Y10
G0 F3000 X71.448 Y156.188
M204 S1800
M205 X8 Y8
G1 F1800 X78.819 Y163.558 E197.35565
M204 S3000
M205 X10 Y10
G0 F3000 X79.611 Y163.558
M204 S1800
M205 X8 Y8
G1 F1800 X71.448 Y155.396 E198.16193
M204 S3000
M205 X10 Y10
G0 F3000 X71.448 Y154.604
M204 S1800
M205 X8 Y8
G1 F1800 X80.402 Y163.558 E199.04638
M204 S3000
M205 X10 Y10
G0 F3000 X81.194 Y163.558
M204 S1800
M205 X8 Y8
G1 F1800 X71.448 Y153.812 E200.00907
M204 S3000
M205 X10 Y10
G0 F3000 X71.448 Y153.02
M204 S1800
M205 X8 Y8
G1 F1800 X81.986 Y163.558 E201.04998
M204 S3000
M205 X10 Y10
G0 F3000 X82.778 Y163.558
M204 S1800
M205 X8 Y8
G1 F1800 X71.448 Y152.228 E202.16913
M204 S3000
M205 X10 Y10
G0 F3000 X71.448 Y151.436
M204 S1800
M205 X8 Y8
G1 F1800 X83.57 Y163.558 E203.36652
M204 S3000
M205 X10 Y10
G0 F3000 X84.362 Y163.558
M204 S1800
M205 X8 Y8
G1 F1800 X71.448 Y150.644 E204.64213
M204 S3000
M205 X10 Y10
G0 F3000 X71.448 Y149.852
M204 S1800
M205 X8 Y8
G1 F1800 X85.154 Y163.558 E205.99597
M204 S3000
M205 X10 Y10
G0 F3000 X85.946 Y163.558
M204 S1800
M205 X8 Y8
G1 F1800 X71.448 Y149.06 E207.42805
M204 S3000
M205 X10 Y10
G0 F3000 X71.448 Y148.268
M204 S1800
M205 X8 Y8
G1 F1800 X86.738 Y163.558 E208.93836
M204 S3000
M205 X10 Y10
G0 F3000 X87.53 Y163.558
M204 S1800
M205 X8 Y8
G1 F1800 X71.448 Y147.477 E210.52685
M204 S3000
M205 X10 Y10
G0 F3000 X71.448 Y146.685
M204 S1800
M205 X8 Y8
G1 F1800 X88.322 Y163.558 E212.19357
M204 S3000
M205 X10 Y10
G0 F3000 X89.114 Y163.558
M204 S1800
M205 X8 Y8
G1 F1800 X71.448 Y145.893 E213.93853
M204 S3000
M205 X10 Y10
G0 F3000 X71.448 Y145.101
M204 S1800
M205 X8 Y8
G1 F1800 X89.906 Y163.558 E215.76172
M204 S3000
M205 X10 Y10
G0 F3000 X90.698 Y163.558
M204 S1800
M205 X8 Y8
G1 F1800 X71.448 Y144.309 E217.66313
M204 S3000
M205 X10 Y10
G0 F3000 X71.448 Y143.517
M204 S1800
M205 X8 Y8
G1 F1800 X91.49 Y163.558 E219.64279
M204 S3000
M205 X10 Y10
G0 F3000 X92.282 Y163.558
M204 S1800
M205 X8 Y8
G1 F1800 X71.448 Y142.725 E221.70067
M204 S3000
M205 X10 Y10
G0 F3000 X71.449 Y141.934
M204 S1800
M205 X8 Y8
G1 F1800 X93.074 Y163.558 E223.83668
M204 S3000
M205 X10 Y10
G0 F3000 X93.866 Y163.558
M204 S1800
M205 X8 Y8
G1 F1800 X71.449 Y141.142 E226.05093
M204 S3000
M205 X10 Y10
G0 F3000 X71.449 Y140.35
M204 S1800
M205 X8 Y8
G1 F1800 X94.658 Y163.558 E228.34341
M204 S3000
M205 X10 Y10
G0 F3000 X95.45 Y163.558
M204 S1800
M205 X8 Y8
G1 F1800 X71.449 Y139.558 E230.71412
M204 S3000
M205 X10 Y10
G0 F3000 X71.449 Y138.766
M204 S1800
M205 X8 Y8
G1 F1800 X96.242 Y163.558 E233.16306
M204 S3000
M205 X10 Y10
G0 F3000 X97.034 Y163.558
M204 S1800
M205 X8 Y8
G1 F1800 X71.449 Y137.974 E235.69024
M204 S3000
M205 X10 Y10
G0 F3000 X71.449 Y137.182
M204 S1800
M205 X8 Y8
G1 F1800 X97.826 Y163.558 E238.29564
M204 S3000
M205 X10 Y10
G0 F3000 X98.618 Y163.558
M204 S1800
M205 X8 Y8
G1 F1800 X71.449 Y136.39 E240.97928
M204 S3000
M205 X10 Y10
G0 F3000 X71.449 Y135.598
M204 S1800
M205 X8 Y8
G1 F1800 X99.41 Y163.558 E243.74115
M204 S3000
M205 X10 Y10
G0 F3000 X100.201 Y163.558
M204 S1800
M205 X8 Y8
G1 F1800 X71.449 Y134.806 E246.5812
M204 S3000
M205 X10 Y10
G0 F3000 X71.449 Y134.014
M204 S1800
M205 X8 Y8
G1 F1800 X100.993 Y163.558 E249.49949
M204 S3000
M205 X10 Y10
G0 F3000 X101.785 Y163.558
M204 S1800
M205 X8 Y8
G1 F1800 X71.449 Y133.222 E252.496
M204 S3000
M205 X10 Y10
G0 F3000 X71.449 Y132.43
M204 S1800
M205 X8 Y8
G1 F1800 X102.577 Y163.558 E255.57075
M204 S3000
M205 X10 Y10
G0 F3000 X103.369 Y163.558
M204 S1800
M205 X8 Y8
G1 F1800 X71.449 Y131.638 E258.72373
M204 S3000
M205 X10 Y10
G0 F3000 X71.449 Y130.846
M204 S1800
M205 X8 Y8
G1 F1800 X104.161 Y163.558 E261.95494
M204 S3000
M205 X10 Y10
G0 F3000 X104.953 Y163.558
M204 S1800
M205 X8 Y8
G1 F1800 X71.449 Y130.054 E265.26439
M204 S3000
M205 X10 Y10
G0 F3000 X71.449 Y129.262
M204 S1800
M205 X8 Y8
G1 F1800 X105.745 Y163.558 E268.65206
M204 S3000
M205 X10 Y10
G0 F3000 X106.537 Y163.558
M204 S1800
M205 X8 Y8
G1 F1800 X71.449 Y128.47 E272.11797
M204 S3000
M205 X10 Y10
G0 F3000 X71.449 Y127.678
M204 S1800
M205 X8 Y8
G1 F1800 X107.329 Y163.558 E275.66211
M204 S3000
M205 X10 Y10
G0 F3000 X108.121 Y163.558
M204 S1800
M205 X8 Y8
G1 F1800 X71.449 Y126.886 E279.28448
M204 S3000
