;FLAVOR:Marlin
;TIME:1226
;Filament used: 1.83306m
;Layer height: 0.3
;MINX:38.865
;MINY:83.664
;MINZ:0.3
;MAXX:171.146
;MAXY:126.183
;MAXZ:12.9
;Generated with Cura_SteamEngine master
M140 S60
M105
M190 S60
M104 S200
M105
M109 S200
M82 ;absolute extrusion mode
G21 ;metric values
G90 ;absolute positioning
M82 ;set extruder to absolute mode
M107 ;start with the fan off
G28 X0 Y0 ;move X/Y to min endstops
G28 Z0 ;move Z to min endstops
G1 Z15.0 F100 ;move the platform down 15mm
G92 E0 ;zero the extruded length
G1 F200 E3 ;extrude 3mm of feed stock
G92 E0 ;zero the extruded length again
G1 F100
G0 Y20 F100
M117 Printing...
G5
G92 E0
G92 E0
G1 F2400 E-6
;LAYER_COUNT:43
;LAYER:0
M106 S255
M204 S3000
M205 X10 Y10
G1 F600 Z0.375
G0 F3000 X42.625 Y84.323 Z0.375
M204 S1800
M205 X8 Y8
;TYPE:SKIRT
G1 F600 Z0.3
G1 F2400 E0
G1 X43.292 Y84.065 E0.04995
G1 X43.984 Y83.883 E0.09993
G1 X44.692 Y83.78 E0.1499
G1 X45.132 Y83.755 E0.18068
G1 X46.111 Y83.735 E0.24908
G1 X46.238 Y83.734 E0.25795
G1 X49.859 Y83.732 E0.51086
G1 X49.95 Y83.733 E0.51722
G1 X50.609 Y83.742 E0.56325
G1 X51.323 Y83.791 E0.61324
G1 X52.026 Y83.92 E0.66316
G1 X52.711 Y84.127 E0.71314
G1 X53.369 Y84.409 E0.76314
G1 X53.813 Y84.652 E0.79849
G1 X54.18 Y84.872 E0.82838
G1 X54.316 Y84.956 E0.83955
G1 X55.923 Y85.975 E0.97245
G1 X58.217 Y87.342 E1.15897
G1 X60.508 Y88.619 E1.34217
G1 X62.866 Y89.849 E1.52793
G1 X65.228 Y90.996 E1.71133
G1 X67.67 Y92.098 E1.89845
G1 X70.124 Y93.125 E2.08426
G1 X72.572 Y94.065 E2.26742
G1 X75.075 Y94.947 E2.45278
G1 X77.576 Y95.75 E2.63625
G1 X80.145 Y96.496 E2.8231
G1 X82.7 Y97.16 E3.00748
G1 X85.263 Y97.751 E3.19119
G1 X87.896 Y98.276 E3.37872
G1 X90.45 Y98.713 E3.5597
G1 X93.124 Y99.092 E3.74833
G1 X95.727 Y99.387 E3.93131
G1 X98.365 Y99.611 E4.11623
G1 X100.992 Y99.758 E4.3
G1 X103.676 Y99.833 E4.48754
G1 X106.319 Y99.833 E4.67214
G1 X108.925 Y99.758 E4.85424
G1 X111.597 Y99.606 E5.04117
G1 X114.238 Y99.38 E5.22631
G1 X116.853 Y99.082 E5.41014
G1 X119.511 Y98.703 E5.59767
G1 X122.063 Y98.264 E5.77853
G1 X124.691 Y97.736 E5.96576
G1 X127.245 Y97.148 E6.14881
G1 X129.848 Y96.47 E6.33669
G1 X132.351 Y95.741 E6.51878
G1 X134.89 Y94.924 E6.70507
G1 X137.402 Y94.036 E6.89116
G1 X139.857 Y93.089 E7.07495
G1 X142.302 Y92.066 E7.26007
G1 X144.701 Y90.982 E7.44395
G1 X147.088 Y89.821 E7.62934
G1 X149.451 Y88.587 E7.81554
G1 X151.736 Y87.31 E7.99837
G1 X154.044 Y85.933 E8.18609
G1 X155.368 Y85.102 E8.29527
G1 X156.015 Y84.688 E8.34892
G1 X156.638 Y84.337 E8.39887
G1 X157.297 Y84.057 E8.44888
G1 X157.982 Y83.852 E8.49882
G1 X158.686 Y83.726 E8.54877
G1 X159.272 Y83.681 E8.58982
G1 X159.601 Y83.671 E8.61281
G1 X159.789 Y83.668 E8.62594
G1 X164.092 Y83.664 E8.92649
G1 X164.177 Y83.664 E8.93243
G1 X164.825 Y83.672 E8.97769
G1 X165.539 Y83.721 E9.02768
G1 X166.242 Y83.849 E9.07759
G1 X166.927 Y84.055 E9.12755
G1 X167.585 Y84.336 E9.17753
G1 X168.207 Y84.689 E9.22748
G1 X168.786 Y85.109 E9.27744
G1 X169.315 Y85.591 E9.32743
G1 X169.787 Y86.128 E9.37736
G1 X170.195 Y86.715 E9.42729
G1 X170.536 Y87.344 E9.47727
G1 X170.804 Y88.007 E9.52722
G1 X170.996 Y88.696 E9.57717
G1 X171.111 Y89.402 E9.62713
G1 X171.146 Y90.117 E9.67713
G1 X171.101 Y90.831 E9.7271
G1 X170.977 Y91.535 E9.77703
G1 X170.774 Y92.221 E9.827
G1 X170.497 Y92.88 E9.87693
G1 X170.148 Y93.505 E9.92693
G1 X169.865 Y93.914 E9.96167
G1 X169.54 Y94.347 E9.99948
G1 X169.479 Y94.426 E10.00645
G1 X169.072 Y94.951 E10.05285
G1 X169.024 Y95.013 E10.05833
G1 X168.33 Y95.886 E10.13622
G1 X168.289 Y95.937 E10.14079
G1 X167.918 Y96.394 E10.18191
G1 X167.872 Y96.449 E10.18692
G1 X167.244 Y97.205 E10.25556
G1 X167.197 Y97.261 E10.26067
G1 X166.766 Y97.768 E10.30715
G1 X166.721 Y97.821 E10.312
G1 X166.098 Y98.538 E10.37835
G1 X166.051 Y98.591 E10.38329
G1 X165.612 Y99.085 E10.42945
G1 X165.566 Y99.136 E10.43425
G1 X164.914 Y99.854 E10.50199
G1 X164.868 Y99.905 E10.50679
G1 X164.444 Y100.362 E10.55033
G1 X164.399 Y100.41 E10.55493
G1 X163.702 Y101.146 E10.62573
G1 X163.65 Y101.2 E10.63096
G1 X163.268 Y101.594 E10.66929
G1 X163.221 Y101.642 E10.67399
G1 X162.432 Y102.439 E10.75232
G1 X162.385 Y102.486 E10.75696
G1 X162.012 Y102.855 E10.79361
G1 X161.962 Y102.904 E10.7985
G1 X161.215 Y103.627 E10.87111
G1 X161.165 Y103.675 E10.87595
G1 X160.769 Y104.05 E10.91404
G1 X160.705 Y104.11 E10.92017
G1 X159.508 Y105.213 E11.03386
G1 X159.419 Y105.293 E11.04222
G1 X158.548 Y106.066 E11.12356
G1 X158.497 Y106.111 E11.12831
G1 X158.094 Y106.461 E11.16559
G1 X158.017 Y106.526 E11.17263
G1 X156.845 Y107.512 E11.2796
G1 X156.759 Y107.583 E11.28739
G1 X155.844 Y108.326 E11.36972
G1 X155.79 Y108.37 E11.37458
G1 X155.372 Y108.702 E11.41187
G1 X155.319 Y108.744 E11.41659
G1 X154.507 Y109.375 E11.48842
G1 X154.455 Y109.415 E11.493
G1 X154.008 Y109.755 E11.53223
G1 X153.934 Y109.81 E11.53867
G1 X152.666 Y110.746 E11.64875
G1 X152.57 Y110.815 E11.65701
G1 X151.687 Y111.442 E11.73265
G1 X151.636 Y111.478 E11.73701
G1 X151.209 Y111.775 E11.77334
G1 X151.133 Y111.828 E11.77981
G1 X149.755 Y112.757 E11.89589
G1 X149.656 Y112.822 E11.90416
G1 X148.751 Y113.408 E11.97946
G1 X148.684 Y113.451 E11.98502
G1 X148.238 Y113.732 E12.02184
G1 X148.168 Y113.775 E12.02758
G1 X146.716 Y114.664 E12.1465
G1 X146.613 Y114.726 E12.15489
G1 X145.754 Y115.23 E12.22446
G1 X145.695 Y115.264 E12.22921
G1 X145.157 Y115.572 E12.27251
G1 X145.092 Y115.609 E12.27774
G1 X144.146 Y116.136 E12.35337
G1 X144.084 Y116.17 E12.35831
G1 X143.675 Y116.392 E12.39081
G1 X143.625 Y116.419 E12.39478
G1 X142.571 Y116.979 E12.47815
G1 X142.502 Y117.015 E12.48358
G1 X142.089 Y117.228 E12.51604
G1 X142.034 Y117.256 E12.52035
G1 X141.091 Y117.731 E12.5941
G1 X141.016 Y117.768 E12.59994
G1 X140.419 Y118.059 E12.64633
G1 X140.367 Y118.084 E12.65036
G1 X139.521 Y118.487 E12.71581
G1 X139.457 Y118.517 E12.72075
G1 X138.891 Y118.779 E12.76431
G1 X138.806 Y118.818 E12.77084
G1 X137.344 Y119.469 E12.88262
G1 X137.242 Y119.513 E12.89038
G1 X136.262 Y119.929 E12.96474
G1 X136.188 Y119.96 E12.97035
G1 X135.639 Y120.185 E13.01179
G1 X135.586 Y120.207 E13.0158
G1 X134.652 Y120.58 E13.08604
G1 X134.589 Y120.604 E13.09075
G1 X134.026 Y120.822 E13.13292
G1 X133.93 Y120.858 E13.14008
G1 X132.45 Y121.404 E13.25026
G1 X132.323 Y121.45 E13.2597
G1 X130.747 Y121.994 E13.37615
G1 X130.639 Y122.03 E13.3841
G1 X129.689 Y122.339 E13.45388
G1 X129.619 Y122.361 E13.459
G1 X129.024 Y122.547 E13.50254
G1 X128.967 Y122.565 E13.50672
G1 X127.952 Y122.872 E13.58078
G1 X127.878 Y122.894 E13.58618
G1 X127.401 Y123.032 E13.62086
G1 X127.337 Y123.05 E13.6255
G1 X126.201 Y123.366 E13.70786
G1 X126.117 Y123.389 E13.71394
G1 X125.616 Y123.521 E13.75013
G1 X125.571 Y123.532 E13.75337
G1 X124.586 Y123.784 E13.82438
G1 X124.511 Y123.803 E13.82979
G1 X123.939 Y123.942 E13.8709
G1 X123.872 Y123.958 E13.87571
G1 X122.836 Y124.198 E13.94999
G1 X122.775 Y124.212 E13.95436
G1 X122.201 Y124.339 E13.99542
G1 X122.128 Y124.355 E14.00064
G1 X121.114 Y124.567 E14.073
G1 X121.032 Y124.583 E14.07883
G1 X120.495 Y124.688 E14.11705
G1 X120.421 Y124.702 E14.12231
G1 X118.823 Y124.995 E14.23578
G1 X118.705 Y125.016 E14.24416
G1 X117.638 Y125.191 E14.31968
G1 X117.572 Y125.201 E14.32434
G1 X117.044 Y125.282 E14.36165
G1 X116.973 Y125.292 E14.36666
G1 X115.895 Y125.445 E14.44271
G1 X115.829 Y125.455 E14.44737
G1 X115.326 Y125.521 E14.4828
G1 X115.261 Y125.529 E14.48738
G1 X114.111 Y125.668 E14.56829
G1 X114.041 Y125.676 E14.57321
G1 X113.549 Y125.73 E14.60778
G1 X113.475 Y125.737 E14.61297
G1 X112.404 Y125.842 E14.68813
G1 X112.334 Y125.849 E14.69305
G1 X111.793 Y125.896 E14.73098
G1 X111.728 Y125.901 E14.73553
G1 X110.619 Y125.986 E14.81322
G1 X110.549 Y125.991 E14.81812
G1 X110.092 Y126.021 E14.85011
G1 X110.024 Y126.025 E14.85486
G1 X108.84 Y126.09 E14.93769
G1 X108.762 Y126.094 E14.94314
G1 X108.2 Y126.118 E14.98243
G1 X108.136 Y126.121 E14.98691
G1 X107.22 Y126.151 E15.05092
G1 X107.16 Y126.152 E15.05511
G1 X106.474 Y126.168 E15.10304
G1 X106.38 Y126.17 E15.10961
G1 X104.879 Y126.183 E15.21445
G1 X104.746 Y126.183 E15.22374
G1 X103.108 Y126.163 E15.33816
G1 X102.983 Y126.16 E15.34689
G1 X101.881 Y126.125 E15.4239
G1 X101.815 Y126.122 E15.42851
G1 X101.221 Y126.097 E15.47004
G1 X101.15 Y126.094 E15.475
G1 X100.136 Y126.04 E15.54593
G1 X100.061 Y126.036 E15.55117
G1 X99.461 Y125.997 E15.59317
G1 X99.399 Y125.992 E15.59751
G1 X98.355 Y125.914 E15.67064
G1 X98.282 Y125.908 E15.67575
G1 X97.795 Y125.866 E15.70989
G1 X97.731 Y125.861 E15.71438
G1 X96.558 Y125.748 E15.79669
G1 X96.491 Y125.741 E15.80139
G1 X95.968 Y125.685 E15.83813
G1 X95.888 Y125.676 E15.84375
G1 X94.852 Y125.552 E15.91663
G1 X94.793 Y125.544 E15.92079
G1 X94.251 Y125.474 E15.95896
G1 X94.182 Y125.465 E15.96382
G1 X93.098 Y125.313 E16.04027
G1 X93.024 Y125.302 E16.0455
G1 X92.485 Y125.22 E16.08358
G1 X92.418 Y125.21 E16.08831
G1 X91.369 Y125.039 E16.16255
G1 X91.303 Y125.027 E16.16723
G1 X90.676 Y124.918 E16.21168
G1 X90.603 Y124.905 E16.21686
G1 X89.677 Y124.733 E16.28265
G1 X89.617 Y124.722 E16.28691
G1 X89.07 Y124.615 E16.32584
G1 X88.978 Y124.596 E16.3324
G1 X87.361 Y124.255 E16.44782
G1 X87.222 Y124.224 E16.45777
G1 X85.656 Y123.857 E16.57011
G1 X85.525 Y123.825 E16.57953
G1 X83.955 Y123.422 E16.69275
G1 X83.844 Y123.393 E16.70076
G1 X82.753 Y123.092 E16.77981
G1 X82.678 Y123.07 E16.78527
G1 X82.166 Y122.922 E16.82249
G1 X82.111 Y122.906 E16.82649
G1 X81.117 Y122.609 E16.89895
G1 X81.046 Y122.588 E16.90412
G1 X80.513 Y122.422 E16.94312
G1 X80.445 Y122.4 E16.94811
G1 X79.382 Y122.056 E17.02615
G1 X79.314 Y122.033 E17.03116
G1 X78.841 Y121.874 E17.06601
G1 X78.778 Y121.853 E17.07065
G1 X77.711 Y121.482 E17.14955
G1 X77.637 Y121.456 E17.15503
G1 X77.189 Y121.294 E17.18831
G1 X77.138 Y121.275 E17.19211
G1 X76.09 Y120.886 E17.27019
G1 X76.027 Y120.862 E17.2749
G1 X75.526 Y120.67 E17.31237
G1 X75.458 Y120.644 E17.31746
G1 X74.426 Y120.235 E17.39499
G1 X74.357 Y120.207 E17.40019
G1 X73.864 Y120.005 E17.43741
G1 X73.805 Y119.98 E17.44188
G1 X72.823 Y119.566 E17.51632
G1 X72.753 Y119.537 E17.52161
G1 X72.264 Y119.324 E17.55886
G1 X72.2 Y119.295 E17.56377
G1 X71.226 Y118.858 E17.63833
G1 X71.158 Y118.827 E17.64355
G1 X70.648 Y118.591 E17.6828
G1 X70.594 Y118.566 E17.68696
G1 X69.588 Y118.089 E17.76472
G1 X69.521 Y118.057 E17.76991
G1 X69.089 Y117.846 E17.80349
G1 X69.034 Y117.818 E17.8078
G1 X68.003 Y117.302 E17.88833
G1 X67.938 Y117.269 E17.89342
G1 X67.499 Y117.043 E17.92791
G1 X67.439 Y117.012 E17.93262
G1 X66.481 Y116.506 E18.0083
G1 X66.421 Y116.474 E18.01305
G1 X65.98 Y116.235 E18.04808
G1 X65.922 Y116.203 E18.05271
G1 X64.926 Y115.65 E18.13228
G1 X64.862 Y115.614 E18.13741
G1 X64.35 Y115.322 E18.17858
G1 X64.291 Y115.288 E18.18333
G1 X63.47 Y114.808 E18.24976
G1 X63.395 Y114.763 E18.25587
G1 X62.813 Y114.412 E18.30334
G1 X62.767 Y114.385 E18.30706
G1 X61.924 Y113.867 E18.37617
G1 X61.864 Y113.829 E18.38113
G1 X61.429 Y113.555 E18.41704
G1 X61.377 Y113.522 E18.42134
G1 X60.384 Y112.883 E18.50382
G1 X60.315 Y112.838 E18.50957
G1 X59.901 Y112.564 E18.54425
G1 X59.853 Y112.532 E18.54828
G1 X58.964 Y111.932 E18.62319
G1 X58.893 Y111.883 E18.62922
G1 X58.5 Y111.61 E18.66264
G1 X58.459 Y111.582 E18.66611
G1 X57.499 Y110.904 E18.74819
G1 X57.435 Y110.858 E18.7537
G1 X57.046 Y110.576 E18.78726
G1 X56.994 Y110.538 E18.79176
G1 X56.105 Y109.88 E18.86901
G1 X56.051 Y109.839 E18.87374
G1 X55.644 Y109.531 E18.90939
G1 X55.589 Y109.49 E18.91419
G1 X54.696 Y108.799 E18.99305
G1 X54.639 Y108.754 E18.99812
G1 X54.182 Y108.392 E19.03884
G1 X54.111 Y108.335 E19.0452
G1 X52.902 Y107.349 E19.15417
G1 X52.813 Y107.275 E19.16225
G1 X51.988 Y106.577 E19.23773
G1 X51.93 Y106.527 E19.24308
G1 X51.472 Y106.13 E19.28542
G1 X51.421 Y106.085 E19.29017
G1 X50.651 Y105.403 E19.36201
G1 X50.598 Y105.356 E19.36696
G1 X50.142 Y104.943 E19.40993
G1 X50.098 Y104.902 E19.41413
G1 X49.424 Y104.28 E19.47819
G1 X49.371 Y104.231 E19.48323
G1 X48.925 Y103.81 E19.52607
G1 X48.879 Y103.766 E19.53052
G1 X48.068 Y102.985 E19.60916
G1 X48.011 Y102.93 E19.61469
G1 X47.621 Y102.545 E19.65297
G1 X47.576 Y102.5 E19.65741
G1 X46.853 Y101.772 E19.72908
G1 X46.803 Y101.721 E19.73406
G1 X46.398 Y101.304 E19.77467
G1 X46.353 Y101.257 E19.77921
G1 X45.643 Y100.511 E19.85114
G1 X45.6 Y100.465 E19.85554
G1 X45.209 Y100.046 E19.89557
G1 X45.159 Y99.992 E19.90071
G1 X44.414 Y99.175 E19.97794
G1 X44.36 Y99.116 E19.98352
G1 X43.991 Y98.701 E20.02231
G1 X43.949 Y98.653 E20.02677
G1 X43.285 Y97.891 E20.09736
G1 X43.232 Y97.829 E20.10306
G1 X42.86 Y97.391 E20.1432
G1 X42.822 Y97.346 E20.14731
G1 X42.095 Y96.474 E20.22661
G1 X42.045 Y96.413 E20.23211
G1 X41.715 Y96.007 E20.26866
G1 X41.68 Y95.964 E20.27253
G1 X41.057 Y95.184 E20.34226
G1 X41.012 Y95.127 E20.34733
G1 X40.54 Y94.522 E20.40092
G1 X40.465 Y94.423 E20.4096
G1 X40.142 Y93.992 E20.44722
G1 X39.745 Y93.397 E20.49718
G1 X39.418 Y92.761 E20.54713
G1 X39.164 Y92.092 E20.59711
G1 X38.985 Y91.399 E20.6471
G1 X38.886 Y90.691 E20.69703
G1 X38.865 Y89.976 E20.747
G1 X38.925 Y89.263 E20.79697
G1 X39.064 Y88.562 E20.84689
G1 X39.281 Y87.88 E20.89688
G1 X39.572 Y87.227 E20.94681
G1 X39.934 Y86.61 E20.99677
G1 X40.363 Y86.037 E21.04677
G1 X40.853 Y85.516 E21.09673
G1 X41.398 Y85.053 E21.14667
G1 X41.991 Y84.654 E21.1966
G1 X42.625 Y84.323 E21.24655
M204 S3000
M205 X10 Y10
G0 F3000 X42.681 Y84.916
M204 S1800
M205 X8 Y8
G1 F2400 X43.31 Y84.65 E21.29425
G1 X43.966 Y84.46 E21.34195
G1 X44.64 Y84.347 E21.38969
G1 X45.144 Y84.315 E21.42496
G1 X46.123 Y84.295 E21.49335
G1 X46.239 Y84.294 E21.50146
G1 X49.86 Y84.292 E21.75437
G1 X49.943 Y84.293 E21.76017
G1 X50.602 Y84.302 E21.8062
G1 X51.283 Y84.351 E21.85389
G1 X51.954 Y84.479 E21.9016
G1 X52.606 Y84.685 E21.94936
G1 X53.525 Y85.132 E22.02074
G1 X53.892 Y85.352 E22.05062
G1 X54.016 Y85.429 E22.06082
G1 X55.621 Y86.447 E22.19357
G1 X57.934 Y87.824 E22.38159
G1 X60.242 Y89.111 E22.56616
G1 X62.613 Y90.348 E22.75295
G1 X65.003 Y91.508 E22.93851
G1 X67.43 Y92.605 E23.12454
G1 X69.935 Y93.652 E23.31417
G1 X72.374 Y94.588 E23.49664
G1 X74.895 Y95.477 E23.68335
G1 X77.426 Y96.29 E23.86902
G1 X79.992 Y97.035 E24.05565
G1 X82.535 Y97.696 E24.23917
G1 X85.196 Y98.309 E24.4299
G1 X87.767 Y98.822 E24.61302
G1 X90.386 Y99.27 E24.7986
G1 X93.017 Y99.643 E24.9842
G1 X95.686 Y99.946 E25.17182
G1 X98.322 Y100.169 E25.35659
G1 X100.982 Y100.318 E25.54268
G1 X103.66 Y100.393 E25.7298
G1 X106.3 Y100.393 E25.91419
G1 X108.971 Y100.316 E26.10083
G1 X111.644 Y100.164 E26.28783
G1 X114.311 Y99.936 E26.47479
G1 X116.926 Y99.638 E26.65862
G1 X119.541 Y99.265 E26.84312
G1 X122.199 Y98.808 E27.03149
G1 X124.825 Y98.281 E27.21856
G1 X127.368 Y97.695 E27.40084
G1 X129.967 Y97.017 E27.58844
G1 X132.546 Y96.267 E27.77604
G1 X135.06 Y95.457 E27.96052
G1 X137.581 Y94.567 E28.14726
G1 X140.067 Y93.608 E28.33337
G1 X142.531 Y92.576 E28.51995
G1 X144.939 Y91.488 E28.70451
G1 X147.369 Y90.306 E28.89325
G1 X149.705 Y89.087 E29.07729
G1 X152.018 Y87.793 E29.26241
G1 X154.331 Y86.414 E29.4505
G1 X155.695 Y85.558 E29.56298
G1 X156.317 Y85.16 E29.61455
G1 X156.913 Y84.825 E29.66231
G1 X157.544 Y84.563 E29.71003
G1 X158.201 Y84.377 E29.75772
G1 X158.876 Y84.268 E29.80548
G1 X159.289 Y84.241 E29.83439
G1 X159.618 Y84.231 E29.85738
G1 X159.79 Y84.228 E29.86939
G1 X164.093 Y84.224 E30.16994
G1 X164.17 Y84.224 E30.17532
G1 X164.818 Y84.232 E30.22058
G1 X165.5 Y84.281 E30.26834
G1 X166.171 Y84.408 E30.31604
G1 X166.823 Y84.614 E30.3638
G1 X167.446 Y84.894 E30.4115
G1 X168.032 Y85.244 E30.45918
G1 X168.573 Y85.661 E30.50689
G1 X169.062 Y86.138 E30.5546
G1 X169.492 Y86.669 E30.60233
G1 X169.857 Y87.247 E30.65007
G1 X170.152 Y87.863 E30.69778
G1 X170.373 Y88.51 E30.74553
G1 X170.517 Y89.178 E30.79326
G1 X170.582 Y89.858 E30.84097
G1 X170.567 Y90.541 E30.88869
G1 X170.473 Y91.217 E30.93636
G1 X170.3 Y91.878 E30.98408
G1 X170.051 Y92.515 E31.03185
G1 X169.729 Y93.117 E31.07954
G1 X169.417 Y93.578 E31.11842
G1 X169.092 Y94.011 E31.15623
G1 X169.036 Y94.083 E31.1626
G1 X168.629 Y94.608 E31.209
G1 X168.585 Y94.664 E31.21398
G1 X167.891 Y95.537 E31.29187
G1 X167.854 Y95.584 E31.29605
G1 X167.483 Y96.041 E31.33716
G1 X167.441 Y96.092 E31.34178
G1 X166.813 Y96.848 E31.41042
