;FLAVOR:Marlin
;TIME:2777
;Filament used: 4.90871m
;Layer height: 0.3
;MINX:45.049
;MINY:51.99
;MINZ:0.3
;MAXX:141.082
;MAXY:157.686
;MAXZ:11.7
;Generated with Cura_SteamEngine master
M140 S60
M105
M190 S60
M104 S200
M105
M109 S200
M82 ;absolute extrusion mode
G21 ;metric values
G90 ;absolute positioning
M82 ;set extruder to absolute mode
M107 ;start with the fan off
G28 X0 Y0 ;move X/Y to min endstops
G28 Z0 ;move Z to min endstops
G1 Z15.0 F100 ;move the platform down 15mm
G92 E0 ;zero the extruded length
G1 F200 E3 ;extrude 3mm of feed stock
G92 E0 ;zero the extruded length again
G1 F100
M117 Printing...
G5
M141 S28
G92 E0
G92 E0
G1 F2400 E-6
;LAYER_COUNT:39
;LAYER:0
M106 S255
M204 S3000
M205 X10 Y10
G0 F3000 X48.276 Y77.665 Z0.3
M204 S1800
M205 X8 Y8
;TYPE:SKIRT
G1 F2400 E0
G1 X48.899 Y77.313 E0.04998
G1 X49.639 Y77.004 E0.10599
G1 X50.039 Y76.865 E0.13557
G1 X52.637 Y75.925 E0.32854
G1 X55.082 Y74.962 E0.51208
G1 X57.682 Y73.848 E0.70965
G1 X60.204 Y72.68 E0.90378
G1 X62.564 Y71.505 E1.08792
G1 X64.896 Y70.259 E1.27259
G1 X67.195 Y68.947 E1.45747
G1 X69.479 Y67.554 E1.64433
G1 X71.679 Y66.128 E1.82745
G1 X74.221 Y64.366 E2.04348
G1 X75.132 Y63.713 E2.12177
G1 X76.005 Y63.187 E2.19296
G1 X76.586 Y62.897 E2.23831
G1 X76.711 Y62.836 E2.24803
G1 X97.119 Y53.198 E3.82442
G1 X97.21 Y53.156 E3.83142
G1 X97.863 Y52.86 E3.88149
G1 X98.185 Y52.724 E3.90591
G1 X98.383 Y52.647 E3.92075
G1 X98.675 Y52.542 E3.94242
G1 X99.109 Y52.397 E3.97438
G1 X100.146 Y52.144 E4.04894
G1 X100.535 Y52.083 E4.07644
G1 X101.083 Y52.021 E4.11496
G1 X101.4 Y51.999 E4.13715
G1 X102.11 Y51.99 E4.18675
G1 X102.445 Y52.004 E4.21017
G1 X103.157 Y52.073 E4.26013
G1 X103.549 Y52.147 E4.28799
G1 X104.137 Y52.276 E4.33004
G1 X104.806 Y52.461 E4.37852
G1 X105.026 Y52.535 E4.39473
G1 X105.53 Y52.728 E4.43243
G1 X105.814 Y52.851 E4.45404
G1 X105.992 Y52.932 E4.4677
G1 X106.192 Y53.026 E4.48314
G1 X106.316 Y53.086 E4.49276
G1 X106.608 Y53.231 E4.51553
G1 X106.671 Y53.262 E4.52044
G1 X119.554 Y59.836 E5.53065
G1 X119.635 Y59.879 E5.53705
G1 X120.214 Y60.185 E5.5828
G1 X120.641 Y60.431 E5.61722
G1 X120.858 Y60.568 E5.63514
G1 X121.049 Y60.694 E5.65112
G1 X121.26 Y60.838 E5.66896
G1 X121.961 Y61.392 E5.73137
G1 X122.185 Y61.596 E5.75253
G1 X122.686 Y62.107 E5.80252
G1 X123 Y62.493 E5.83727
G1 X123.348 Y62.958 E5.87784
G1 X123.744 Y63.554 E5.92782
G1 X124.014 Y64.066 E5.96825
G1 X124.257 Y64.582 E6.00808
G1 X124.528 Y65.254 E6.05869
G1 X124.728 Y65.844 E6.10221
G1 X124.755 Y65.926 E6.10824
G1 X140.437 Y114.315 E9.66109
G1 X140.461 Y114.391 E9.66665
G1 X140.668 Y115.058 E9.71543
G1 X140.82 Y115.641 E9.75751
G1 X140.927 Y116.151 E9.79391
G1 X141.047 Y117.015 E9.85484
G1 X141.063 Y117.242 E9.87073
G1 X141.079 Y117.64 E9.89855
G1 X141.082 Y118.01 E9.9244
G1 X141.031 Y118.867 E9.98436
G1 X141.005 Y119.072 E9.99879
G1 X140.954 Y119.407 E10.02246
G1 X140.887 Y119.777 E10.04873
G1 X140.72 Y120.473 E10.09872
G1 X140.599 Y120.837 E10.12551
G1 X140.39 Y121.408 E10.16798
G1 X140.307 Y121.623 E10.18408
G1 X140.219 Y121.839 E10.20037
G1 X140.082 Y122.15 E10.2241
G1 X139.945 Y122.441 E10.24657
G1 X139.856 Y122.624 E10.26078
G1 X136.62 Y128.966 E10.75808
G1 X136.579 Y129.045 E10.7643
G1 X135.76 Y130.595 E10.88674
G1 X134.535 Y132.998 E11.07513
G1 X133.678 Y134.804 E11.21476
G1 X133.637 Y134.888 E11.22129
G1 X133.138 Y135.901 E11.30016
G1 X133.096 Y135.985 E11.30672
G1 X130.32 Y141.419 E11.73292
G1 X130.282 Y141.492 E11.73867
G1 X129.982 Y142.061 E11.7836
G1 X129.789 Y142.401 E11.8109
G1 X129.505 Y142.868 E11.84908
G1 X129.056 Y143.514 E11.90403
G1 X128.753 Y143.897 E11.93814
G1 X128.419 Y144.287 E11.974
G1 X128.271 Y144.446 E11.98918
G1 X127.78 Y144.919 E12.0368
G1 X127.561 Y145.109 E12.05705
G1 X127.377 Y145.263 E12.07381
G1 X114.677 Y155.471 E13.21188
G1 X114.596 Y155.535 E13.21909
G1 X114.07 Y155.944 E13.26563
G1 X113.624 Y156.261 E13.30385
G1 X113.328 Y156.453 E13.32849
G1 X112.646 Y156.838 E13.38319
G1 X112.457 Y156.93 E13.39787
G1 X111.798 Y157.207 E13.4478
G1 X111.359 Y157.345 E13.47994
G1 X110.957 Y157.456 E13.50907
G1 X110.258 Y157.608 E13.55904
G1 X109.547 Y157.68 E13.60895
G1 X109.12 Y157.686 E13.63878
G1 X108.691 Y157.677 E13.66875
G1 X107.837 Y157.601 E13.72863
G1 X106.915 Y157.457 E13.79381
G1 X106.732 Y157.426 E13.80678
G1 X93.901 Y155.039 E14.71835
G1 X93.815 Y155.022 E14.72447
G1 X93.121 Y154.883 E14.77391
G1 X92.369 Y154.684 E14.82824
G1 X91.746 Y154.478 E14.87407
G1 X91.08 Y154.216 E14.92406
G1 X90.552 Y153.943 E14.96558
G1 X89.858 Y153.542 E15.02156
G1 X87.456 Y152.178 E15.21449
G1 X85.15 Y150.954 E15.39684
G1 X82.779 Y149.78 E15.58164
G1 X80.36 Y148.665 E15.76768
G1 X77.926 Y147.627 E15.9525
G1 X75.458 Y146.655 E16.13777
G1 X72.982 Y145.761 E16.32163
G1 X70.461 Y144.929 E16.50706
G1 X67.915 Y144.169 E16.69264
G1 X65.354 Y143.483 E16.87782
G1 X62.785 Y142.87 E17.0623
G1 X60.195 Y142.333 E17.24705
G1 X57.588 Y141.867 E17.43202
G1 X55.001 Y141.479 E17.61473
G1 X51.578 Y141.078 E17.85545
G1 X51.156 Y141.036 E17.88507
G1 X50.45 Y140.926 E17.93498
G1 X49.76 Y140.737 E17.98495
G1 X49.14 Y140.493 E18.03149
G1 X49.019 Y140.438 E18.04077
G1 X48.385 Y140.106 E18.09076
G1 X47.792 Y139.706 E18.14072
G1 X47.248 Y139.242 E18.19066
G1 X46.759 Y138.72 E18.24062
G1 X46.332 Y138.146 E18.29059
G1 X45.991 Y137.568 E18.33746
G1 X45.841 Y137.28 E18.36014
G1 X45.546 Y136.629 E18.41006
G1 X45.326 Y135.948 E18.46005
G1 X45.179 Y135.21 E18.51261
G1 X45.14 Y134.931 E18.53228
G1 X45.08 Y134.216 E18.5824
G1 X45.052 Y133.171 E18.65541
G1 X45.05 Y133 E18.66736
G1 X45.049 Y84.696 E22.04121
G1 X45.05 Y84.605 E22.04757
G1 X45.06 Y83.902 E22.09668
G1 X45.091 Y83.358 E22.13473
G1 X45.146 Y82.806 E22.17348
G1 X45.256 Y82.1 E22.22339
G1 X45.563 Y81.086 E22.29739
G1 X45.673 Y80.808 E22.31827
G1 X45.973 Y80.159 E22.36821
G1 X46.343 Y79.547 E22.41816
G1 X46.78 Y78.98 E22.46816
G1 X47.058 Y78.678 E22.49683
G1 X47.168 Y78.566 E22.50779
G1 X47.697 Y78.085 E22.55773
G1 X48.276 Y77.665 E22.60769
M204 S3000
M205 X10 Y10
G0 F3000 X48.63 Y78.104
M204 S1800
M205 X8 Y8
G1 F2400 X49.229 Y77.775 E22.65542
G1 X49.822 Y77.533 E22.70016
G1 X50.254 Y77.383 E22.7321
G1 X52.826 Y76.453 E22.92313
G1 X55.259 Y75.494 E23.10579
G1 X57.929 Y74.351 E23.30865
G1 X60.438 Y73.189 E23.50177
G1 X62.841 Y71.993 E23.68925
G1 X65.16 Y70.753 E23.87293
G1 X67.471 Y69.434 E24.05878
G1 X69.781 Y68.026 E24.24774
G1 X71.977 Y66.602 E24.43055
G1 X74.609 Y64.778 E24.65421
G1 X75.459 Y64.168 E24.72729
G1 X76.255 Y63.688 E24.79221
G1 X76.836 Y63.398 E24.83757
G1 X76.95 Y63.342 E24.84644
G1 X97.358 Y53.704 E26.42283
G1 X97.441 Y53.666 E26.4292
G1 X98.094 Y53.37 E26.47928
G1 X98.388 Y53.246 E26.50156
G1 X98.586 Y53.169 E26.5164
G1 X98.852 Y53.073 E26.53616
G1 X99.286 Y52.928 E26.56812
G1 X100.232 Y52.698 E26.63612
G1 X100.621 Y52.637 E26.66362
G1 X101.122 Y52.58 E26.69884
G1 X101.439 Y52.558 E26.72103
G1 X102.087 Y52.549 E26.7663
G1 X102.422 Y52.563 E26.78971
G1 X103.429 Y52.694 E26.86064
G1 X104.017 Y52.823 E26.90269
G1 X104.628 Y52.992 E26.94697
G1 X104.848 Y53.066 E26.96318
G1 X105.307 Y53.242 E26.99751
G1 X105.591 Y53.365 E27.01913
G1 X105.754 Y53.439 E27.03163
G1 X105.954 Y53.533 E27.04707
G1 X106.067 Y53.587 E27.05582
G1 X106.359 Y53.732 E27.07859
G1 X106.416 Y53.761 E27.08306
G1 X119.299 Y60.335 E28.09327
G1 X119.374 Y60.374 E28.09917
G1 X119.953 Y60.68 E28.14491
G1 X120.342 Y60.905 E28.1763
G1 X120.559 Y61.042 E28.19423
G1 X120.733 Y61.156 E28.20876
G1 X120.944 Y61.3 E28.2266
G1 X121.584 Y61.806 E28.28358
G1 X121.808 Y62.01 E28.30475
G1 X122.286 Y62.499 E28.35251
G1 X122.552 Y62.829 E28.38211
G1 X122.9 Y63.294 E28.42268
G1 X123.276 Y63.864 E28.47037
G1 X123.507 Y64.305 E28.50515
G1 X123.75 Y64.821 E28.54498
G1 X123.998 Y65.434 E28.59117
G1 X124.198 Y66.024 E28.63468
G1 X124.223 Y66.099 E28.6402
G1 X139.905 Y114.488 E32.19305
G1 X139.927 Y114.557 E32.19811
G1 X140.134 Y115.224 E32.24689
G1 X140.272 Y115.756 E32.28528
G1 X140.379 Y116.266 E32.32168
G1 X140.489 Y117.054 E32.37725
G1 X140.505 Y117.281 E32.39314
G1 X140.519 Y117.645 E32.41859
G1 X140.522 Y118.015 E32.44443
G1 X140.476 Y118.797 E32.49914
G1 X140.45 Y119.002 E32.51358
G1 X140.403 Y119.308 E32.5352
G1 X140.336 Y119.678 E32.56146
G1 X140.073 Y120.644 E32.63139
G1 X139.864 Y121.215 E32.67386
G1 X139.788 Y121.411 E32.68854
G1 X139.7 Y121.627 E32.70484
G1 X139.576 Y121.912 E32.72654
G1 X139.439 Y122.203 E32.74901
G1 X139.357 Y122.369 E32.76194
G1 X136.121 Y128.711 E33.25924
G1 X136.083 Y128.784 E33.26499
G1 X135.283 Y130.299 E33.38465
G1 X134.031 Y132.754 E33.57713
G1 X133.172 Y134.564 E33.71707
G1 X133.135 Y134.641 E33.72304
G1 X132.636 Y135.654 E33.80191
G1 X132.598 Y135.73 E33.80785
G1 X129.822 Y141.164 E34.23405
G1 X129.787 Y141.231 E34.23933
G1 X129.487 Y141.8 E34.28426
G1 X129.311 Y142.11 E34.30915
G1 X129.027 Y142.577 E34.34733
G1 X128.617 Y143.166 E34.39746
G1 X128.314 Y143.549 E34.43157
G1 X128.009 Y143.905 E34.46431
G1 X127.861 Y144.064 E34.47948
G1 X127.413 Y144.496 E34.52295
G1 X127.194 Y144.686 E34.5432
G1 X127.026 Y144.827 E34.55852
G1 X114.326 Y155.035 E35.69659
G1 X114.252 Y155.093 E35.70316
G1 X113.726 Y155.502 E35.7497
G1 X113.319 Y155.792 E35.7846
G1 X113.023 Y155.984 E35.80925
G1 X112.401 Y156.335 E35.85913
G1 X112.212 Y156.427 E35.87381
G1 X111.581 Y156.69 E35.92156
G1 X111.21 Y156.805 E35.94869
G1 X110.808 Y156.916 E35.97782
G1 X110.14 Y157.059 E36.02553
G1 X109.132 Y157.126 E36.0961
G1 X108.703 Y157.117 E36.12607
G1 X107.924 Y157.048 E36.18069
G1 X107.002 Y156.904 E36.24587
G1 X106.835 Y156.875 E36.25771
G1 X94.004 Y154.488 E37.16928
G1 X93.925 Y154.473 E37.1749
G1 X93.231 Y154.334 E37.22433
G1 X92.545 Y154.153 E37.27389
G1 X91.922 Y153.947 E37.31972
G1 X91.287 Y153.695 E37.36744
G1 X90.832 Y153.458 E37.40327
G1 X90.135 Y153.055 E37.4595
G1 X87.732 Y151.691 E37.6525
G1 X85.41 Y150.458 E37.83613
G1 X82.998 Y149.263 E38.02414
G1 X80.607 Y148.162 E38.208
G1 X78.143 Y147.111 E38.3951
G1 X75.665 Y146.135 E38.58112
G1 X73.14 Y145.223 E38.76863
G1 X70.63 Y144.395 E38.95324
G1 X68.076 Y143.632 E39.13942
G1 X65.519 Y142.947 E39.32431
G1 X62.861 Y142.313 E39.51517
G1 X60.333 Y141.789 E39.6955
G1 X57.667 Y141.312 E39.88467
G1 X55.057 Y140.921 E40.069
G1 X51.637 Y140.52 E40.30951
G1 X51.212 Y140.478 E40.33934
G1 X50.537 Y140.371 E40.38707
G1 X49.879 Y140.186 E40.43481
G1 X49.371 Y139.984 E40.473
G1 X49.25 Y139.929 E40.48228
G1 X48.646 Y139.61 E40.52999
G1 X48.083 Y139.223 E40.57771
G1 X47.569 Y138.773 E40.62542
G1 X47.111 Y138.266 E40.67315
G1 X46.716 Y137.709 E40.72084
G1 X46.487 Y137.31 E40.75297
G1 X46.337 Y137.022 E40.77565
G1 X46.058 Y136.398 E40.8234
G1 X45.853 Y135.747 E40.87107
G1 X45.733 Y135.132 E40.91483
G1 X45.694 Y134.853 E40.93451
G1 X45.64 Y134.201 E40.9802
G1 X45.612 Y133.156 E41.05322
G1 X45.61 Y133 E41.06412
G1 X45.609 Y84.696 E44.43797
G1 X45.61 Y84.613 E44.44377
G1 X45.62 Y83.91 E44.49288
G1 X45.648 Y83.414 E44.52758
G1 X45.703 Y82.862 E44.56632
G1 X45.81 Y82.187 E44.61406
G1 X46.084 Y81.292 E44.67943
G1 X46.194 Y81.014 E44.70031
G1 X46.482 Y80.395 E44.748
G1 X46.84 Y79.813 E44.79573
G1 X47.457 Y79.071 E44.86313
G1 X47.567 Y78.959 E44.87409
G1 X48.074 Y78.5 E44.92186
G1 X48.63 Y78.104 E44.96954
M204 S3000
M205 X10 Y10
G0 F3000 X48.982 Y78.545
M204 S1800
M205 X8 Y8
G1 F2400 X49.557 Y78.241 E45.01497
G1 X50.005 Y78.062 E45.04866
G1 X50.472 Y77.9 E45.08319
G1 X53.013 Y76.981 E45.27192
G1 X55.489 Y76.005 E45.45781
G1 X58.149 Y74.866 E45.65992
G1 X60.673 Y73.697 E45.8542
G1 X63.077 Y72.501 E46.04174
G1 X65.463 Y71.225 E46.23073
G1 X67.751 Y69.919 E46.41474
G1 X70.084 Y68.497 E46.60557
G1 X72.275 Y67.077 E46.78794
G1 X74.928 Y65.238 E47.0134
G1 X75.785 Y64.623 E47.08708
G1 X76.505 Y64.189 E47.1458
G1 X77.086 Y63.899 E47.19115
G1 X77.189 Y63.849 E47.19915
G1 X97.597 Y54.211 E48.77554
G1 X97.672 Y54.176 E48.78132
G1 X98.325 Y53.88 E48.8314
G1 X98.591 Y53.768 E48.85156
G1 X98.789 Y53.691 E48.86639
G1 X99.03 Y53.604 E48.88429
G1 X99.464 Y53.459 E48.91625
G1 X100.319 Y53.251 E48.97771
G1 X100.708 Y53.19 E49.00521
G1 X101.16 Y53.139 E49.03698
G1 X101.477 Y53.117 E49.05918
G1 X102.063 Y53.109 E49.10011
G1 X102.398 Y53.123 E49.12353
G1 X103.309 Y53.241 E49.18769
G1 X103.897 Y53.37 E49.22974
G1 X104.449 Y53.523 E49.26975
G1 X104.669 Y53.597 E49.28596
G1 X105.084 Y53.756 E49.317
G1 X105.368 Y53.879 E49.33862
G1 X105.516 Y53.945 E49.34994
G1 X105.716 Y54.039 E49.36537
G1 X105.818 Y54.089 E49.37331
G1 X106.11 Y54.234 E49.39608
G1 X106.162 Y54.26 E49.40014
G1 X119.045 Y60.834 E50.41035
G1 X119.112 Y60.869 E50.41563
G1 X119.691 Y61.175 E50.46137
G1 X120.043 Y61.378 E50.48975
G1 X120.26 Y61.515 E50.50768
G1 X120.417 Y61.619 E50.52083
G1 X120.628 Y61.763 E50.53867
G1 X121.207 Y62.22 E50.59019
G1 X121.431 Y62.424 E50.61136
G1 X121.884 Y62.89 E50.65675
G1 X122.103 Y63.164 E50.68125
G1 X122.451 Y63.629 E50.72182
G1 X122.808 Y64.172 E50.7672
G1 X123.001 Y64.543 E50.79641
G1 X123.244 Y65.059 E50.83625
G1 X123.468 Y65.614 E50.87805
G1 X123.668 Y66.204 E50.92157
G1 X123.69 Y66.271 E50.92649
G1 X139.372 Y114.66 E54.47934
G1 X139.392 Y114.723 E54.48396
G1 X139.599 Y115.39 E54.53274
G1 X139.723 Y115.871 E54.56743
G1 X139.83 Y116.381 E54.60383
G1 X139.93 Y117.094 E54.65412
G1 X139.946 Y117.321 E54.67001
G1 X139.959 Y117.649 E54.69294
G1 X139.962 Y118.019 E54.71878
G1 X139.92 Y118.726 E54.76825
G1 X139.894 Y118.931 E54.78269
G1 X139.852 Y119.208 E54.80225
G1 X139.785 Y119.578 E54.82852
G1 X139.547 Y120.452 E54.89179
G1 X139.338 Y121.023 E54.93426
G1 X139.27 Y121.2 E54.9475
G1 X139.182 Y121.416 E54.96379
G1 X139.069 Y121.673 E54.9834
G1 X138.932 Y121.964 E55.00586
G1 X138.858 Y122.115 E55.01761
G1 X135.622 Y128.457 E55.51491
G1 X135.588 Y128.522 E55.52003
G1 X134.784 Y130.045 E55.64032
G1 X133.527 Y132.511 E55.83365
G1 X132.666 Y134.324 E55.97383
G1 X132.633 Y134.393 E55.97917
G1 X132.134 Y135.406 E56.05805
G1 X132.099 Y135.475 E56.06345
G1 X129.323 Y140.909 E56.48965
G1 X129.292 Y140.97 E56.49443
G1 X128.992 Y141.539 E56.53936
G1 X128.832 Y141.819 E56.56189
G1 X128.548 Y142.286 E56.60006
G1 X128.178 Y142.819 E56.64538
G1 X127.875 Y143.202 E56.67949
G1 X127.599 Y143.523 E56.70906
G1 X127.451 Y143.682 E56.72423
G1 X127.046 Y144.073 E56.76355
G1 X126.827 Y144.263 E56.7838
G1 X126.675 Y144.39 E56.79764
G1 X113.975 Y154.598 E57.93571
G1 X113.908 Y154.651 E57.94168
G1 X113.382 Y155.06 E57.98821
G1 X113.014 Y155.322 E58.01977
G1 X112.718 Y155.514 E58.04441
G1 X112.156 Y155.831 E58.08948
G1 X111.967 Y155.923 E58.10416
G1 X111.061 Y156.266 E58.17182
G1 X110.659 Y156.377 E58.20095
G1 X110.024 Y156.511 E58.24628
G1 X109.143 Y156.566 E58.30794
G1 X108.714 Y156.557 E58.33791
G1 X108.01 Y156.495 E58.38727
G1 X107.088 Y156.351 E58.45245
G1 X106.937 Y156.325 E58.46315
G1 X94.106 Y153.938 E59.37472
G1 X94.035 Y153.924 E59.37978
G1 X93.341 Y153.785 E59.42921
G1 X92.72 Y153.621 E59.47408
G1 X92.097 Y153.415 E59.51991
G1 X91.494 Y153.174 E59.56526
G1 X91.113 Y152.973 E59.59535
G1 X90.411 Y152.567 E59.65199
G1 X90.411 Y152.568 E59.65206
G1 X88.005 Y151.202 E59.84531
G1 X85.658 Y149.955 E60.03094
G1 X83.259 Y148.768 E60.21789
G1 X80.823 Y147.646 E60.40522
G1 X78.347 Y146.59 E60.59323
G1 X75.852 Y145.607 E60.78053
G1 X73.328 Y144.695 E60.96798
G1 X70.82 Y143.868 E61.15243
G1 X68.204 Y143.087 E61.34312
G1 X65.649 Y142.403 E61.52786
G1 X63.008 Y141.772 E61.71752
G1 X60.434 Y141.239 E61.90111
G1 X57.738 Y140.757 E62.0924
G1 X55.144 Y140.367 E62.27562
G1 X51.701 Y139.964 E62.51774
G1 X51.267 Y139.921 E62.54821
G1 X50.626 Y139.817 E62.59356
G1 X50.002 Y139.636 E62.63894
G1 X49.603 Y139.474 E62.66902
G1 X49.482 Y139.419 E62.67831
G1 X48.908 Y139.114 E62.72371
G1 X48.376 Y138.741 E62.76909
G1 X47.894 Y138.306 E62.81444
G1 X47.469 Y137.815 E62.85979
G1 X46.984 Y137.051 E62.923
G1 X46.834 Y136.763 E62.94568
G1 X46.57 Y136.169 E62.99108
G1 X46.381 Y135.548 E63.03642
G1 X46.288 Y135.055 E63.07146
G1 X46.249 Y134.776 E63.09114
G1 X46.2 Y134.186 E63.13249
G1 X46.172 Y133.141 E63.20551
G1 X46.17 Y133 E63.21536
G1 X46.169 Y84.696 E66.58921
G1 X46.17 Y84.621 E66.59445
G1 X46.18 Y83.918 E66.64356
G1 X46.205 Y83.47 E66.6749
G1 X46.26 Y82.918 E66.71364
G1 X46.364 Y82.276 E66.75907
