;FLAVOR:Marlin
;TIME:13528
;Filament used: 14.8704m
;Layer height: 0.25
;MINX:1.84
;MINY:45.432
;MINZ:0.25
;MAXX:208.26
;MAXY:164.668
;MAXZ:45.75
;Generated with Cura_SteamEngine 4.2.1
M140 S60
M105
M190 S60
M104 S196
M105
M109 S196
M82 ;absolute extrusion mode
G21 ;metric values
G90 ;absolute positioning
M82 ;set extruder to absolute mode
M107 ;start with the fan off
G28 X0 Y0 Z0 ;move X/Y to min endstops
M501
M420 S1
G0 Z0.15
G92 E0 ;zero the extruded length
G1 X40 E25 F500 ; Extrude 25mm of filament in a 4cm line. Reduce speed (F) if you have a nozzle smaller than 0.4mm!
G92 E0 ;zero the extruded length again
G1 E-1 F500 ; Retract a little
G1 X80 F4000 ; Quickly wipe away from the filament line
M117 Printing…
G5
G92 E0
G92 E0
G1 F3000 E-5.5
;LAYER_COUNT:183
;LAYER:0
M106 S51
M204 S3000
M205 X10 Y10
G0 F6000 X5.366 Y45.442 Z0.25
M204 S500
;TYPE:SKIRT
G1 F3000 E0.12473
G1 F900 X5.687 Y45.433 E0.13848
G1 X5.788 Y45.432 E0.1428
G1 X183.204 Y45.432 E7.74019
G1 X183.902 Y45.442 E7.77008
G1 X184.437 Y45.49 E7.79308
G1 X184.96 Y45.616 E7.81612
G1 X185.458 Y45.819 E7.83915
G1 X185.92 Y46.093 E7.86215
G1 X186.337 Y46.433 E7.88519
G1 X186.699 Y46.83 E7.9082
G1 X186.998 Y47.277 E7.93122
G1 X187.228 Y47.763 E7.95425
G1 X187.382 Y48.278 E7.97727
G1 X187.467 Y48.958 E8.00661
G1 X187.476 Y49.278 E8.02032
G1 X187.477 Y49.38 E8.02469
G1 X187.477 Y90.411 E9.78174
G1 X187.516 Y93.192 E9.90084
G1 X187.632 Y95.917 E10.01763
G1 X187.825 Y98.644 E10.1347
G1 X188.091 Y101.324 E10.25003
G1 X188.441 Y104.057 E10.36802
G1 X188.862 Y106.74 E10.48432
G1 X189.36 Y109.419 E10.60101
G1 X189.932 Y112.077 E10.71743
G1 X190.576 Y114.702 E10.83318
G1 X191.316 Y117.392 E10.95265
G1 X192.102 Y119.961 E11.06769
G1 X192.977 Y122.554 E11.18488
G1 X193.92 Y125.11 E11.30155
G1 X194.933 Y127.633 E11.41797
G1 X196.015 Y130.121 E11.53415
G1 X197.185 Y132.615 E11.65212
G1 X198.41 Y135.05 E11.76885
G1 X199.708 Y137.451 E11.88572
G1 X201.042 Y139.765 E12.0001
G1 X202.499 Y142.133 E12.11916
G1 X203.983 Y144.4 E12.23519
G1 X205.551 Y146.652 E12.3527
G1 X206.983 Y148.599 E12.4562
G1 X207.068 Y148.72 E12.46253
G1 X207.256 Y148.999 E12.47694
G1 X207.515 Y149.449 E12.49917
G1 X207.68 Y149.791 E12.51543
G1 X207.906 Y150.39 E12.54285
G1 X208.004 Y150.741 E12.55845
G1 X208.037 Y150.871 E12.5642
G1 X208.123 Y151.23 E12.58001
G1 X208.202 Y151.683 E12.5997
G1 X208.229 Y151.932 E12.61042
G1 X208.25 Y152.267 E12.6248
G1 X208.26 Y152.926 E12.65302
G1 X208.26 Y157.149 E12.83386
G1 X208.247 Y158.078 E12.87364
G1 X208.24 Y158.248 E12.88093
G1 X208.214 Y158.672 E12.89912
G1 X208.141 Y159.205 E12.92216
G1 X208.002 Y159.857 E12.95071
G1 X207.771 Y160.571 E12.98284
G1 X207.581 Y160.999 E13.00289
G1 X207.31 Y161.498 E13.02721
G1 X207.069 Y161.87 E13.04619
G1 X206.679 Y162.37 E13.07335
G1 X206.292 Y162.785 E13.09764
G1 X205.856 Y163.183 E13.12292
G1 X205.633 Y163.355 E13.13498
G1 X205.507 Y163.448 E13.14169
G1 X205.331 Y163.572 E13.15091
G1 X204.91 Y163.827 E13.17199
G1 X204.709 Y163.931 E13.18168
G1 X204.599 Y163.986 E13.18695
G1 X204.357 Y164.101 E13.19842
G1 X203.785 Y164.315 E13.22457
G1 X203.43 Y164.415 E13.24036
G1 X202.958 Y164.515 E13.26103
G1 X202.261 Y164.614 E13.29117
G1 X201.838 Y164.649 E13.30935
G1 X201.289 Y164.662 E13.33286
G1 X201.205 Y164.663 E13.33646
G1 X190.448 Y164.668 E13.7971
G1 X190.389 Y164.668 E13.79963
G1 X188.998 Y164.646 E13.8592
G1 X188.889 Y164.642 E13.86387
G1 X188.433 Y164.621 E13.88342
G1 X188.232 Y164.606 E13.89205
G1 X187.918 Y164.574 E13.90557
G1 X185.165 Y164.331 E14.02392
G1 X182.408 Y164.167 E14.14219
G1 X179.713 Y164.083 E14.25765
G1 X178.024 Y164.068 E14.32998
G1 X6.108 Y164.068 E21.69184
G1 X5.41 Y164.057 E21.72173
G1 X4.875 Y164.008 E21.74474
G1 X4.352 Y163.881 E21.76779
G1 X3.854 Y163.678 E21.79081
G1 X3.392 Y163.403 E21.81384
G1 X2.976 Y163.063 E21.83685
G1 X2.615 Y162.665 E21.85986
G1 X2.316 Y162.218 E21.88288
G1 X2.088 Y161.731 E21.90591
G1 X1.933 Y161.216 E21.92894
G1 X1.85 Y160.537 E21.95823
G1 X1.841 Y160.206 E21.97241
G1 X1.84 Y160.108 E21.97661
G1 X1.84 Y49.675 E26.70562
G1 X1.849 Y49.01 E26.7341
G1 X1.897 Y48.474 E26.75714
G1 X2.023 Y47.952 E26.78014
G1 X2.225 Y47.454 E26.80315
G1 X2.498 Y46.991 E26.82617
G1 X2.838 Y46.574 E26.84921
G1 X3.235 Y46.212 E26.87222
G1 X3.681 Y45.912 E26.89523
G1 X4.167 Y45.682 E26.91826
G1 X4.682 Y45.527 E26.94129
G1 X5.366 Y45.442 E26.97081
M204 S3000
G0 F6000 X5.377 Y45.854
M204 S500
G1 F900 X5.698 Y45.845 E26.98456
G1 X5.788 Y45.844 E26.98841
G1 X183.198 Y45.844 E34.58554
G1 X183.896 Y45.854 E34.61543
G1 X184.4 Y45.901 E34.63711
G1 X184.89 Y46.027 E34.65877
G1 X185.354 Y46.229 E34.68044
G1 X185.781 Y46.501 E34.70212
G1 X186.16 Y46.836 E34.72378
G1 X186.481 Y47.228 E34.74548
G1 X186.736 Y47.664 E34.76711
G1 X186.92 Y48.136 E34.7888
G1 X187.027 Y48.63 E34.81045
G1 X187.055 Y48.97 E34.82506
G1 X187.064 Y49.29 E34.83877
G1 X187.065 Y49.38 E34.84262
G1 X187.065 Y90.417 E36.59992
G1 X187.105 Y93.214 E36.71971
G1 X187.22 Y95.929 E36.83608
G1 X187.415 Y98.68 E36.95418
G1 X187.682 Y101.379 E37.07032
G1 X188.031 Y104.105 E37.18801
G1 X188.456 Y106.806 E37.30509
G1 X188.959 Y109.514 E37.42304
G1 X189.527 Y112.154 E37.53868
G1 X190.185 Y114.835 E37.65689
G1 X190.912 Y117.481 E37.7744
G1 X191.705 Y120.071 E37.89039
G1 X192.588 Y122.687 E38.00862
G1 X193.538 Y125.264 E38.12624
G1 X194.553 Y127.793 E38.24293
G1 X195.647 Y130.306 E38.3603
G1 X196.812 Y132.791 E38.47783
G1 X198.047 Y135.245 E38.59547
G1 X199.341 Y137.639 E38.712
G1 X200.696 Y139.99 E38.8282
G1 X202.156 Y142.363 E38.94751
G1 X203.627 Y144.609 E39.06249
G1 X205.225 Y146.903 E39.18221
G1 X206.651 Y148.843 E39.28531
G1 X206.727 Y148.95 E39.29093
G1 X206.915 Y149.229 E39.30534
G1 X207.144 Y149.628 E39.32504
G1 X207.309 Y149.97 E39.3413
G1 X207.509 Y150.501 E39.3656
G1 X207.607 Y150.852 E39.3812
G1 X207.637 Y150.967 E39.38629
G1 X207.723 Y151.326 E39.4021
G1 X207.792 Y151.727 E39.41952
G1 X207.819 Y151.976 E39.43025
G1 X207.838 Y152.273 E39.44299
G1 X207.848 Y152.932 E39.47122
G1 X207.848 Y157.143 E39.65154
G1 X207.835 Y158.072 E39.69133
G1 X207.829 Y158.223 E39.6978
G1 X207.803 Y158.647 E39.71599
G1 X207.739 Y159.119 E39.73639
G1 X207.6 Y159.771 E39.76493
G1 X207.394 Y160.404 E39.79344
G1 X207.204 Y160.832 E39.81349
G1 X206.965 Y161.274 E39.83501
G1 X206.724 Y161.646 E39.85399
G1 X206.378 Y162.09 E39.87809
G1 X205.991 Y162.505 E39.90239
G1 X205.604 Y162.857 E39.9248
G1 X205.381 Y163.029 E39.93686
G1 X205.27 Y163.111 E39.94277
G1 X205.094 Y163.235 E39.95199
G1 X204.72 Y163.461 E39.9707
G1 X204.519 Y163.565 E39.98039
G1 X204.422 Y163.614 E39.98504
G1 X204.18 Y163.729 E39.99652
G1 X203.673 Y163.919 E40.0197
G1 X203.318 Y164.019 E40.0355
G1 X202.9 Y164.107 E40.05379
G1 X202.203 Y164.206 E40.08393
G1 X201.828 Y164.237 E40.10005
G1 X201.279 Y164.25 E40.12356
G1 X201.204 Y164.251 E40.12678
G1 X190.447 Y164.256 E40.58742
G1 X190.395 Y164.256 E40.58964
G1 X189.004 Y164.234 E40.64922
G1 X188.908 Y164.231 E40.65333
G1 X188.452 Y164.21 E40.67288
G1 X188.274 Y164.196 E40.68052
G1 X187.954 Y164.163 E40.6943
G1 X187.954 Y164.164 E40.69434
G1 X185.154 Y163.917 E40.81471
G1 X182.446 Y163.756 E40.93088
G1 X179.729 Y163.671 E41.04728
G1 X178.028 Y163.656 E41.12013
G1 X6.114 Y163.656 E48.4819
G1 X5.416 Y163.645 E48.5118
G1 X4.913 Y163.597 E48.53343
G1 X4.423 Y163.47 E48.55511
G1 X3.959 Y163.268 E48.57678
G1 X3.532 Y162.996 E48.59846
G1 X3.154 Y162.659 E48.62015
G1 X2.834 Y162.268 E48.64178
G1 X2.579 Y161.831 E48.66345
G1 X2.396 Y161.359 E48.68513
G1 X2.289 Y160.864 E48.70681
G1 X2.262 Y160.526 E48.72133
G1 X2.253 Y160.195 E48.73551
G1 X2.252 Y160.108 E48.73924
G1 X2.252 Y49.681 E53.46799
G1 X2.261 Y49.016 E53.49647
G1 X2.308 Y48.512 E53.51815
G1 X2.434 Y48.021 E53.53985
G1 X2.635 Y47.557 E53.56151
G1 X2.906 Y47.13 E53.58316
G1 X3.242 Y46.751 E53.60485
G1 X3.632 Y46.43 E53.62648
G1 X4.069 Y46.174 E53.64817
G1 X4.54 Y45.99 E53.66982
G1 X5.035 Y45.882 E53.69152
G1 X5.377 Y45.854 E53.70621
M204 S3000
G1 F3000 E48.20621
G0 F6000 X186.597 Y149.756
M204 S300
;TYPE:SUPPORT
G1 F3000 E53.83094
G1 F1200 X201.696 Y149.756 E54.47752
G1 X202.21 Y149.799 E54.4996
G1 X202.691 Y149.935 E54.52101
G1 X203.028 Y150.097 E54.53702
G1 X203.438 Y150.38 E54.55835
G1 X203.858 Y150.788 E54.58343
G1 X204.09 Y151.123 E54.60088
G1 X204.244 Y151.447 E54.61624
G1 X204.411 Y152.11 E54.64552
G1 X204.436 Y152.342 E54.65551
G1 X204.436 Y157.795 E54.88902
G1 X204.403 Y158.502 E54.91933
G1 X204.262 Y159.104 E54.94581
G1 X204.094 Y159.459 E54.96263
G1 X203.845 Y159.832 E54.98183
G1 X203.494 Y160.191 E55.00333
G1 X203.144 Y160.446 E55.02187
G1 X202.716 Y160.658 E55.04233
G1 X202.248 Y160.781 E55.06305
G1 X201.699 Y160.839 E55.08669
G1 X189.633 Y160.844 E55.60338
G1 X188.645 Y160.813 E55.64571
G1 X188.388 Y160.735 E55.65721
G1 X187.69 Y160.691 E55.68716
G1 X187.484 Y160.604 E55.69674
G1 X186.787 Y160.424 E55.72757
G1 X186.593 Y160.411 E55.73589
G1 X186.597 Y149.756 E56.19217
M204 S3000
G1 F3000 E50.69217
G0 F6000 X194.828 Y153.416
M204 S300
G1 F3000 E56.31689
G1 F1200 X194.047 Y155.867 E56.42705
G1 X194.216 Y156.371 E56.44981
G1 X194.84 Y156.812 E56.48253
G1 X195.588 Y158.489 E56.56117
G1 X196.03 Y158.845 E56.58547
G1 X196.549 Y158.643 E56.60932
G1 X199.325 Y156.157 E56.76889
G1 X199.449 Y155.645 E56.79145
G1 X198.598 Y153.408 E56.89394
G1 X198.164 Y153.109 E56.91651
G1 X195.259 Y153.102 E57.04091
G1 X194.828 Y153.416 E57.06375
M204 S3000
G0 F6000 X195 Y153.096
M204 S300
G1 F1200 X195 Y149.914 E57.20001
M204 S3000
G0 F6000 X194 Y149.914
M204 S300
G1 F1200 X194 Y155.496 E57.43904
M204 S3000
G0 F6000 X193.926 Y156
M204 S300
G1 F1200 X186.753 Y156 E57.74621
M204 S3000
G0 F6000 X186.753 Y157
M204 S300
G1 F1200 X194.751 Y157 E58.0887
M204 S3000
G0 F6000 X195 Y157.559
M204 S300
G1 F1200 X195 Y160.684 E58.22252
M204 S3000
G0 F6000 X196 Y160.684
M204 S300
G1 F1200 X196 Y159.024 E58.29361
M204 S3000
G0 F6000 X195.971 Y159
M204 S300
G1 F1200 X186.752 Y159 E58.68839
M204 S3000
G0 F6000 X186.752 Y158
M204 S300
G1 F1200 X195.198 Y158 E59.05006
M204 S3000
G0 F6000 X196.067 Y159
M204 S300
G1 F1200 X204.123 Y159 E59.39504
M204 S3000
G0 F6000 X204 Y159.29
M204 S300
G1 F1200 X204 Y151.301 E59.73715
M204 S3000
G0 F6000 X203.814 Y151
M204 S300
G1 F1200 X186.755 Y151 E60.46766
M204 S3000
G0 F6000 X186.755 Y150
M204 S300
G1 F1200 X202.342 Y150 E61.13513
M204 S3000
G0 F6000 X202 Y149.94
M204 S300
G1 F1200 X202 Y160.648 E61.59367
M204 S3000
G0 F6000 X201 Y160.682
M204 S300
G1 F1200 X201 Y149.914 E62.05479
M204 S3000
G0 F6000 X200 Y149.914
M204 S300
G1 F1200 X200 Y160.682 E62.5159
M204 S3000
G0 F6000 X199 Y160.683
M204 S300
G1 F1200 X199 Y156.66 E62.68817
M204 S3000
G0 F6000 X198.621 Y157
M204 S300
G1 F1200 X204.278 Y157 E62.93042
M204 S3000
G0 F6000 X204.278 Y156
M204 S300
G1 F1200 X199.526 Y156 E63.13391
M204 S3000
G0 F6000 X199.372 Y155
M204 S300
G1 F1200 X204.278 Y155 E63.344
M204 S3000
G0 F6000 X204.278 Y154
M204 S300
G1 F1200 X198.992 Y154 E63.57036
M204 S3000
G0 F6000 X199 Y154.02
M204 S300
G1 F1200 X199 Y149.914 E63.74619
M204 S3000
G0 F6000 X198 Y149.914
M204 S300
G1 F1200 X198 Y152.95 E63.87619
M204 S3000
G0 F6000 X198.284 Y153
M204 S300
G1 F1200 X204.278 Y153 E64.13287
M204 S3000
G0 F6000 X204.221 Y152
M204 S300
G1 F1200 X186.755 Y152 E64.88081
M204 S3000
G0 F6000 X186.754 Y153
M204 S300
G1 F1200 X195.13 Y153 E65.23949
M204 S3000
G0 F6000 X196 Y152.945
M204 S300
G1 F1200 X196 Y149.914 E65.36928
M204 S3000
G0 F6000 X197 Y149.914
M204 S300
G1 F1200 X197 Y152.948 E65.49921
M204 S3000
G1 F3000 E59.99921
G0 F6000 X194.475 Y154
M204 S300
G1 F3000 E65.62393
G1 F1200 X186.754 Y154 E65.95457
M204 S3000
G0 F6000 X186.754 Y155
M204 S300
G1 F1200 X194.157 Y155 E66.27158
M204 S3000
G0 F6000 X194 Y156.224
M204 S300
G1 F1200 X194 Y160.685 E66.46261
M204 S3000
G0 F6000 X193 Y160.685
M204 S300
G1 F1200 X193 Y149.914 E66.92385
M204 S3000
G0 F6000 X192 Y149.914
M204 S300
G1 F1200 X192 Y160.686 E67.38513
M204 S3000
G0 F6000 X191 Y160.686
M204 S300
G1 F1200 X191 Y149.914 E67.84642
M204 S3000
G0 F6000 X190 Y149.914
M204 S300
G1 F1200 X190 Y160.686 E68.3077
M204 S3000
G0 F6000 X189 Y160.666
M204 S300
G1 F1200 X189 Y149.914 E68.76813
M204 S3000
G0 F6000 X188 Y149.914
M204 S300
G1 F1200 X188 Y160.551 E69.22363
M204 S3000
G0 F6000 X187 Y160.318
M204 S300
G1 F1200 X187 Y149.914 E69.66915
M204 S3000
G1 F3000 E64.16915
G0 F6000 X186.752 Y160
M204 S300
G1 F3000 E69.79388
G1 F1200 X203.459 Y160 E70.50931
M204 S3000
G0 F6000 X203 Y160.341
M204 S300
G1 F1200 X203 Y150.27 E70.94058
M204 S3000
G1 F3000 E65.44058
G0 F6000 X204.268 Y158
M204 S300
G1 F3000 E71.0653
G1 F1200 X197.504 Y158 E71.35495
M204 S3000
G0 F6000 X198 Y157.555
M204 S300
G1 F1200 X198 Y160.683 E71.4889
M204 S3000
G0 F6000 X197 Y160.683
M204 S300
G1 F1200 X197 Y158.45 E71.58453
M204 S3000
G1 F3000 E66.08453
;MESH:PSUCover_60x25.stl
G0 F6000 X179.267 Y130.52
G0 X177.953 Y130.489
G0 X174.96 Y125.316
G0 X177.595 Y119.316
G0 X174.336 Y113.676
G0 X167.827 Y112.956
G0 X164.568 Y107.316
G0 X167.203 Y101.316
G0 X163.944 Y95.676
G0 X157.433 Y94.956
G0 X154.176 Y89.316
G0 X156.81 Y83.316
G0 X153.553 Y77.676
G0 X147.042 Y76.956
G0 X143.783 Y71.316
G0 X146.893 Y65.931
G0 X143.578 Y59.316
M204 S300
;TYPE:WALL-INNER
G1 F3000 E71.70925
G1 F1200 X146.938 Y65.134 E71.99695
G1 X153.656 Y65.134 E72.28464
G1 X157.015 Y59.316 E72.57232
G1 X154.704 Y55.312 E72.77029
G1 X154.598 Y55.13 E72.77931
G1 X145.996 Y55.13 E73.14767
G1 X145.439 Y56.094 E73.19534
G1 X145.419 Y56.129 E73.19707
G1 X143.578 Y59.316 E73.35468
M204 S3000
G0 F6000 X144.054 Y59.316
M204 S300
;TYPE:WALL-OUTER
G1 F1200 X147.176 Y64.722 E73.62201
G1 X153.418 Y64.722 E73.8893
G1 X156.539 Y59.316 E74.15661
G1 X154.36 Y55.542 E74.34323
G1 X146.234 Y55.542 E74.6912
G1 X144.054 Y59.316 E74.87784
M204 S3000
G0 F6000 X144.154 Y59.489
G0 X143.761 Y59.714
G0 X145.084 Y55.913
M204 S300
;TYPE:WALL-INNER
G1 F1200 X144.631 Y55.13 E74.91658
G1 X135.178 Y55.13 E75.32138
G1 X134.725 Y55.913 E75.36011
G1 X134.705 Y55.948 E75.36184
G1 X136.138 Y58.428 E75.48449
G1 X136.546 Y59.134 E75.51941
G1 X143.263 Y59.134 E75.80705
G1 X145.104 Y55.948 E75.94621
G1 X145.084 Y55.913 E75.94785
M204 S3000
G0 F6000 X144.628 Y55.948
M204 S300
;TYPE:WALL-OUTER
G1 F1200 X144.393 Y55.542 E75.96794
G1 X135.416 Y55.542 E76.35236
G1 X135.181 Y55.948 E76.37245
G1 X136.495 Y58.222 E76.48491
G1 X136.784 Y58.722 E76.50964
G1 X143.025 Y58.722 E76.7769
G1 X144.628 Y55.948 E76.91409
M204 S3000
G0 F6000 X144.528 Y55.775
G0 X144.921 Y55.55
G1 F3000 E71.41409
G0 F6000 X143.159 Y58.956
G0 X136.65 Y58.956
G0 X133.709 Y55.308
G0 X125.316 Y55.308
G0 X122.375 Y59.676
G0 X115.864 Y59.676
G0 X111.982 Y64.956
G0 X105.473 Y65.676
G0 X101.59 Y70.956
G0 X95.081 Y70.956
G0 X91.198 Y65.676
G0 X87.624 Y65.682
G0 X87.25 Y71.165
G0 X26.119 Y71.622
G0 X25.334 Y70.191
G0 X24.672 Y69.435
G0 X23.787 Y68.951
G0 X22.798 Y68.797
G0 X21.81 Y68.994
G0 X20.951 Y69.515
G0 X19.833 Y71.165
M204 S300
;TYPE:WALL-INNER
G1 F3000 E77.03882
G1 F1200 X19.791 Y71.756 E77.06419
G1 X19.85 Y72.289 E77.08715
G1 X19.999 Y72.803 E77.11007
G1 X20.236 Y73.282 E77.13296
G1 X20.553 Y73.712 E77.15583
G1 X20.937 Y74.082 E77.17867
G1 X21.384 Y74.381 E77.2017
G1 X21.873 Y74.596 E77.22457
G1 X22.391 Y74.722 E77.2474
G1 X22.925 Y74.759 E77.27032
G1 X23.457 Y74.7 E77.29324
G1 X23.971 Y74.55 E77.31617
G1 X24.449 Y74.315 E77.33898
G1 X24.882 Y73.997 E77.36199
G1 X25.25 Y73.611 E77.38483
G1 X25.547 Y73.168 E77.40766
G1 X25.764 Y72.676 E77.43069
G1 X25.889 Y72.159 E77.45347
G1 X25.927 Y71.626 E77.47635
