;FLAVOR:Marlin
;TIME:12305
;Filament used: 13.4929m
;Layer height: 0.25
;MINX:1.84
;MINY:45.432
;MINZ:0.25
;MAXX:208.26
;MAXY:164.668
;MAXZ:45.85
;Generated with Cura_SteamEngine 4.2.1
M140 S60
M105
M190 S60
M104 S196
M105
M109 S196
M82 ;absolute extrusion mode
G21 ;metric values
G90 ;absolute positioning
M82 ;set extruder to absolute mode
M107 ;start with the fan off
G28 X0 Y0 Z0 ;move X/Y to min endstops
M501
M420 S1
G0 Z0.15
G92 E0 ;zero the extruded length
G1 X40 E25 F500 ; Extrude 25mm of filament in a 4cm line. Reduce speed (F) if you have a nozzle smaller than 0.4mm!
G92 E0 ;zero the extruded length again
G1 E-1 F500 ; Retract a little
G1 X80 F4000 ; Quickly wipe away from the filament line
M117 Printing…
G5
G92 E0
G92 E0
G1 F3000 E-5.5
;LAYER_COUNT:183
;LAYER:0
M106 S51
M204 S3000
M205 X10 Y10
G0 F6000 X5.244 Y45.459 Z0.25
M204 S500
;TYPE:SKIRT
G1 F3000 E0.12473
G1 F900 X5.521 Y45.443 E0.13661
G1 X5.992 Y45.433 E0.15678
G1 X6.069 Y45.432 E0.16008
G1 X183.066 Y45.432 E7.73952
G1 X183.758 Y45.442 E7.76916
G1 X184.294 Y45.49 E7.7922
G1 X184.816 Y45.617 E7.81521
G1 X185.314 Y45.819 E7.83822
G1 X185.866 Y46.158 E7.86596
G1 X185.999 Y46.257 E7.87306
G1 X186.406 Y46.609 E7.8961
G1 X186.755 Y47.017 E7.91909
G1 X187.04 Y47.473 E7.94212
G1 X187.255 Y47.966 E7.96515
G1 X187.394 Y48.486 E7.9882
G1 X187.456 Y49.096 E8.01446
G1 X187.471 Y49.952 E8.05112
G1 X187.472 Y50.015 E8.05382
G1 X187.474 Y90.412 E9.78371
G1 X187.513 Y93.193 E9.90282
G1 X187.629 Y95.919 E10.01965
G1 X187.822 Y98.642 E10.13655
G1 X188.089 Y101.325 E10.25201
G1 X188.44 Y104.065 E10.37031
G1 X188.857 Y106.729 E10.48577
G1 X189.36 Y109.426 E10.60326
G1 X189.927 Y112.063 E10.71876
G1 X190.582 Y114.733 E10.83649
G1 X191.301 Y117.345 E10.9525
G1 X192.109 Y119.983 E11.07064
G1 X192.98 Y122.565 E11.18733
G1 X193.919 Y125.11 E11.3035
G1 X194.925 Y127.617 E11.41917
G1 X196.028 Y130.153 E11.5376
G1 X197.182 Y132.613 E11.65396
G1 X198.399 Y135.029 E11.7698
G1 X199.702 Y137.444 E11.88731
G1 X201.064 Y139.803 E12.00396
G1 X202.492 Y142.123 E12.12062
G1 X203.973 Y144.385 E12.23639
G1 X205.55 Y146.65 E12.35458
G1 X206.983 Y148.599 E12.45817
G1 X207.065 Y148.715 E12.46426
G1 X207.253 Y148.993 E12.47863
G1 X207.516 Y149.452 E12.50128
G1 X207.681 Y149.795 E12.51758
G1 X207.906 Y150.39 E12.54482
G1 X208.004 Y150.741 E12.56043
G1 X208.037 Y150.871 E12.56617
G1 X208.123 Y151.23 E12.58198
G1 X208.202 Y151.683 E12.60167
G1 X208.229 Y151.932 E12.61239
G1 X208.25 Y152.267 E12.62677
G1 X208.26 Y152.926 E12.65499
G1 X208.26 Y157.603 E12.85527
G1 X208.249 Y158.371 E12.88816
G1 X208.18 Y159.023 E12.91624
G1 X208.066 Y159.598 E12.94134
G1 X208.013 Y159.827 E12.95141
G1 X207.958 Y160.033 E12.96054
G1 X207.797 Y160.503 E12.98181
G1 X207.672 Y160.8 E12.99561
G1 X207.405 Y161.315 E13.02045
G1 X207.083 Y161.83 E13.04646
G1 X206.664 Y162.377 E13.07597
G1 X206.316 Y162.751 E13.09784
G1 X205.897 Y163.135 E13.12218
G1 X205.556 Y163.402 E13.14073
G1 X204.99 Y163.766 E13.16954
G1 X204.54 Y163.999 E13.19124
G1 X203.973 Y164.234 E13.21753
G1 X203.448 Y164.401 E13.24112
G1 X202.982 Y164.516 E13.26167
G1 X202.536 Y164.595 E13.28107
G1 X201.976 Y164.649 E13.30516
G1 X201.309 Y164.662 E13.33373
G1 X201.24 Y164.663 E13.33668
G1 X189.474 Y164.668 E13.84053
G1 X189.422 Y164.668 E13.84276
G1 X188.702 Y164.658 E13.87359
G1 X188.465 Y164.647 E13.88375
G1 X187.849 Y164.598 E13.91022
G1 X187.775 Y164.591 E13.9134
G1 X185.948 Y164.408 E13.99203
G1 X183.229 Y164.213 E14.10876
G1 X180.5 Y164.095 E14.22573
G1 X177.637 Y164.054 E14.34835
G1 X6.308 Y164.068 E21.68507
G1 X6.255 Y164.068 E21.68734
G1 X5.575 Y164.058 E21.71646
G1 X5.039 Y164.01 E21.73951
G1 X4.45 Y163.861 E21.76552
G1 X4.328 Y163.819 E21.77105
G1 X3.834 Y163.607 E21.79407
G1 X3.377 Y163.324 E21.81709
G1 X2.967 Y162.976 E21.84011
G1 X2.613 Y162.571 E21.86315
G1 X2.323 Y162.118 E21.88618
G1 X2.136 Y161.715 E21.90521
G1 X2.102 Y161.628 E21.90921
G1 X1.944 Y161.114 E21.93223
G1 X1.854 Y160.366 E21.9645
G1 X1.844 Y159.712 E21.99251
G1 X1.844 Y159.661 E21.99469
G1 X1.84 Y155.921 E22.15485
G1 X1.84 Y50.03 E26.68935
G1 X1.85 Y49.348 E26.71856
G1 X1.856 Y49.189 E26.72538
G1 X1.872 Y48.917 E26.73704
G1 X1.944 Y48.384 E26.76008
G1 X2.093 Y47.867 E26.78312
G1 X2.318 Y47.379 E26.80613
G1 X2.612 Y46.929 E26.82915
G1 X2.97 Y46.527 E26.8522
G1 X3.383 Y46.184 E26.87519
G1 X3.611 Y46.034 E26.88687
G1 X3.725 Y45.965 E26.89258
G1 X4.204 Y45.721 E26.9156
G1 X4.714 Y45.552 E26.93861
G1 X5.244 Y45.459 E26.96165
M204 S3000
G0 F6000 X5.53 Y45.855
M204 S500
G1 F900 X6.001 Y45.845 E26.98182
G1 X6.069 Y45.844 E26.98474
G1 X183.06 Y45.844 E34.56392
G1 X183.752 Y45.854 E34.59356
G1 X184.256 Y45.902 E34.61524
G1 X184.746 Y46.027 E34.63689
G1 X185.21 Y46.229 E34.65856
G1 X185.62 Y46.488 E34.67933
G1 X185.753 Y46.587 E34.68643
G1 X186.134 Y46.921 E34.70813
G1 X186.458 Y47.31 E34.72981
G1 X186.716 Y47.745 E34.75146
G1 X186.903 Y48.215 E34.77312
G1 X187.013 Y48.709 E34.7948
G1 X187.045 Y49.103 E34.81172
G1 X187.06 Y49.959 E34.84839
G1 X187.06 Y50.015 E34.85078
G1 X187.062 Y90.418 E36.58094
G1 X187.102 Y93.216 E36.70077
G1 X187.217 Y95.931 E36.81713
G1 X187.411 Y98.674 E36.93489
G1 X187.681 Y101.384 E37.05151
G1 X188.03 Y104.112 E37.16928
G1 X188.451 Y106.794 E37.28554
G1 X188.957 Y109.514 E37.40402
G1 X189.524 Y112.147 E37.51935
G1 X190.182 Y114.832 E37.63773
G1 X190.91 Y117.476 E37.75517
G1 X191.712 Y120.095 E37.87246
G1 X192.586 Y122.687 E37.9896
G1 X193.537 Y125.264 E38.10723
G1 X194.558 Y127.806 E38.22453
G1 X195.646 Y130.309 E38.3414
G1 X196.809 Y132.789 E38.4587
G1 X198.044 Y135.24 E38.57623
G1 X199.336 Y137.634 E38.69272
G1 X200.71 Y140.013 E38.81037
G1 X202.12 Y142.305 E38.9256
G1 X203.654 Y144.65 E39.0456
G1 X205.21 Y146.883 E39.16215
G1 X206.651 Y148.843 E39.26632
G1 X206.724 Y148.946 E39.27173
G1 X206.912 Y149.224 E39.2861
G1 X207.145 Y149.63 E39.30614
G1 X207.31 Y149.973 E39.32244
G1 X207.509 Y150.501 E39.34661
G1 X207.607 Y150.852 E39.36221
G1 X207.637 Y150.967 E39.3673
G1 X207.723 Y151.326 E39.38311
G1 X207.792 Y151.727 E39.40053
G1 X207.819 Y151.976 E39.41126
G1 X207.838 Y152.273 E39.424
G1 X207.848 Y152.932 E39.45223
G1 X207.848 Y157.597 E39.65199
G1 X207.837 Y158.365 E39.68488
G1 X207.776 Y158.942 E39.70973
G1 X207.662 Y159.517 E39.73483
G1 X207.614 Y159.721 E39.74381
G1 X207.559 Y159.927 E39.75294
G1 X207.417 Y160.344 E39.7718
G1 X207.292 Y160.641 E39.7856
G1 X207.055 Y161.097 E39.80761
G1 X206.733 Y161.612 E39.83362
G1 X206.362 Y162.096 E39.85973
G1 X206.014 Y162.47 E39.88161
G1 X205.643 Y162.81 E39.90316
G1 X205.302 Y163.077 E39.9217
G1 X204.8 Y163.4 E39.94727
G1 X204.35 Y163.633 E39.96897
G1 X203.848 Y163.841 E39.99223
G1 X203.323 Y164.008 E40.01583
G1 X202.91 Y164.11 E40.03404
G1 X202.464 Y164.189 E40.05344
G1 X201.967 Y164.237 E40.07482
G1 X201.3 Y164.25 E40.10339
G1 X201.239 Y164.251 E40.106
G1 X189.473 Y164.256 E40.60985
G1 X189.427 Y164.256 E40.61182
G1 X188.707 Y164.246 E40.64266
G1 X188.498 Y164.236 E40.65162
G1 X187.882 Y164.187 E40.67808
G1 X187.816 Y164.181 E40.68092
G1 X185.984 Y163.997 E40.75976
G1 X183.24 Y163.801 E40.87756
G1 X180.524 Y163.684 E40.99398
G1 X177.643 Y163.642 E41.11736
G1 X6.308 Y163.656 E48.45434
G1 X6.261 Y163.656 E48.45636
G1 X5.581 Y163.646 E48.48548
G1 X5.077 Y163.598 E48.50716
G1 X4.584 Y163.471 E48.52896
G1 X4.462 Y163.429 E48.53448
G1 X3.998 Y163.227 E48.55616
G1 X3.572 Y162.955 E48.5778
G1 X3.194 Y162.619 E48.59946
G1 X2.873 Y162.227 E48.62115
G1 X2.52 Y161.565 E48.65328
G1 X2.486 Y161.478 E48.65728
G1 X2.34 Y160.994 E48.67893
G1 X2.266 Y160.36 E48.70626
G1 X2.256 Y159.706 E48.73427
G1 X2.256 Y159.66 E48.73624
G1 X2.252 Y155.92 E48.8964
G1 X2.252 Y50.036 E53.43061
G1 X2.262 Y49.354 E53.45981
G1 X2.268 Y49.213 E53.46586
G1 X2.284 Y48.941 E53.47753
G1 X2.353 Y48.439 E53.49922
G1 X2.501 Y47.955 E53.5209
G1 X2.722 Y47.501 E53.54252
G1 X3.013 Y47.086 E53.56423
G1 X3.365 Y46.723 E53.58588
G1 X3.824 Y46.386 E53.61026
G1 X3.938 Y46.317 E53.61597
G1 X4.39 Y46.09 E53.63763
G1 X4.873 Y45.937 E53.65932
G1 X5.53 Y45.855 E53.68768
M204 S3000
G1 F3000 E48.18768
G0 F6000 X186.482 Y149.756
M204 S300
;TYPE:SUPPORT
G1 F3000 E53.8124
G1 F1200 X201.696 Y149.756 E54.4639
G1 X202.21 Y149.799 E54.48599
G1 X202.691 Y149.935 E54.5074
G1 X203.028 Y150.097 E54.52341
G1 X203.438 Y150.38 E54.54474
G1 X203.858 Y150.788 E54.56982
G1 X204.09 Y151.123 E54.58727
G1 X204.244 Y151.447 E54.60263
G1 X204.411 Y152.11 E54.63191
G1 X204.436 Y152.342 E54.6419
G1 X204.436 Y158.249 E54.89485
G1 X204.428 Y158.43 E54.90261
G1 X204.264 Y159.079 E54.93127
G1 X204.104 Y159.434 E54.94795
G1 X203.812 Y159.86 E54.97006
G1 X203.669 Y160.014 E54.97906
G1 X203.468 Y160.207 E54.991
G1 X203.205 Y160.402 E55.00502
G1 X202.682 Y160.661 E55.03001
G1 X202.104 Y160.812 E55.05559
G1 X201.861 Y160.839 E55.06606
G1 X188.808 Y160.844 E55.62502
G1 X188.642 Y160.837 E55.63214
G1 X188.132 Y160.714 E55.6546
G1 X187.662 Y160.672 E55.67481
G1 X187.29 Y160.519 E55.69203
G1 X187.094 Y160.513 E55.70043
G1 X186.857 Y160.448 E55.71095
G1 X186.595 Y160.394 E55.72241
G1 X186.482 Y149.756 E56.17798
M204 S3000
G1 F3000 E50.67798
G0 F6000 X193.942 Y154.669
M204 S300
G1 F3000 E56.30271
G1 F1200 X193.84 Y155.182 E56.3251
G1 X194.729 Y157.325 E56.42446
G1 X195.164 Y157.615 E56.44684
G1 X197.988 Y157.615 E56.56777
G1 X199.786 Y155.818 E56.67663
G1 X199.814 Y155.261 E56.70051
G1 X198.617 Y153.804 E56.78126
G1 X198.239 Y153.04 E56.81776
G1 X197.811 Y152.761 E56.83964
G1 X195.787 Y152.68 E56.92638
G1 X195.337 Y152.924 E56.9483
G1 X194.814 Y153.797 E56.99188
G1 X193.942 Y154.669 E57.04469
M204 S3000
G0 F6000 X194 Y154.388
M204 S300
G1 F1200 X194 Y149.914 E57.23628
M204 S3000
G0 F6000 X193 Y149.914
M204 S300
G1 F1200 X193 Y160.685 E57.69752
M204 S3000
G0 F6000 X194 Y160.685
M204 S300
G1 F1200 X194 Y155.981 E57.89896
M204 S3000
G0 F6000 X194.009 Y156
M204 S300
G1 F1200 X186.705 Y156 E58.21173
M204 S3000
G0 F6000 X186.695 Y155
M204 S300
G1 F1200 X193.715 Y155 E58.51234
M204 S3000
G0 F6000 X194.387 Y154
M204 S300
G1 F1200 X186.684 Y154 E58.8422
M204 S3000
G0 F6000 X186.673 Y153
M204 S300
G1 F1200 X195.107 Y153 E59.20337
M204 S3000
G0 F6000 X195 Y153.18
M204 S300
G1 F1200 X195 Y149.914 E59.34323
M204 S3000
G0 F6000 X196 Y149.914
M204 S300
G1 F1200 X196 Y152.53 E59.45525
M204 S3000
G0 F6000 X197 Y152.57
M204 S300
G1 F1200 X197 Y149.914 E59.56899
M204 S3000
G0 F6000 X198 Y149.914
M204 S300
G1 F1200 X198 Y152.694 E59.68803
M204 S3000
G0 F6000 X198.396 Y153
M204 S300
G1 F1200 X204.278 Y153 E59.93991
M204 S3000
G0 F6000 X204.278 Y154
M204 S300
G1 F1200 X198.982 Y154 E60.1667
M204 S3000
G0 F6000 X199 Y154.021
M204 S300
G1 F1200 X199 Y149.914 E60.34257
M204 S3000
G0 F6000 X200 Y149.914
M204 S300
G1 F1200 X200 Y160.682 E60.80369
M204 S3000
G0 F6000 X201 Y160.682
M204 S300
G1 F1200 X201 Y149.914 E61.2648
M204 S3000
G0 F6000 X202 Y149.94
M204 S300
G1 F1200 X202 Y160.665 E61.72407
M204 S3000
G0 F6000 X203 Y160.327
M204 S300
G1 F1200 X203 Y150.27 E62.15473
M204 S3000
G0 F6000 X202.342 Y150
M204 S300
G1 F1200 X186.641 Y150 E62.82709
M204 S3000
G0 F6000 X187 Y149.914
M204 S300
G1 F1200 X187 Y160.323 E63.27283
M204 S3000
G0 F6000 X186.748 Y160
M204 S300
G1 F1200 X203.454 Y160 E63.98822
M204 S3000
G0 F6000 X204 Y159.28
M204 S300
G1 F1200 X204 Y151.301 E64.3299
M204 S3000
G0 F6000 X203.814 Y151
M204 S300
G1 F1200 X186.652 Y151 E65.06482
M204 S3000
G0 F6000 X186.663 Y152
M204 S300
G1 F1200 X204.221 Y152 E65.81669
M204 S3000
G1 F3000 E60.31669
G0 F6000 X204.278 Y155
M204 S300
G1 F3000 E65.94142
G1 F1200 X199.804 Y155 E66.13301
M204 S3000
G0 F6000 X199.828 Y156
M204 S300
G1 F1200 X204.278 Y156 E66.32357
M204 S3000
G0 F6000 X204.278 Y157
M204 S300
G1 F1200 X198.827 Y157 E66.55699
M204 S3000
G0 F6000 X199 Y156.827
M204 S300
G1 F1200 X199 Y160.683 E66.72211
M204 S3000
G0 F6000 X198 Y160.683
M204 S300
G1 F1200 X198 Y157.773 E66.84673
M204 S3000
G0 F6000 X197 Y157.773
M204 S300
G1 F1200 X197 Y160.683 E66.97134
M204 S3000
G0 F6000 X196 Y160.684
M204 S300
G1 F1200 X196 Y157.773 E67.096
M204 S3000
G0 F6000 X195 Y157.695
M204 S300
G1 F1200 X195 Y160.684 E67.22399
M204 S3000
G1 F3000 E61.72399
G0 F6000 X192 Y160.685
M204 S300
G1 F3000 E67.34872
G1 F1200 X192 Y149.914 E67.80996
M204 S3000
G0 F6000 X191 Y149.914
M204 S300
G1 F1200 X191 Y160.686 E68.27124
M204 S3000
G0 F6000 X190 Y160.686
M204 S300
G1 F1200 X190 Y149.914 E68.73252
M204 S3000
G0 F6000 X189 Y149.914
M204 S300
G1 F1200 X189 Y160.686 E69.19381
M204 S3000
G0 F6000 X188 Y160.543
M204 S300
G1 F1200 X188 Y149.914 E69.64897
M204 S3000
G1 F3000 E64.14897
G0 F6000 X186.716 Y157
M204 S300
G1 F3000 E69.77369
G1 F1200 X194.424 Y157 E70.10377
M204 S3000
G1 F3000 E64.60377
G0 F6000 X186.726 Y158
M204 S300
G1 F3000 E70.22849
G1 F1200 X204.278 Y158 E70.98011
M204 S3000
G0 F6000 X204.12 Y159
M204 S300
G1 F1200 X186.737 Y159 E71.7245
M204 S3000
G1 F3000 E66.2245
;MESH:PSUCover_90x14_rotated_2019.stl
G0 F6000 X20.116 Y146.01
G0 X19.965 Y145.448
M204 S300
;TYPE:WALL-INNER
G1 F3000 E71.84922
G1 F1200 X19.904 Y144.914 E71.87224
G1 X19.756 Y144.401 E71.8951
G1 X19.519 Y143.922 E71.91799
G1 X19.202 Y143.492 E71.94086
G1 X18.818 Y143.122 E71.9637
G1 X18.372 Y142.824 E71.98667
G1 X17.883 Y142.608 E72.00956
G1 X17.364 Y142.482 E72.03243
G1 X16.832 Y142.445 E72.05527
G1 X16.298 Y142.504 E72.07827
G1 X15.785 Y142.655 E72.10117
G1 X15.307 Y142.89 E72.12398
G1 X14.875 Y143.207 E72.14693
G1 X14.504 Y143.592 E72.16982
G1 X14.207 Y144.038 E72.19277
G1 X13.991 Y144.529 E72.21574
G1 X13.866 Y145.047 E72.23856
G1 X13.829 Y145.578 E72.26135
G1 X13.888 Y146.111 E72.28432
G1 X14.037 Y146.625 E72.30723
G1 X14.274 Y147.104 E72.33012
G1 X14.591 Y147.534 E72.35299
G1 X14.974 Y147.904 E72.3758
G1 X15.42 Y148.202 E72.39877
G1 X15.912 Y148.419 E72.42179
G1 X16.431 Y148.544 E72.44466
G1 X16.963 Y148.581 E72.46749
G1 X17.494 Y148.522 E72.49037
G1 X18.008 Y148.373 E72.51329
G1 X18.488 Y148.136 E72.53621
G1 X18.92 Y147.819 E72.55916
G1 X19.288 Y147.433 E72.58199
G1 X19.585 Y146.99 E72.60483
G1 X19.802 Y146.498 E72.62786
G1 X19.927 Y145.981 E72.65064
G1 X19.965 Y145.448 E72.67352
M204 S3000
G0 F6000 X19.551 Y145.456
M204 S300
;TYPE:WALL-OUTER
G1 F1200 X19.499 Y144.995 E72.69339
G1 X19.37 Y144.551 E72.71319
G1 X19.166 Y144.137 E72.73295
G1 X18.891 Y143.764 E72.75279
G1 X18.559 Y143.444 E72.77254
G1 X18.173 Y143.187 E72.7924
G1 X17.75 Y143 E72.8122
G1 X17.301 Y142.891 E72.83199
G1 X16.84 Y142.859 E72.85178
G1 X16.379 Y142.91 E72.87164
G1 X15.935 Y143.04 E72.89145
G1 X15.521 Y143.244 E72.91121
G1 X15.147 Y143.518 E72.93107
G1 X14.827 Y143.851 E72.95084
G1 X14.57 Y144.237 E72.9707
G1 X14.383 Y144.661 E72.99055
G1 X14.275 Y145.11 E73.01032
G1 X14.243 Y145.57 E73.03007
G1 X14.294 Y146.03 E73.04989
G1 X14.423 Y146.475 E73.06973
G1 X14.627 Y146.889 E73.08949
G1 X14.902 Y147.262 E73.10934
G1 X15.234 Y147.582 E73.12908
G1 X15.619 Y147.84 E73.14893
G1 X16.044 Y148.027 E73.16881
G1 X16.494 Y148.135 E73.18863
G1 X16.954 Y148.167 E73.20838
G1 X17.413 Y148.116 E73.22815
G1 X17.859 Y147.987 E73.24803
G1 X18.273 Y147.783 E73.2678
G1 X18.647 Y147.508 E73.28768
G1 X18.966 Y147.174 E73.30745
G1 X19.223 Y146.791 E73.32721
G1 X19.41 Y146.366 E73.34709
G1 X19.518 Y145.918 E73.36682
G1 X19.551 Y145.456 E73.38666
M204 S3000
G0 F6000 X19.529 Y145.257
G0 X19.98 Y145.207
G1 F3000 E67.88666
G0 F6000 X18.938 Y142.973
G0 X19.198 Y139.944
G0 X13.812 Y72.114
M204 S300
;TYPE:WALL-INNER
G1 F3000 E73.51138
G1 F1200 X13.368 Y72.858 E73.54848
G1 X12.998 Y73.638 E73.58545
G1 X12.707 Y74.454 E73.62255
G1 X12.497 Y75.294 E73.65963
