;FLAVOR:Marlin
;TIME:3899
;Filament used: 7.35936m
;Layer height: 0.3
;MINX:12.049
;MINY:36.304
;MINZ:0.3
;MAXX:197.948
;MAXY:173.696
;MAXZ:14.4
;Generated with Cura_SteamEngine master
M140 S60
M105
M190 S60
M104 S200
M105
M109 S200
M82 ;absolute extrusion mode
; Sliced for AnyCubic Mega S
G21 ;metric values
G90 ;absolute positioning
M82 ;set extruder to absolute mode
M107 ;start with the fan off
G28 X0 Y0 ;move X/Y to min endstops
G28 Z0 ;move Z to min endstops
G1 Z15.0 F100 ;move the platform down 15mm
G92 E0 ;zero the extruded length
G1 F200 E3 ;extrude 3mm of feed stock
G92 E0 ;zero the extruded length again
G1 F100
M117 Printing...
G5
G92 E0
G92 E0
G1 F2400 E-6
;LAYER_COUNT:48
;LAYER:0
M106 S255
M204 S3000
M205 X10 Y10
G1 F600 Z0.375
G0 F3000 X26.827 Y37.437 Z0.375
M204 S1800
M205 X8 Y8
;TYPE:SKIRT
G1 F600 Z0.3
G1 F2400 E0
G1 X27.439 Y37.068 E0.04991
G1 X28.09 Y36.77 E0.09992
G1 X28.769 Y36.546 E0.14986
G1 X29.469 Y36.399 E0.19982
G1 X30.297 Y36.327 E0.25787
G1 X31.344 Y36.305 E0.33102
G1 X32.6 Y36.304 E0.41874
G1 X33.39 Y36.315 E0.47393
G1 X34.103 Y36.365 E0.52385
G1 X34.807 Y36.494 E0.57384
G1 X35.491 Y36.702 E0.62378
G1 X36.148 Y36.984 E0.67371
G1 X36.77 Y37.338 E0.7237
G1 X37.348 Y37.759 E0.77365
G1 X37.766 Y38.131 E0.81273
G1 X38.245 Y38.598 E0.85945
G1 X39.332 Y39.698 E0.96747
G1 X41.275 Y41.557 E1.15529
G1 X43.226 Y43.321 E1.339
G1 X45.239 Y45.041 E1.52394
G1 X47.304 Y46.704 E1.70913
G1 X49.401 Y48.298 E1.89311
G1 X51.571 Y49.854 E2.07961
G1 X53.741 Y51.319 E2.26248
G1 X56.013 Y52.76 E2.4504
G1 X58.234 Y54.082 E2.63093
G1 X60.574 Y55.388 E2.8181
G1 X62.926 Y56.614 E3.00336
G1 X65.331 Y57.782 E3.1901
G1 X67.724 Y58.862 E3.37348
G1 X70.141 Y59.872 E3.55645
G1 X72.668 Y60.846 E3.7456
G1 X75.109 Y61.704 E3.92632
G1 X77.661 Y62.524 E4.11355
G1 X80.183 Y63.256 E4.29697
G1 X82.775 Y63.93 E4.48403
G1 X85.333 Y64.518 E4.66736
G1 X87.956 Y65.044 E4.85421
G1 X90.523 Y65.482 E5.0361
G1 X93.176 Y65.858 E5.22325
G1 X95.791 Y66.155 E5.40707
G1 X98.424 Y66.378 E5.59164
G1 X101.054 Y66.525 E5.77562
G1 X103.737 Y66.6 E5.96309
G1 X106.38 Y66.6 E6.1477
G1 X108.986 Y66.525 E6.32979
G1 X111.658 Y66.373 E6.51672
G1 X114.299 Y66.147 E6.70186
G1 X116.915 Y65.849 E6.88576
G1 X119.538 Y65.475 E7.07082
G1 X122.16 Y65.024 E7.25665
G1 X124.729 Y64.508 E7.43966
G1 X127.339 Y63.907 E7.62673
G1 X129.879 Y63.245 E7.81007
G1 X132.419 Y62.506 E7.99484
G1 X134.96 Y61.687 E8.18131
G1 X137.451 Y60.808 E8.36581
G1 X139.881 Y59.87 E8.54774
G1 X142.387 Y58.822 E8.73746
G1 X144.742 Y57.757 E8.91799
G1 X147.176 Y56.574 E9.10701
G1 X149.486 Y55.367 E9.28905
G1 X151.803 Y54.073 E9.47442
G1 X154.104 Y52.7 E9.66157
G1 X156.321 Y51.292 E9.84501
G1 X158.502 Y49.818 E10.02887
G1 X160.674 Y48.259 E10.21561
G1 X162.749 Y46.678 E10.39782
G1 X164.844 Y44.987 E10.58586
G1 X166.817 Y43.3 E10.76718
G1 X168.822 Y41.485 E10.95608
G1 X170.732 Y39.654 E11.14088
G1 X172.151 Y38.227 E11.28144
G1 X172.683 Y37.749 E11.3314
G1 X173.265 Y37.333 E11.38136
G1 X173.89 Y36.985 E11.43133
G1 X174.55 Y36.708 E11.48132
G1 X175.236 Y36.507 E11.53125
G1 X175.941 Y36.384 E11.58124
G1 X176.524 Y36.342 E11.62206
G1 X177.456 Y36.318 E11.68718
G1 X179.019 Y36.307 E11.79635
G1 X179.646 Y36.315 E11.84015
G1 X180.36 Y36.365 E11.89014
G1 X181.063 Y36.494 E11.94006
G1 X181.748 Y36.701 E11.99005
G1 X182.405 Y36.983 E12.03998
G1 X183.027 Y37.337 E12.08997
G1 X183.605 Y37.758 E12.13992
G1 X184.133 Y38.24 E12.18985
G1 X184.74 Y38.961 E12.25568
G1 X185.333 Y39.78 E12.3263
G1 X186.935 Y41.943 E12.51431
G1 X188.573 Y44.028 E12.6995
G1 X190.283 Y46.082 E12.88618
G1 X190.661 Y46.527 E12.92696
G1 X191.185 Y47.184 E12.98565
G1 X191.704 Y47.949 E13.05022
G1 X192.214 Y48.945 E13.12838
G1 X192.596 Y49.978 E13.20531
G1 X192.76 Y50.714 E13.25797
G1 X192.894 Y51.832 E13.33662
G1 X192.933 Y52.82 E13.40568
G1 X192.939 Y56.048 E13.63115
G1 X192.978 Y58.722 E13.81793
G1 X193.089 Y61.354 E14.00193
G1 X193.278 Y63.999 E14.18715
G1 X193.543 Y66.66 E14.37393
G1 X193.879 Y69.28 E14.55842
G1 X194.285 Y71.864 E14.74112
G1 X194.776 Y74.502 E14.92854
G1 X195.326 Y77.05 E15.11061
G1 X195.963 Y79.651 E15.29765
G1 X196.662 Y82.184 E15.48118
G1 X197.666 Y85.454 E15.7201
G1 X197.838 Y86.149 E15.77011
G1 X197.93 Y86.858 E15.82004
G1 X197.948 Y87.387 E15.85701
G1 X197.941 Y88.215 E15.91485
G1 X197.882 Y90.602 E16.08162
G1 X197.85 Y91.451 E16.14096
G1 X197.784 Y92.163 E16.19091
G1 X197.552 Y93.154 E16.262
G1 X197.216 Y94.206 E16.33913
G1 X196.419 Y96.827 E16.53048
G1 X195.721 Y99.385 E16.71568
G1 X195.092 Y101.966 E16.90122
G1 X194.543 Y104.549 E17.08567
G1 X194.071 Y107.116 E17.26797
G1 X193.659 Y109.774 E17.45584
G1 X193.33 Y112.393 E17.6402
G1 X193.236 Y113.378 E17.70931
G1 X193.086 Y114.81 E17.80988
G1 X192.971 Y115.516 E17.85984
G1 X192.73 Y116.343 E17.92001
G1 X192.536 Y116.872 E17.95936
G1 X191.582 Y119.334 E18.14378
G1 X191.251 Y120.153 E18.20548
G1 X190.946 Y120.8 E18.25544
G1 X190.571 Y121.409 E18.3054
G1 X190.13 Y121.972 E18.35535
G1 X189.629 Y122.482 E18.40528
G1 X189.182 Y122.853 E18.44586
G1 X188.556 Y123.327 E18.5007
G1 X186.398 Y125.008 E18.69176
G1 X184.337 Y126.709 E18.87841
G1 X182.374 Y128.426 E19.06057
G1 X180.428 Y130.226 E19.24572
G1 X178.536 Y132.08 E19.43074
G1 X176.688 Y133.993 E19.61652
G1 X174.889 Y135.965 E19.80296
G1 X174.204 Y136.756 E19.87604
G1 X173.025 Y138.104 E20.00113
G1 X171.129 Y140.156 E20.19627
G1 X170.344 Y140.983 E20.27591
G1 X168.296 Y143.015 E20.47742
G1 X167.462 Y143.819 E20.55833
G1 X165.331 Y145.756 E20.75947
G1 X164.524 Y146.468 E20.83464
G1 X162.359 Y148.271 E21.03143
G1 X161.468 Y148.991 E21.11144
G1 X159.184 Y150.733 E21.31207
G1 X158.318 Y151.372 E21.38724
G1 X155.975 Y153.003 E21.58664
G1 X155.092 Y153.598 E21.66101
G1 X152.735 Y155.093 E21.85596
G1 X151.686 Y155.737 E21.94193
G1 X149.223 Y157.152 E22.14033
G1 X148.325 Y157.651 E22.21209
G1 X145.799 Y158.962 E22.41087
G1 X144.78 Y159.473 E22.49049
G1 X142.683 Y160.449 E22.65204
G1 X140.316 Y161.587 E22.83548
G1 X137.938 Y162.814 E23.02239
G1 X135.624 Y164.092 E23.20702
G1 X133.346 Y165.437 E23.3918
G1 X131.093 Y166.853 E23.57766
G1 X128.915 Y168.311 E23.76072
G1 X126.742 Y169.855 E23.94691
G1 X124.63 Y171.447 E24.13164
G1 X123.743 Y172.15 E24.21069
G1 X122.848 Y172.782 E24.28722
G1 X122.214 Y173.113 E24.33717
G1 X121.547 Y173.372 E24.38715
G1 X120.856 Y173.555 E24.43708
G1 X120.148 Y173.66 E24.48707
G1 X119.438 Y173.693 E24.53671
G1 X116.379 Y173.696 E24.75037
G1 X115.59 Y173.685 E24.80549
G1 X115.057 Y173.655 E24.84278
G1 X114.276 Y173.578 E24.89759
G1 X111.594 Y173.352 E25.08558
G1 X108.949 Y173.203 E25.27062
G1 X106.271 Y173.128 E25.45774
G1 X103.627 Y173.128 E25.64241
G1 X101.022 Y173.203 E25.82444
G1 X98.349 Y173.355 E26.01144
G1 X95.654 Y173.586 E26.20036
G1 X94.971 Y173.654 E26.24831
G1 X94.191 Y173.693 E26.30285
G1 X91.135 Y173.696 E26.5163
G1 X90.345 Y173.685 E26.57149
G1 X89.632 Y173.635 E26.62141
G1 X88.928 Y173.506 E26.6714
G1 X88.244 Y173.298 E26.72134
G1 X87.587 Y173.016 E26.77127
G1 X86.965 Y172.662 E26.82126
G1 X86.508 Y172.338 E26.86039
G1 X85.733 Y171.735 E26.92898
G1 X83.557 Y170.079 E27.11997
G1 X81.395 Y168.529 E27.30577
G1 X79.205 Y167.051 E27.49031
G1 X76.977 Y165.636 E27.67466
G1 X74.717 Y164.291 E27.85835
G1 X72.38 Y162.986 E28.04531
G1 X70.049 Y161.771 E28.22891
G1 X67.256 Y160.42 E28.44562
G1 X65.754 Y159.724 E28.56124
G1 X64.727 Y159.231 E28.64081
G1 X62.256 Y157.956 E28.83502
G1 X61.2 Y157.392 E28.91864
G1 X58.764 Y155.998 E29.11467
G1 X57.804 Y155.43 E29.19258
G1 X55.43 Y153.933 E29.38861
G1 X54.442 Y153.29 E29.47095
G1 X52.123 Y151.683 E29.66801
G1 X51.231 Y151.045 E29.74461
G1 X48.969 Y149.328 E29.94296
G1 X48.08 Y148.632 E30.02182
G1 X45.904 Y146.826 E30.21934
G1 X45.046 Y146.093 E30.29816
G1 X42.95 Y144.196 E30.49561
G1 X42.137 Y143.441 E30.5731
G1 X40.11 Y141.44 E30.77205
G1 X39.328 Y140.645 E30.84994
G1 X37.701 Y138.895 E31.01683
G1 X35.805 Y136.765 E31.21601
G1 X34.525 Y135.307 E31.35152
G1 X32.729 Y133.374 E31.53581
G1 X30.857 Y131.469 E31.72236
G1 X28.955 Y129.64 E31.90667
G1 X27.013 Y127.876 E32.08991
G1 X24.995 Y126.143 E32.2757
G1 X22.935 Y124.476 E32.4608
G1 X21.321 Y123.248 E32.60245
G1 X20.759 Y122.809 E32.65226
G1 X20.221 Y122.338 E32.7022
G1 X19.739 Y121.809 E32.75219
G1 X19.319 Y121.23 E32.80215
G1 X18.896 Y120.463 E32.86333
G1 X18.584 Y119.759 E32.91711
G1 X17.54 Y117.068 E33.11872
G1 X17.281 Y116.376 E33.17033
G1 X17.069 Y115.693 E33.22028
G1 X16.912 Y114.808 E33.28305
G1 X16.784 Y113.598 E33.36804
G1 X16.73 Y113.01 E33.40928
G1 X16.419 Y110.4 E33.59287
G1 X16.029 Y107.747 E33.78016
G1 X15.574 Y105.175 E33.9626
G1 X15.039 Y102.571 E34.14828
G1 X14.433 Y99.999 E34.33284
G1 X13.756 Y97.449 E34.51712
G1 X12.774 Y94.176 E34.75579
G1 X12.452 Y93.169 E34.82964
G1 X12.273 Y92.476 E34.87963
G1 X12.158 Y91.572 E34.94328
G1 X12.13 Y91.02 E34.98188
G1 X12.059 Y88.235 E35.17647
G1 X12.049 Y87.415 E35.23375
G1 X12.081 Y86.701 E35.28367
G1 X12.193 Y85.994 E35.33366
G1 X12.334 Y85.455 E35.37258
G1 X12.653 Y84.423 E35.44803
G1 X12.899 Y83.667 E35.50355
G1 X13.648 Y81.106 E35.68992
G1 X14.314 Y78.57 E35.87306
G1 X14.921 Y75.958 E36.06036
G1 X15.447 Y73.375 E36.24448
G1 X15.897 Y70.766 E36.4294
G1 X16.273 Y68.165 E36.61295
G1 X16.579 Y65.522 E36.79879
G1 X16.81 Y62.879 E36.9841
G1 X16.965 Y60.241 E37.16867
G1 X17.045 Y57.589 E37.35399
G1 X17.058 Y55.998 E37.46512
G1 X17.057 Y53.006 E37.6741
G1 X17.067 Y52.251 E37.72684
G1 X17.119 Y51.516 E37.7783
G1 X17.187 Y50.99 E37.81535
G1 X17.318 Y50.287 E37.86529
G1 X17.579 Y49.465 E37.92553
G1 X17.774 Y48.97 E37.96269
G1 X18.073 Y48.32 E38.01266
G1 X18.518 Y47.6 E38.07178
G1 X19.08 Y46.847 E38.13741
G1 X19.727 Y46.077 E38.20766
G1 X21.455 Y43.999 E38.39642
G1 X23.074 Y41.936 E38.57959
G1 X24.549 Y39.915 E38.75435
G1 X25.287 Y38.919 E38.84093
G1 X25.744 Y38.368 E38.89093
G1 X26.259 Y37.873 E38.94082
G1 X26.827 Y37.437 E38.99084
M204 S3000
M205 X10 Y10
G0 F3000 X27.218 Y37.849
M204 S1800
M205 X8 Y8
G1 F2400 X27.81 Y37.507 E39.03859
G1 X28.437 Y37.237 E39.08627
G1 X29.092 Y37.042 E39.134
G1 X29.765 Y36.924 E39.18173
G1 X30.308 Y36.887 E39.21974
G1 X31.355 Y36.865 E39.29289
G1 X32.6 Y36.864 E39.37985
G1 X33.382 Y36.875 E39.43447
G1 X34.063 Y36.924 E39.48216
G1 X34.734 Y37.053 E39.52988
G1 X35.385 Y37.26 E39.5776
G1 X36.008 Y37.541 E39.62533
G1 X36.594 Y37.893 E39.67308
G1 X37.375 Y38.532 E39.74356
G1 X37.854 Y38.999 E39.79029
G1 X38.961 Y40.118 E39.90023
G1 X40.872 Y41.947 E40.08499
G1 X42.863 Y43.747 E40.27246
G1 X44.886 Y45.475 E40.45829
G1 X46.972 Y47.155 E40.64536
G1 X49.071 Y48.751 E40.82954
G1 X51.233 Y50.301 E41.01534
G1 X53.447 Y51.796 E41.20194
G1 X55.714 Y53.233 E41.38941
G1 X57.968 Y54.575 E41.57263
G1 X60.32 Y55.888 E41.76078
G1 X62.673 Y57.114 E41.9461
G1 X65.076 Y58.282 E42.13271
G1 X67.485 Y59.369 E42.31731
G1 X69.974 Y60.409 E42.50572
G1 X72.437 Y61.358 E42.69008
G1 X74.984 Y62.253 E42.87864
G1 X77.468 Y63.051 E43.06087
G1 X80.03 Y63.795 E43.24721
G1 X82.653 Y64.477 E43.43651
G1 X85.199 Y65.062 E43.61897
G1 X87.855 Y65.595 E43.80818
G1 X90.455 Y66.038 E43.9924
G1 X93.074 Y66.409 E44.17716
G1 X95.75 Y66.713 E44.36527
G1 X98.383 Y66.936 E44.54983
G1 X101.042 Y67.085 E44.73584
G1 X103.721 Y67.16 E44.92303
G1 X106.361 Y67.16 E45.10743
G1 X109.032 Y67.083 E45.29407
G1 X111.705 Y66.931 E45.48107
G1 X114.372 Y66.703 E45.66803
G1 X116.988 Y66.405 E45.85193
G1 X119.608 Y66.031 E46.03678
G1 X122.263 Y65.575 E46.22494
G1 X124.848 Y65.056 E46.40909
G1 X127.47 Y64.452 E46.59702
G1 X130.042 Y63.782 E46.78266
G1 X132.571 Y63.045 E46.96665
G1 X135.142 Y62.217 E47.15531
G1 X137.65 Y61.331 E47.34109
G1 X140.091 Y60.39 E47.52382
G1 X142.597 Y59.342 E47.71354
G1 X144.997 Y58.256 E47.89754
G1 X147.402 Y57.087 E48.08431
G1 X149.783 Y55.844 E48.27191
G1 X152.07 Y54.566 E48.4549
G1 X154.394 Y53.179 E48.64393
G1 X156.616 Y51.768 E48.82778
G1 X158.823 Y50.276 E49.01385
G1 X160.998 Y48.715 E49.20084
G1 X163.104 Y47.111 E49.38574
G1 X165.197 Y45.422 E49.5736
G1 X167.198 Y43.71 E49.75753
G1 X169.198 Y41.9 E49.94594
G1 X171.119 Y40.059 E50.13178
G1 X172.548 Y38.622 E50.27333
G1 X173.058 Y38.166 E50.32111
G1 X173.617 Y37.773 E50.36884
G1 X174.218 Y37.449 E50.41653
G1 X174.853 Y37.196 E50.46427
G1 X175.513 Y37.02 E50.51198
G1 X176.189 Y36.921 E50.5597
G1 X177.471 Y36.878 E50.64929
G1 X179.022 Y36.867 E50.75763
G1 X179.638 Y36.875 E50.80066
G1 X180.32 Y36.924 E50.84841
G1 X180.991 Y37.053 E50.89614
G1 X181.642 Y37.259 E50.94383
G1 X182.265 Y37.54 E50.99157
G1 X182.85 Y37.892 E51.03925
G1 X183.391 Y38.31 E51.08701
G1 X183.879 Y38.788 E51.13472
G1 X184.287 Y39.29 E51.1799
G1 X184.881 Y40.111 E51.25068
G1 X186.488 Y42.28 E51.43923
G1 X188.133 Y44.374 E51.62522
G1 X189.856 Y46.444 E51.81333
G1 X190.234 Y46.889 E51.85411
G1 X190.745 Y47.531 E51.91142
G1 X191.219 Y48.229 E51.97036
G1 X191.696 Y49.158 E52.0433
G1 X192.066 Y50.161 E52.11797
G1 X192.208 Y50.803 E52.16389
G1 X192.334 Y51.854 E52.23783
G1 X192.373 Y52.842 E52.30689
G1 X192.379 Y56.048 E52.53082
G1 X192.417 Y58.717 E52.71725
G1 X192.531 Y61.4 E52.90482
G1 X192.72 Y64.06 E53.09108
G1 X192.981 Y66.679 E53.27491
G1 X193.326 Y69.368 E53.46427
G1 X193.737 Y71.984 E53.64923
G1 X194.22 Y74.579 E53.83359
G1 X194.784 Y77.191 E54.02024
G1 X195.414 Y79.765 E54.20533
G1 X196.131 Y82.363 E54.39357
G1 X197.131 Y85.619 E54.63148
G1 X197.293 Y86.283 E54.67921
G1 X197.376 Y86.961 E54.72692
G1 X197.381 Y88.21 E54.81416
G1 X197.322 Y90.588 E54.98031
G1 X197.291 Y91.43 E55.03916
G1 X197.225 Y92.11 E55.08688
G1 X197.019 Y92.984 E55.14959
G1 X196.657 Y94.119 E55.2328
G1 X195.887 Y96.652 E55.41772
G1 X195.178 Y99.25 E55.60582
G1 X194.544 Y101.853 E55.79294
G1 X194.001 Y104.407 E55.97532
G1 X193.51 Y107.073 E56.16466
G1 X193.105 Y109.688 E56.34948
G1 X192.776 Y112.303 E56.53357
G1 X192.679 Y113.325 E56.60527
G1 X192.529 Y114.751 E56.70542
G1 X192.418 Y115.425 E56.75314
G1 X192.204 Y116.15 E56.80593
G1 X192.01 Y116.679 E56.84529
G1 X191.06 Y119.131 E57.02896
G1 X190.732 Y119.943 E57.09012
G1 X190.439 Y120.56 E57.13783
G1 X190.076 Y121.139 E57.18556
G1 X189.648 Y121.671 E57.23325
G1 X189.16 Y122.15 E57.28101
G1 X188.187 Y122.904 E57.36699
G1 X186.038 Y124.579 E57.5573
G1 X184.008 Y126.254 E57.74112
G1 X181.966 Y128.04 E57.93061
G1 X180.051 Y129.811 E58.11279
G1 X178.137 Y131.686 E58.29994
G1 X176.268 Y133.623 E58.48794
G1 X174.486 Y135.576 E58.6726
G1 X173.781 Y136.389 E58.74776
G1 X172.604 Y137.735 E58.87265
G1 X170.718 Y139.776 E59.06675
G1 X169.938 Y140.597 E59.14585
G1 X167.902 Y142.617 E59.34617
G1 X167.073 Y143.416 E59.42659
G1 X164.955 Y145.342 E59.62654
G1 X164.154 Y146.048 E59.70112
G1 X162.001 Y147.84 E59.89677
G1 X161.116 Y148.555 E59.97624
G1 X158.845 Y150.287 E60.17573
G1 X157.986 Y150.921 E60.2503
G1 X155.655 Y152.543 E60.44864
G1 X154.779 Y153.133 E60.52241
G1 X152.435 Y154.62 E60.7163
G1 X151.393 Y155.26 E60.80171
G1 X148.945 Y156.666 E60.99889
G1 X148.054 Y157.162 E61.07011
G1 X145.541 Y158.465 E61.26783
G1 X144.529 Y158.972 E61.34689
G1 X142.484 Y159.924 E61.50444
G1 X140.025 Y161.106 E61.69501
G1 X137.704 Y162.304 E61.87744
G1 X135.347 Y163.606 E62.06552
G1 X133.041 Y164.967 E62.25254
G1 X130.786 Y166.384 E62.43856
G1 X128.597 Y167.85 E62.62258
G1 X126.416 Y169.399 E62.80942
G1 X124.274 Y171.015 E62.99683
G1 X123.395 Y171.711 E63.07514
G1 X122.534 Y172.316 E63.14864
G1 X121.927 Y172.629 E63.19634
G1 X121.287 Y172.867 E63.24404
G1 X120.623 Y173.03 E63.29179
G1 X119.747 Y173.123 E63.35332
G1 X119.242 Y173.136 E63.38861
G1 X116.379 Y173.136 E63.58858
G1 X115.598 Y173.125 E63.64313
G1 X114.294 Y173.018 E63.73452
G1 X111.638 Y172.793 E63.92069
G1 X108.961 Y172.643 E64.10796
G1 X106.287 Y172.568 E64.29481
G1 X103.646 Y172.568 E64.47927
G1 X100.974 Y172.645 E64.66598
G1 X98.307 Y172.797 E64.85256
G1 X95.613 Y173.027 E65.04141
G1 X94.915 Y173.097 E65.09041
G1 X94.174 Y173.133 E65.14222
G1 X91.135 Y173.136 E65.35449
G1 X90.353 Y173.125 E65.40911
G1 X89.672 Y173.076 E65.4568
G1 X89.001 Y172.947 E65.50453
G1 X88.35 Y172.74 E65.55224
G1 X87.727 Y172.459 E65.59998
G1 X87.141 Y172.107 E65.64772
G1 X86.072 Y171.289 E65.74174
G1 X83.887 Y169.626 E65.93353
G1 X81.733 Y168.082 E66.11864
G1 X79.5 Y166.574 E66.30684
