;FLAVOR:Marlin
;TIME:3922
;Filament used: 1.4426m
;Layer height: 0.1
;MINX:90.227
;MINY:86.328
;MINZ:0.1
;MAXX:120.125
;MAXY:124.487
;MAXZ:15.075
;Generated with Cura_SteamEngine master
M140 S60
M105
M190 S60
M104 S200
M105
M109 S200
M82 ;absolute extrusion mode
; Sliced for AnyCubic Mega S
;
G21 ;metric values
G90 ;absolute positioning
M82 ;set extruder to absolute mode
M107 ;start with the fan off
G28 X0 Y0 ;move X/Y to min endstops
G28 Z0 ;move Z to min endstops
G1 Z15.0 F50 ;move the platform down 15mm
G92 E0 ;zero the extruded length
G1 F200 E3 ;extrude 3mm of feed stock
G92 E0 ;zero the extruded length again
G1 F50
M117 Printing...
G5
G92 E0
G92 E0
G1 F2400 E-6
;LAYER_COUNT:150
;LAYER:0
M106 S255
M204 S3000
M205 X10 Y10
G1 F600 Z0.175
G0 F1500 X93.332 Y88.275 Z0.175
M204 S1800
M205 X8 Y8
;TYPE:SKIRT
G1 F600 Z0.1
G1 F2400 E0
G1 X93.859 Y87.791 E0.01666
G1 X94.436 Y87.369 E0.0333
G1 X95.057 Y87.014 E0.04996
G1 X95.714 Y86.73 E0.06662
G1 X96.398 Y86.522 E0.08327
G1 X97.101 Y86.391 E0.09991
G1 X97.774 Y86.34 E0.11563
G1 X98.081 Y86.333 E0.12278
G1 X98.224 Y86.331 E0.12611
G1 X104.182 Y86.328 E0.26482
G1 X104.275 Y86.329 E0.26699
G1 X104.983 Y86.339 E0.28347
G1 X105.697 Y86.389 E0.30014
G1 X106.41 Y86.52 E0.31701
G1 X107.434 Y86.77 E0.34156
G1 X110.071 Y87.376 E0.40455
G1 X112.693 Y87.902 E0.46681
G1 X114.152 Y88.15 E0.50127
G1 X114.25 Y88.168 E0.50359
G1 X114.88 Y88.285 E0.51851
G1 X115.574 Y88.454 E0.53514
G1 X116.246 Y88.7 E0.5518
G1 X116.886 Y89.02 E0.56846
G1 X117.486 Y89.409 E0.58511
G1 X118.039 Y89.863 E0.60176
G1 X118.538 Y90.375 E0.61841
G1 X118.977 Y90.94 E0.63507
G1 X119.35 Y91.55 E0.65171
G1 X119.653 Y92.198 E0.66837
G1 X119.881 Y92.876 E0.68502
G1 X120.032 Y93.575 E0.70167
G1 X120.104 Y94.276 E0.71808
G1 X120.116 Y94.531 E0.72402
G1 X120.123 Y94.83 E0.73099
G1 X120.125 Y101.316 E0.88199
G1 X120.124 Y101.41 E0.88418
G1 X120.114 Y102.108 E0.90043
G1 X120.064 Y102.821 E0.91708
G1 X119.974 Y103.353 E0.92964
G1 X119.711 Y104.584 E0.95894
G1 X119.69 Y104.676 E0.96114
G1 X119.594 Y105.094 E0.97113
G1 X119.078 Y107.68 E1.03252
G1 X118.629 Y110.323 E1.09494
G1 X118.262 Y112.916 E1.15591
G1 X117.964 Y115.552 E1.21767
G1 X117.834 Y116.849 E1.24802
G1 X117.723 Y117.556 E1.26468
G1 X117.534 Y118.246 E1.28134
G1 X117.269 Y118.91 E1.29798
G1 X116.932 Y119.541 E1.31464
G1 X116.496 Y120.169 E1.33244
G1 X116.437 Y120.244 E1.33466
G1 X115.964 Y120.781 E1.35132
G1 X115.434 Y121.261 E1.36797
G1 X114.854 Y121.679 E1.38461
G1 X114.231 Y122.03 E1.40126
G1 X113.572 Y122.31 E1.41793
G1 X113.149 Y122.445 E1.42827
G1 X112.548 Y122.615 E1.44281
G1 X112.462 Y122.639 E1.44489
G1 X107.972 Y123.842 E1.55311
G1 X107.885 Y123.865 E1.55521
G1 X107.181 Y124.043 E1.57212
G1 X106.479 Y124.179 E1.58876
G1 X106.113 Y124.218 E1.59733
G1 X104.726 Y124.327 E1.62973
G1 X104.646 Y124.333 E1.63159
G1 X104.301 Y124.356 E1.63964
G1 X103.446 Y124.432 E1.65963
G1 X103.316 Y124.442 E1.66266
G1 X102.996 Y124.464 E1.67013
G1 X102.639 Y124.478 E1.67845
G1 X102.014 Y124.486 E1.693
G1 X101.932 Y124.487 E1.69491
G1 X98.67 Y124.487 E1.77086
G1 X98.578 Y124.486 E1.773
G1 X98.023 Y124.478 E1.78592
G1 X97.632 Y124.461 E1.79503
G1 X97.434 Y124.446 E1.79966
G1 X96.724 Y124.352 E1.81633
G1 X96.03 Y124.18 E1.83298
G1 X95.36 Y123.931 E1.84962
G1 X94.721 Y123.609 E1.86628
G1 X94.122 Y123.218 E1.88293
G1 X93.571 Y122.762 E1.89959
G1 X93.074 Y122.248 E1.91623
G1 X92.637 Y121.681 E1.9329
G1 X92.267 Y121.069 E1.94955
G1 X91.966 Y120.42 E1.9662
G1 X91.707 Y119.611 E1.98598
G1 X91.566 Y119.045 E1.99956
G1 X91.546 Y118.963 E2.00153
G1 X91.174 Y117.38 E2.03939
G1 X90.873 Y116.26 E2.06639
G1 X90.855 Y116.19 E2.06807
G1 X90.506 Y114.829 E2.10078
G1 X90.366 Y114.12 E2.11761
G1 X90.314 Y113.746 E2.1264
G1 X90.294 Y113.588 E2.13011
G1 X90.26 Y113.289 E2.13711
G1 X90.228 Y112.222 E2.16197
G1 X90.289 Y111.09 E2.18836
G1 X90.402 Y108.422 E2.25053
G1 X90.439 Y105.779 E2.31207
G1 X90.4 Y103.126 E2.37385
G1 X90.297 Y100.637 E2.43185
G1 X90.229 Y99.41 E2.46046
G1 X90.227 Y98.728 E2.47634
G1 X90.242 Y98.436 E2.48314
G1 X90.255 Y98.247 E2.48755
G1 X90.284 Y97.889 E2.49592
G1 X90.426 Y96.971 E2.51754
G1 X90.553 Y96.419 E2.53073
G1 X90.571 Y96.345 E2.5325
G1 X90.964 Y94.724 E2.57134
G1 X91.4 Y92.613 E2.62152
G1 X91.412 Y92.556 E2.62288
G1 X91.664 Y91.388 E2.6507
G1 X91.854 Y90.699 E2.66734
G1 X92.119 Y90.034 E2.68401
G1 X92.457 Y89.404 E2.70065
G1 X92.863 Y88.815 E2.71731
G1 X93.332 Y88.275 E2.73396
M204 S3000
M205 X10 Y10
G0 F1500 X93.842 Y88.558
M204 S1800
M205 X8 Y8
G1 F2400 X94.358 Y88.11 E2.74987
G1 X94.923 Y87.726 E2.76577
G1 X95.529 Y87.41 E2.78169
G1 X96.168 Y87.167 E2.7976
G1 X96.83 Y87.001 E2.81349
G1 X97.787 Y86.9 E2.8359
G1 X98.094 Y86.893 E2.84305
G1 X98.224 Y86.891 E2.84607
G1 X104.182 Y86.888 E2.98479
G1 X104.267 Y86.889 E2.98677
G1 X104.975 Y86.899 E3.00325
G1 X105.657 Y86.948 E3.01917
G1 X106.277 Y87.064 E3.03386
G1 X107.329 Y87.321 E3.05907
G1 X109.945 Y87.921 E3.12156
G1 X112.586 Y88.452 E3.18428
G1 X114.058 Y88.702 E3.21904
G1 X114.147 Y88.718 E3.22114
G1 X114.777 Y88.835 E3.23606
G1 X115.441 Y88.999 E3.25199
G1 X116.08 Y89.239 E3.26788
G1 X116.687 Y89.552 E3.28378
G1 X117.254 Y89.934 E3.2997
G1 X117.772 Y90.38 E3.31561
G1 X118.234 Y90.883 E3.33151
G1 X118.635 Y91.437 E3.34743
G1 X118.968 Y92.033 E3.36333
G1 X119.229 Y92.664 E3.37923
G1 X119.415 Y93.322 E3.39515
G1 X119.545 Y94.302 E3.41816
G1 X119.557 Y94.557 E3.42411
G1 X119.563 Y94.83 E3.43046
G1 X119.565 Y101.316 E3.58147
G1 X119.564 Y101.402 E3.58347
G1 X119.554 Y102.1 E3.59973
G1 X119.505 Y102.781 E3.61562
G1 X119.426 Y103.236 E3.62637
G1 X119.163 Y104.467 E3.65568
G1 X119.144 Y104.551 E3.65769
G1 X119.05 Y104.962 E3.6675
G1 X118.519 Y107.62 E3.73061
G1 X118.077 Y110.22 E3.79201
G1 X117.705 Y112.848 E3.85381
G1 X117.415 Y115.415 E3.91395
G1 X117.277 Y116.794 E3.94622
G1 X117.169 Y117.468 E3.96211
G1 X116.984 Y118.126 E3.97802
G1 X116.722 Y118.757 E3.99393
G1 X116.389 Y119.353 E4.00983
G1 X116.056 Y119.823 E4.02324
G1 X115.997 Y119.898 E4.02546
G1 X115.544 Y120.409 E4.04136
G1 X115.034 Y120.864 E4.05727
G1 X114.475 Y121.256 E4.07317
G1 X113.873 Y121.581 E4.08909
G1 X112.997 Y121.907 E4.11086
G1 X112.396 Y122.077 E4.1254
G1 X112.317 Y122.098 E4.1273
G1 X107.827 Y123.301 E4.23552
G1 X107.748 Y123.322 E4.23743
G1 X107.044 Y123.5 E4.25433
G1 X106.07 Y123.66 E4.27731
G1 X104.683 Y123.769 E4.30971
G1 X104.609 Y123.774 E4.31143
G1 X104.257 Y123.797 E4.31965
G1 X103.396 Y123.874 E4.33977
G1 X103.278 Y123.883 E4.34253
G1 X102.958 Y123.905 E4.34999
G1 X102.632 Y123.919 E4.35759
G1 X102.007 Y123.927 E4.37214
G1 X98.67 Y123.927 E4.44984
G1 X98.586 Y123.926 E4.45179
G1 X98.031 Y123.918 E4.46472
G1 X97.674 Y123.902 E4.47304
G1 X97.476 Y123.887 E4.47766
G1 X96.799 Y123.796 E4.49356
G1 X96.137 Y123.626 E4.50947
G1 X95.5 Y123.38 E4.52537
G1 X94.895 Y123.061 E4.5413
G1 X94.332 Y122.674 E4.5572
G1 X93.818 Y122.224 E4.57311
G1 X93.361 Y121.717 E4.589
G1 X92.965 Y121.16 E4.60491
G1 X92.637 Y120.56 E4.62083
G1 X92.382 Y119.927 E4.63672
G1 X92.25 Y119.476 E4.64766
G1 X92.109 Y118.91 E4.66124
G1 X92.091 Y118.835 E4.66304
G1 X91.715 Y117.235 E4.7013
G1 X91.414 Y116.115 E4.7283
G1 X91.397 Y116.051 E4.72985
G1 X91.048 Y114.69 E4.76256
G1 X90.921 Y114.043 E4.77791
G1 X90.869 Y113.669 E4.7867
G1 X90.85 Y113.525 E4.79008
G1 X90.816 Y113.226 E4.79709
G1 X90.787 Y112.252 E4.81977
G1 X90.848 Y111.12 E4.84617
G1 X90.962 Y108.419 E4.90911
G1 X90.999 Y105.779 E4.97058
G1 X90.96 Y103.132 E5.03221
G1 X90.852 Y100.526 E5.09294
G1 X90.788 Y99.379 E5.11969
G1 X90.787 Y98.756 E5.13419
G1 X90.802 Y98.464 E5.141
G1 X90.813 Y98.292 E5.14501
G1 X90.842 Y97.934 E5.15337
G1 X90.972 Y97.097 E5.17309
G1 X91.099 Y96.545 E5.18628
G1 X91.115 Y96.477 E5.18791
G1 X91.509 Y94.854 E5.22679
G1 X91.948 Y92.726 E5.27738
G1 X91.959 Y92.674 E5.27862
G1 X92.211 Y91.506 E5.30644
G1 X92.394 Y90.848 E5.32234
G1 X92.653 Y90.216 E5.33824
G1 X92.983 Y89.618 E5.35414
G1 X93.382 Y89.063 E5.37006
G1 X93.842 Y88.558 E5.38596
M204 S3000
M205 X10 Y10
G0 F1500 X94.349 Y88.849
M204 S1800
M205 X8 Y8
G1 F2400 X94.854 Y88.44 E5.40109
G1 X95.405 Y88.096 E5.41621
G1 X95.994 Y87.822 E5.43134
G1 X96.612 Y87.623 E5.44645
G1 X97.25 Y87.501 E5.46158
G1 X97.8 Y87.459 E5.47442
G1 X98.107 Y87.452 E5.48157
G1 X98.224 Y87.451 E5.48429
G1 X104.182 Y87.448 E5.62301
G1 X104.26 Y87.449 E5.62482
G1 X104.968 Y87.459 E5.64131
G1 X105.615 Y87.508 E5.65641
G1 X106.144 Y87.608 E5.66895
G1 X107.207 Y87.867 E5.69442
G1 X109.819 Y88.467 E5.75682
G1 X112.479 Y89.002 E5.81999
G1 X113.965 Y89.254 E5.85508
G1 X114.045 Y89.269 E5.85698
G1 X114.675 Y89.386 E5.87189
G1 X115.305 Y89.543 E5.88701
G1 X115.911 Y89.777 E5.90213
G1 X116.484 Y90.084 E5.91727
G1 X117.015 Y90.458 E5.93239
G1 X117.496 Y90.895 E5.94752
G1 X117.919 Y91.388 E5.96264
G1 X118.279 Y91.929 E5.97777
G1 X118.569 Y92.51 E5.99289
G1 X118.787 Y93.122 E6.00802
G1 X118.927 Y93.756 E6.02313
G1 X118.985 Y94.329 E6.03654
G1 X118.997 Y94.584 E6.04249
G1 X119.003 Y94.83 E6.04822
G1 X119.005 Y101.316 E6.19922
G1 X119.004 Y101.394 E6.20104
G1 X118.994 Y102.092 E6.21729
G1 X118.945 Y102.739 E6.2324
G1 X118.878 Y103.119 E6.24138
G1 X118.615 Y104.35 E6.27069
G1 X118.599 Y104.426 E6.2725
G1 X118.497 Y104.872 E6.28315
G1 X117.969 Y107.514 E6.34588
G1 X117.525 Y110.128 E6.40761
G1 X117.15 Y112.776 E6.46987
G1 X116.851 Y115.426 E6.53196
G1 X116.72 Y116.738 E6.56266
G1 X116.615 Y117.379 E6.57778
G1 X116.433 Y118.002 E6.5929
G1 X116.176 Y118.599 E6.60803
G1 X115.847 Y119.159 E6.62315
G1 X115.616 Y119.477 E6.6323
G1 X115.557 Y119.552 E6.63452
G1 X115.125 Y120.036 E6.64963
G1 X114.636 Y120.465 E6.66477
G1 X114.099 Y120.829 E6.67988
G1 X113.52 Y121.126 E6.69503
G1 X112.844 Y121.368 E6.71174
G1 X112.243 Y121.538 E6.72628
G1 X112.172 Y121.557 E6.728
G1 X107.682 Y122.76 E6.83622
G1 X107.61 Y122.779 E6.83795
G1 X106.906 Y122.957 E6.85486
G1 X106.026 Y123.102 E6.87562
G1 X104.639 Y123.211 E6.90802
G1 X104.572 Y123.216 E6.90958
G1 X104.17 Y123.243 E6.91896
G1 X103.346 Y123.316 E6.93822
G1 X103.239 Y123.325 E6.94072
G1 X102.919 Y123.347 E6.94819
G1 X102.625 Y123.359 E6.95504
G1 X102 Y123.367 E6.96959
G1 X98.67 Y123.367 E7.04712
G1 X98.594 Y123.366 E7.04889
G1 X98.039 Y123.358 E7.06181
G1 X97.716 Y123.344 E7.06934
G1 X97.518 Y123.329 E7.07396
G1 X96.875 Y123.24 E7.08908
G1 X96.247 Y123.073 E7.10421
G1 X95.644 Y122.83 E7.11934
G1 X95.076 Y122.515 E7.13446
G1 X94.551 Y122.132 E7.14959
G1 X94.077 Y121.688 E7.16471
G1 X93.661 Y121.189 E7.17984
G1 X93.31 Y120.643 E7.19495
G1 X93.028 Y120.058 E7.21007
G1 X92.794 Y119.34 E7.22765
G1 X92.653 Y118.774 E7.24123
G1 X92.636 Y118.707 E7.24284
G1 X92.254 Y117.082 E7.28171
G1 X91.955 Y115.969 E7.30854
G1 X91.939 Y115.912 E7.30992
G1 X91.59 Y114.551 E7.34263
G1 X91.475 Y113.966 E7.35651
G1 X91.423 Y113.592 E7.3653
G1 X91.407 Y113.462 E7.36835
G1 X91.373 Y113.163 E7.37536
G1 X91.347 Y112.282 E7.39588
G1 X91.408 Y111.15 E7.42227
G1 X91.522 Y108.451 E7.48517
G1 X91.559 Y105.779 E7.54738
G1 X91.52 Y103.099 E7.60979
G1 X91.415 Y100.575 E7.6686
G1 X91.347 Y99.348 E7.69721
G1 X91.346 Y98.785 E7.71032
G1 X91.361 Y98.493 E7.71713
G1 X91.371 Y98.338 E7.72074
G1 X91.4 Y97.98 E7.7291
G1 X91.517 Y97.222 E7.74696
G1 X91.644 Y96.67 E7.76015
G1 X91.659 Y96.609 E7.76161
G1 X92.06 Y94.956 E7.80121
G1 X92.497 Y92.839 E7.85154
G1 X92.507 Y92.792 E7.85266
G1 X92.759 Y91.624 E7.88048
G1 X92.935 Y90.999 E7.8956
G1 X93.186 Y90.4 E7.91072
G1 X93.509 Y89.836 E7.92585
G1 X93.898 Y89.317 E7.94095
G1 X94.349 Y88.849 E7.95608
M204 S3000
M205 X10 Y10
G1 F2400 E1.95608
;MESH:truck.STL
G0 F1500 X97.258 Y95.307
G0 X98.324 Y95.289
G0 X99.326 Y95.928
G0 X101.101 Y96.127
G0 X101.137 Y96.034
M204 S1800
M205 X8 Y8
;TYPE:WALL-OUTER
G1 F2400 E7.95608
G1 F1200 X101.695 Y96.312 E7.9706
G1 X102.178 Y96.685 E7.9848
G1 X102.576 Y97.145 E7.99897
G1 X102.888 Y97.688 E8.01355
G1 X103.082 Y98.263 E8.02768
G1 X103.16 Y98.879 E8.04213
G1 X103.118 Y99.488 E8.05634
G1 X102.957 Y100.08 E8.07063
G1 X102.681 Y100.632 E8.085
G1 X102.305 Y101.119 E8.09932
G1 X101.842 Y101.521 E8.1136
G1 X101.306 Y101.829 E8.12799
G1 X100.728 Y102.023 E8.14218
G1 X100.113 Y102.101 E8.15662
G1 X99.503 Y102.059 E8.17085
G1 X98.913 Y101.898 E8.18509
G1 X98.355 Y101.62 E8.19961
G1 X97.875 Y101.249 E8.21373
G1 X97.472 Y100.785 E8.22804
G1 X97.162 Y100.245 E8.24254
G1 X96.968 Y99.669 E8.25669
G1 X96.89 Y99.054 E8.27112
G1 X96.932 Y98.445 E8.28533
G1 X97.093 Y97.853 E8.29962
G1 X97.371 Y97.296 E8.31411
G1 X97.742 Y96.816 E8.32823
G1 X98.208 Y96.411 E8.34261
G1 X98.744 Y96.103 E8.357
G1 X99.322 Y95.909 E8.3712
G1 X99.937 Y95.831 E8.38563
G1 X100.547 Y95.873 E8.39986
G1 X101.137 Y96.034 E8.4141
M204 S3000
M205 X10 Y10
G0 F1500 X101.316 Y96.123
G0 X101.272 Y96.212
G0 X99.536 Y96.502
G0 X98.63 Y96.878
G0 X97.937 Y97.571
G0 X97.561 Y98.477
G0 X97.561 Y99.455
G0 X98.206 Y100.785
G0 X98.276 Y100.715
M204 S1800
M205 X8 Y8
G1 F1200 X98.652 Y101.022 E8.4254
G1 X99.078 Y101.251 E8.43667
G1 X99.543 Y101.391 E8.44797
G1 X100.025 Y101.438 E8.45925
G1 X100.507 Y101.391 E8.47052
G1 X100.972 Y101.251 E8.48183
G1 X101.398 Y101.022 E8.49309
G1 X101.774 Y100.715 E8.50439
G1 X102.08 Y100.339 E8.51568
G1 X102.309 Y99.913 E8.52694
G1 X102.45 Y99.448 E8.53825
G1 X102.497 Y98.966 E8.54953
G1 X102.45 Y98.484 E8.5608
G1 X102.309 Y98.02 E8.57209
G1 X102.08 Y97.593 E8.58337
G1 X101.774 Y97.218 E8.59464
G1 X101.398 Y96.911 E8.60594
G1 X100.972 Y96.682 E8.6172
G1 X100.507 Y96.541 E8.62852
G1 X100.025 Y96.494 E8.63979
G1 X99.543 Y96.541 E8.65107
G1 X99.078 Y96.682 E8.66238
G1 X98.652 Y96.911 E8.67364
G1 X98.276 Y97.218 E8.68494
G1 X97.97 Y97.593 E8.69621
G1 X97.741 Y98.02 E8.70749
G1 X97.6 Y98.484 E8.71878
G1 X97.553 Y98.966 E8.73006
G1 X97.6 Y99.448 E8.74133
G1 X97.741 Y99.913 E8.75264
G1 X97.97 Y100.339 E8.7639
G1 X98.276 Y100.715 E8.77519
M204 S3000
M205 X10 Y10
G0 F1500 X98.431 Y100.841
G0 X98.61 Y101.438
M204 S1800
M205 X8 Y8
;TYPE:SKIN
G1 F1200 X97.564 Y100.392 E8.78749
M204 S3000
M205 X10 Y10
G0 F1500 X97.413 Y99.958
M204 S1800
M205 X8 Y8
G1 F1200 X97.294 Y99.557 E8.78941
G1 X97.248 Y98.662 E8.79351
G1 X97.496 Y97.779 E8.79771
G1 X97.944 Y97.096 E8.80145
G1 X98.564 Y96.585 E8.80513
G1 X99.359 Y96.247 E8.80909
G1 X100.135 Y96.175 E8.81266
G1 X100.816 Y96.29 E8.81582
G1 X101.291 Y96.483 E8.81817
G1 X101.998 Y96.907 E8.82194
G1 X102.513 Y97.704 E8.82629
G1 X102.785 Y98.543 E8.83033
G1 X102.789 Y99.395 E8.83423
G1 X102.505 Y100.242 E8.83832
G1 X102.04 Y100.909 E8.84204
G1 X101.214 Y101.496 E8.84668
G1 X100.325 Y101.739 E8.8509
G1 X99.435 Y101.698 E8.85499
G1 X99.033 Y101.579 E8.85691
M204 S3000
M205 X10 Y10
G0 F1500 X99.018 Y101.326
G1 F2400 E2.85691
G0 F1500 X99.016 Y101.331
G0 X100.01 Y101.455
G0 X100.065 Y99.435
G0 X100.286 Y99.39
M204 S1800
M205 X8 Y8
;TYPE:WALL-OUTER
G1 F2400 E8.85691
G1 F1200 X100.282 Y99.394 E8.85704
G1 X100.128 Y99.456 E8.8609
G1 X99.912 Y99.45 E8.86593
G1 X99.908 Y99.45 E8.86603
G1 X99.735 Y99.371 E8.87045
G1 X99.731 Y99.367 E8.87059
G1 X99.602 Y99.228 E8.875
G1 X99.534 Y99.045 E8.87955
G1 X99.534 Y99.041 E8.87964
G1 X99.541 Y98.852 E8.88404
G1 X99.622 Y98.675 E8.88857
G1 X99.765 Y98.542 E8.89312
G1 X99.945 Y98.475 E8.89759
G1 X100.137 Y98.482 E8.90207
G1 X100.141 Y98.482 E8.90216
G1 X100.315 Y98.562 E8.90662
G1 X100.448 Y98.705 E8.91116
G1 X100.516 Y98.888 E8.91571
G1 X100.516 Y98.892 E8.9158
G1 X100.509 Y99.081 E8.92021
G1 X100.428 Y99.258 E8.92474
G1 X100.286 Y99.39 E8.92925
M204 S3000
M205 X10 Y10
G0 F1500 X100.282 Y99.394
G0 X100.128 Y99.456
G0 X100.099 Y99.456
G0 X99.918 Y99.07
M204 S1800
M205 X8 Y8
;TYPE:SKIN
G1 F1200 X100.06 Y98.928 E8.93529
M204 S3000
M205 X10 Y10
G0 F1500 X100.097 Y98.963
G1 F2400 E2.93529
G1 F600 Z0.175
G0 F1500 X100.097 Y98.963 Z0.175
G0 X103.499 Y94.338
M204 S1800
M205 X8 Y8
;TYPE:WALL-INNER
G1 F600 Z0.1
G1 F2400 E8.93529
G1 F1200 X104.191 Y94.499 E8.95183
G1 X104.41 Y94.551 E8.95707
G1 X104.409 Y94.876 E8.96464
G1 X104.409 Y94.944 E8.96622
G1 X104.409 Y95.338 E8.97539
G1 X104.183 Y95.061 E8.97734
G1 X104.088 Y94.944 E8.97845
G1 X103.442 Y94.408 E8.98899
G1 X103.338 Y94.321 E8.99215
G1 X103.225 Y94.227 E8.99557
G1 X103.041 Y94.128 E9.00043
G1 X103.225 Y94.128 E9.00067
