;FLAVOR:Marlin
;TIME:4540
;Filament used: 8.24191m
;Layer height: 0.3
;MINX:17.435
;MINY:4.096
;MINZ:0.3
;MAXX:192.566
;MAXY:205.909
;MAXZ:11.1
;Generated with Cura_SteamEngine master
M140 S60
M105
M190 S60
M104 S200
M105
M109 S200
M82 ;absolute extrusion mode
G21 ;metric values
G90 ;absolute positioning
M82 ;set extruder to absolute mode
M107 ;start with the fan off
G28 X0 Y0 ;move X/Y to min endstops
G28 Z0 ;move Z to min endstops
G1 Z15.0 F100 ;move the platform down 15mm
G92 E0 ;zero the extruded length
G1 F200 E3 ;extrude 3mm of feed stock
G92 E0 ;zero the extruded length again
G1 F100
G0 Y20 F100
M117 Printing...
G5
G92 E0
G92 E0
G1 F2400 E-6
;LAYER_COUNT:37
;LAYER:0
M106 S255
M204 S3000
M205 X10 Y10
G1 F600 Z0.375
;MESH:aegis-remix-w-forehead-pad-extention.stl
G0 F3000 X55.142 Y49.772 Z0.375
M204 S1800
M205 X8 Y8
;TYPE:WALL-INNER
G1 F600 Z0.3
G1 F2400 E0
G1 F1800 X52.763 Y51.502 E0.20545
G1 X51.445 Y52.514 E0.32152
G1 X49.922 Y53.741 E0.45812
G1 X48.322 Y55.101 E0.60479
G1 X46.862 Y56.417 E0.74208
G1 X45.555 Y57.658 E0.86796
G1 X44.082 Y59.126 E1.01322
G1 X42.873 Y60.402 E1.13599
G1 X41.505 Y61.918 E1.27862
G1 X40.3 Y63.321 E1.40779
G1 X39.94 Y63.754 E1.44713
G1 X38.924 Y65.01 E1.55996
G1 X37.787 Y66.483 E1.68993
G1 X36.685 Y67.987 E1.82016
G1 X35.226 Y70.056 E1.99699
G1 X36.598 Y71.055 E2.11553
G1 X36.456 Y71.252 E2.13249
G1 X35.919 Y72.029 E2.19846
G1 X33.566 Y75.617 E2.49815
G1 X33.008 Y76.499 E2.57105
G1 X31.714 Y78.678 E2.74806
G1 X31.314 Y79.362 E2.8034
G1 X30.869 Y80.194 E2.86931
G1 X29.219 Y83.255 E3.11219
G1 X28.116 Y85.491 E3.28633
G1 X27.729 Y86.348 E3.35201
G1 X26.284 Y89.521 E3.59553
G1 X25.926 Y90.409 E3.66241
G1 X24.052 Y95.203 E4.02192
G1 X23.695 Y96.186 E4.09497
G1 X23.385 Y97.1 E4.16238
G1 X23.193 Y97.894 E4.21944
G1 X23.175 Y97.969 E4.22483
G1 X22.737 Y99.99 E4.36926
G1 X22.675 Y100.359 E4.3954
G1 X22.59 Y100.857 E4.43068
G1 X22.569 Y100.977 E4.43919
G1 X22.57 Y100.854
G1 X22.58 Y100.343 E4.44317
G1 X22.587 Y99.987 E4.4482
G1 X22.632 Y97.958 E4.53677
G1 X22.633 Y97.88 E4.54214
G1 X22.68 Y95.809 E4.68683
G1 X22.703 Y94.499 E4.77834
G1 X22.779 Y92.854 E4.89336
G1 X22.852 Y90.644 E5.04781
G1 X22.965 Y88.516 E5.19665
G1 X22.993 Y87.881 E5.24104
G1 X23.046 Y86.818 E5.31538
G1 X23.234 Y83.752 E5.52993
G1 X23.513 Y79.982 E5.79397
G1 X23.624 Y78.812 E5.87606
G1 X23.792 Y76.946 E6.00692
G1 X23.949 Y75.44 E6.11268
G1 X24.164 Y73.505 E6.24866
G1 X24.4 Y71.576 E6.3844
G1 X24.552 Y70.448 E6.4639
G1 X24.791 Y68.766 E6.58256
G1 X25.049 Y67.13 E6.69824
G1 X25.271 Y65.764 E6.7949
G1 X25.512 Y64.427 E6.88979
G1 X25.981 Y61.994 E7.06286
G1 X26.152 Y61.181 E7.12089
G1 X26.348 Y60.3 E7.18393
G1 X26.48 Y59.746 E7.2237
G1 X26.666 Y58.925 E7.2825
G1 X27.055 Y57.358 E7.39527
G1 X27.215 Y56.775 E7.4375
G1 X27.487 Y55.754 E7.5113
G1 X28.05 Y53.795 E7.65367
G1 X28.558 Y52.175 E7.77225
G1 X28.877 Y51.209 E7.8433
G1 X29.153 Y50.421 E7.90162
G1 X29.457 Y49.581 E7.96402
G1 X29.885 Y48.454 E8.04822
G1 X30.476 Y46.99 E8.15849
G1 X30.99 Y45.776 E8.25057
G1 X31.609 Y44.402 E8.35583
G1 X32 Y43.612 E8.4174
G1 X32.252 Y43.086 E8.45813
G1 X32.84 Y41.964 E8.54661
G1 X33.603 Y40.557 E8.65841
G1 X34.622 Y38.837 E8.79804
G1 X35.106 Y38.057 E8.86216
G1 X35.689 Y37.183 E8.93554
G1 X36.715 Y35.68 E9.06264
G1 X37.583 Y34.503 E9.16479
G1 X38.394 Y33.474 E9.2563
G1 X39.42 Y32.226 E9.36915
G1 X40.377 Y31.126 E9.47098
G1 X41.24 Y30.199 E9.55945
G1 X42.256 Y29.151 E9.6614
G1 X43.431 Y28 E9.77628
G1 X44.373 Y27.144 E9.86518
G1 X45.438 Y26.213 E9.96399
G1 X46.665 Y25.199 E10.07517
G1 X47.794 Y24.313 E10.1754
G1 X48.63 Y23.671 E10.24903
G1 X49.381 Y23.132 E10.31359
G1 X51.138 Y21.935 E10.46209
G1 X51.947 Y21.413 E10.52933
G1 X52.799 Y20.888 E10.59923
G1 X54.669 Y19.774 E10.75127
G1 X55.82 Y19.128 E10.84346
G1 X56.416 Y18.813 E10.89054
G1 X57.232 Y18.388 E10.9548
G1 X58.488 Y17.754 E11.05307
G1 X59.433 Y17.313 E11.12591
G1 X61.176 Y16.518 E11.25972
G1 X62.315 Y16.029 E11.34629
G1 X63.486 Y15.547 E11.43474
G1 X64.062 Y15.321 E11.47796
G1 X65.65 Y14.727 E11.59638
G1 X67.808 Y13.968 E11.75616
G1 X68.773 Y13.656 E11.827
G1 X69.267 Y13.504 E11.8631
G1 X70.964 Y12.994 E11.98686
G1 X72.074 Y12.676 E12.06751
G1 X72.874 Y12.464 E12.12532
G1 X73.428 Y12.325 E12.16521
G1 X75.458 Y11.8 E12.31167
G1 X76.493 Y11.583 E12.38553
G1 X77.208 Y11.426 E12.43666
G1 X77.912 Y11.286 E12.48679
G1 X78.882 Y11.085 E12.55598
G1 X80.087 Y10.864 E12.64155
G1 X81.724 Y10.582 E12.75757
G1 X83.383 Y10.325 E12.87483
G1 X84.33 Y10.189 E12.94165
G1 X85.985 Y9.991 E13.05807
G1 X87.411 Y9.812 E13.15846
G1 X90.011 Y9.573 E13.34082
G1 X92.779 Y9.377 E13.53464
G1 X94.6 Y9.284 E13.662
G1 X95.366 Y9.26 E13.71552
G1 X98.16 Y9.183 E13.91075
G1 X100.282 Y9.185 E14.05896
G1 X110.345 Y9.173 E14.76183
G1 X110.861 Y9.182 E14.79787
G1 X112.617 Y9.196 E14.92053
G1 X113.402 Y9.215 E14.97537
G1 X114.195 Y9.241 E15.03079
G1 X114.788 Y9.246 E15.07221
G1 X117.201 Y9.375 E15.24099
G1 X118.625 Y9.464 E15.34065
G1 X119.971 Y9.567 E15.43493
G1 X120.475 Y9.611 E15.47027
G1 X121.204 Y9.683 E15.52144
G1 X121.942 Y9.747 E15.57318
G1 X123.119 Y9.869 E15.65583
G1 X123.786 Y9.945 E15.70271
G1 X124.942 Y10.093 E15.78412
G1 X126.615 Y10.324 E15.90208
G1 X128.223 Y10.571 E16.01571
G1 X129.198 Y10.743 E16.08486
G1 X129.914 Y10.863 E16.13557
G1 X131.05 Y11.071 E16.21623
G1 X131.724 Y11.204 E16.26421
G1 X134.518 Y11.815 E16.46398
G1 X135.845 Y12.134 E16.5593
G1 X137.108 Y12.459 E16.65039
G1 X137.925 Y12.676 E16.70944
G1 X139.029 Y12.992 E16.78964
G1 X140.507 Y13.429 E16.89729
G1 X141.911 Y13.881 E17.00031
G1 X142.753 Y14.172 E17.06254
G1 X143.929 Y14.571 E17.14928
G1 X144.556 Y14.797 E17.19583
G1 X146.254 Y15.451 E17.32292
G1 X147.282 Y15.858 E17.40014
G1 X148.608 Y16.426 E17.5009
G1 X150.095 Y17.081 E17.61439
G1 X150.641 Y17.339 E17.65657
G1 X151.45 Y17.729 E17.7193
G1 X152.798 Y18.398 E17.82441
G1 X153.837 Y18.95 E17.90659
G1 X155.085 Y19.637 E18.00609
G1 X157.248 Y20.917 E18.18164
G1 X158.024 Y21.395 E18.2453
G1 X158.8 Y21.892 E18.30966
G1 X160.2 Y22.85 E18.42815
G1 X160.695 Y23.181 E18.46974
G1 X161.332 Y23.644 E18.52474
G1 X161.976 Y24.14 E18.58152
G1 X164.229 Y25.93 E18.7825
G1 X165.429 Y26.959 E18.89291
G1 X166.515 Y27.949 E18.99555
G1 X167.446 Y28.855 E19.08629
G1 X168.608 Y30.03 E19.20171
G1 X169.568 Y31.067 E19.30041
G1 X170.254 Y31.858 E19.37355
G1 X171.508 Y33.344 E19.50936
G1 X172.348 Y34.413 E19.60431
G1 X173.259 Y35.64 E19.71105
G1 X174.313 Y37.186 E19.84174
G1 X174.835 Y37.965 E19.90724
G1 X175.626 Y39.233 E20.01163
G1 X176.35 Y40.481 E20.1124
G1 X177.071 Y41.783 E20.21635
G1 X177.725 Y43.055 E20.31625
G1 X178.369 Y44.373 E20.41871
G1 X178.987 Y45.716 E20.52197
G1 X179.964 Y48.068 E20.69986
G1 X180.537 Y49.566 E20.81188
G1 X180.951 Y50.721 E20.89758
G1 X181.422 Y52.111 E21.00009
G1 X181.601 Y52.692 E21.04255
G1 X181.838 Y53.506 E21.10177
G1 X182.377 Y55.258 E21.2298
G1 X182.507 Y55.732 E21.26413
G1 X182.784 Y56.775 E21.3395
G1 X182.931 Y57.307 E21.37805
G1 X183.268 Y58.632 E21.47355
G1 X183.452 Y59.417 E21.52986
G1 X183.648 Y60.287 E21.59215
G1 X183.817 Y60.999 E21.64326
G1 X184.028 Y61.994 E21.7143
G1 X184.158 Y62.703 E21.76465
G1 X184.476 Y64.356 E21.88222
G1 X184.941 Y67.043 E22.07269
G1 X185.205 Y68.716 E22.19099
G1 X185.354 Y69.822 E22.26894
G1 X185.46 Y70.54 E22.31963
G1 X185.824 Y73.366 E22.51865
G1 X186.187 Y76.739 E22.7556
G1 X186.318 Y78.074 E22.84929
G1 X186.49 Y80.018 E22.9856
G1 X186.551 Y80.569 E23.02432
G1 X186.594 Y81.164 E23.06599
G1 X186.686 Y82.604 E23.16677
G1 X186.767 Y83.751 E23.24709
G1 X186.955 Y86.783 E23.45927
G1 X187.034 Y88.517 E23.58051
G1 X187.148 Y90.636 E23.72873
G1 X187.2 Y92.301 E23.84508
G1 X187.233 Y93.088 E23.90009
G1 X187.256 Y93.914 E23.95781
G1 X187.29 Y94.72 E24.01415
G1 X187.309 Y95.547 E24.07193
G1 X187.371 Y97.626 E24.21721
G1 X187.377 Y97.957 E24.24033
G1 X187.395 Y99.128 E24.32213
G1 X187.423 Y100.857 E24.44291
G1 X187.083 Y99.134 E24.47811
G1 X186.82 Y97.993 E24.54187
G1 X186.606 Y97.067 E24.60826
G1 X186.31 Y96.198 E24.67238
G1 X185.72 Y94.586 E24.79227
G1 X185.104 Y93.007 E24.91066
G1 X184.368 Y91.095 E25.05376
G1 X183.031 Y87.973 E25.29097
G1 X182.6 Y87.016 E25.36428
G1 X181.13 Y83.965 E25.60083
G1 X180.664 Y83.033 E25.67361
G1 X179.867 Y81.511 E25.79361
G1 X178.934 Y79.89 E25.92424
G1 X178.031 Y78.264 E26.05415
G1 X177.167 Y76.784 E26.17385
G1 X175.361 Y73.928 E26.40987
G1 X174.787 Y73.057 E26.48272
G1 X173.35 Y71.007 E26.65758
G1 X174.718 Y70.014 E26.77565
G1 X173.529 Y68.281 E26.92245
G1 X172.368 Y66.689 E27.06007
G1 X171.297 Y65.293 E27.18296
G1 X170.974 Y64.883 E27.21942
G1 X169.974 Y63.646 E27.33052
G1 X168.661 Y62.103 E27.47203
G1 X167.143 Y60.416 E27.63054
G1 X166.031 Y59.245 E27.74334
G1 X164.612 Y57.818 E27.8839
G1 X163.335 Y56.602 E28.00706
G1 X161.88 Y55.28 E28.14437
G1 X160.46 Y54.058 E28.27522
G1 X158.937 Y52.815 E28.41253
G1 X157.29 Y51.543 E28.55788
G1 X154.902 Y49.802 E28.76429
G1 X153.839 Y51.203 E28.88713
G1 X152.142 Y49.99 E29.03282
G1 X150.222 Y48.71 E29.194
G1 X149.545 Y48.285 E29.24983
G1 X147.201 Y46.862 E29.44136
G1 X143.633 Y44.902 E29.72569
G1 X143.073 Y44.618 E29.76955
G1 X140.623 Y43.415 E29.96019
G1 X138.536 Y42.478 E30.11998
G1 X136.889 Y41.793 E30.24457
G1 X136.185 Y41.51 E30.29756
G1 X134.453 Y40.84 E30.42727
G1 X131.937 Y39.97 E30.61321
G1 X131.189 Y39.724 E30.66821
G1 X128.605 Y38.926 E30.85711
G1 X126.251 Y38.289 E31.02744
G1 X124.519 Y37.866 E31.15197
G1 X122.126 Y37.344 E31.32304
G1 X121.523 Y37.24 E31.36578
G1 X117.982 Y36.617 E31.6169
G1 X115.545 Y36.287 E31.78867
G1 X111.986 Y35.935 E32.03847
G1 X111.094 Y35.868 E32.10095
G1 X107.467 Y35.689 E32.35459
G1 X106.937 Y35.677 E32.39161
G1 X104.178 Y35.663 E32.58432
G1 X103.563 Y35.673 E32.62728
G1 X100.794 Y35.753 E32.82077
G1 X96.695 Y36.046 E33.1078
G1 X90.122 Y36.97 E33.57141
G1 X89.443 Y37.057 E33.61923
G1 X88.741 Y37.182 E33.66903
G1 X85.639 Y37.83 E33.89037
G1 X83.902 Y38.251 E34.01521
G1 X83.298 Y38.409 E34.05881
G1 X80.681 Y39.139 E34.24858
G1 X80.082 Y39.327 E34.29243
G1 X77.5 Y40.146 E34.48163
G1 X75.805 Y40.75 E34.60731
G1 X72.861 Y41.9 E34.82807
G1 X72.111 Y42.211 E34.88478
G1 X69.623 Y43.301 E35.0745
G1 X67.4 Y44.369 E35.24676
G1 X65.801 Y45.191 E35.37233
G1 X65.24 Y45.496 E35.41693
G1 X62.079 Y47.281 E35.67049
G1 X59.821 Y48.681 E35.85606
G1 X58.3 Y49.681 E35.9832
G1 X56.197 Y51.18 E36.16358
G1 X55.142 Y49.772 E36.28647
M204 S3000
M205 X10 Y10
G0 F3000 X55.278 Y51.775
G0 X46.323 Y61.077
G0 X42.684 Y65.022
G0 X40.045 Y68.253
G0 X37.34 Y71.875
G0 X33.928 Y77.065
G0 X31.82 Y80.708
G0 X29.873 Y84.377
G0 X28.713 Y86.796
G0 X26.93 Y90.809
G0 X24.714 Y96.545
G0 X24.423 Y97.401
G0 X23.798 Y100.195
G0 X21.418 Y114.268
G0 X21.428 Y115.085
G0 X20.411 Y116.196
M204 S1800
M205 X8 Y8
G1 F1800 X20.412 Y116.195 E36.28656
G1 X20.948 Y116.185 E36.32401
G1 X20.949 Y116.184 E36.32411
G1 X21.233 Y116.18 E36.34395
G1 X21.233 Y116.464 E36.35673
G1 X21.233 Y116.465 E36.3568
G1 X21.233 Y120.501 E36.6387
G1 X21.233 Y122.925 E36.808
G1 X21.236 Y123.015 E36.81429
G1 X21.656 Y134.307 E37.60354
G1 X21.709 Y134.706 E37.63166
G1 X22.857 Y143.207 E38.23081
G1 X22.96 Y143.693 E38.26551
G1 X24.756 Y152.116 E38.86705
G1 X24.83 Y152.37 E38.88553
G1 X27.274 Y160.661 E39.48926
G1 X27.366 Y160.905 E39.50747
G1 X30.352 Y168.81 E40.09769
G1 X30.442 Y169.004 E40.11262
G1 X34.188 Y177.069 E40.73373
G1 X34.297 Y177.264 E40.74934
G1 X38.546 Y184.84 E41.35603
G1 X38.661 Y185.013 E41.37054
G1 X43.473 Y192.264 E41.97838
G1 X48.89 Y199.233 E42.59489
G1 X49.265 Y199.768 E42.64052
G1 X49.288 Y199.819 E42.64443
G1 X49.507 Y200.289 E42.68065
G1 X49.649 Y200.817 E42.71884
G1 X49.653 Y200.868 E42.72241
G1 X49.706 Y201.416 E42.76086
G1 X49.667 Y201.879 E42.79332
G1 X49.657 Y201.984 E42.80068
G1 X49.514 Y202.524 E42.8397
G1 X49.471 Y202.617 E42.84686
G1 X49.268 Y203.054 E42.88051
G1 X48.959 Y203.5 E42.91841
G1 X48.945 Y203.52 E42.92011
G1 X48.922 Y203.543 E42.92239
G1 X48.542 Y203.926 E42.96007
G1 X48.093 Y204.242 E42.99842
G1 X48.051 Y204.262 E43.00167
G1 X47.542 Y204.504 E43.04103
G1 X47.102 Y204.624 E43.07289
G1 X47.012 Y204.649 E43.07941
G1 X46.439 Y204.701 E43.1196
G1 X46.343 Y204.694 E43.12632
G1 X45.868 Y204.658 E43.15959
G1 X45.341 Y204.521 E43.19763
G1 X45.305 Y204.511 E43.20024
G1 X45.287 Y204.503 E43.20161
G1 X44.81 Y204.284 E43.23827
G1 X44.399 Y204.002 E43.27309
G1 X44.331 Y203.956 E43.27882
G1 X43.955 Y203.588 E43.31557
G1 X43.89 Y203.478 E43.32449
G1 X43.89 Y203.409 E43.32931
G1 X43.912 Y203.346 E43.33397
G1 X43.975 Y203.293 E43.33972
G1 X44.057 Y203.278 E43.34555
G1 X44.166 Y203.317 E43.34992
G1 X44.194 Y203.344 E43.35021
G1 X44.569 Y203.713 E43.37255
G1 X44.585 Y203.729 E43.37263
G1 X44.993 Y203.961 E43.39278
G1 X45.423 Y204.206 E43.4139
G1 X45.929 Y204.29 E43.43581
G1 X46.367 Y204.364 E43.45488
G1 X46.408 Y204.361 E43.45582
G1 X46.98 Y204.309 E43.48025
G1 X47.014 Y204.305 E43.48085
G1 X47.412 Y204.157 E43.49898
G1 X47.912 Y203.971 E43.52161
G1 X48.301 Y203.642 E43.54324
G1 X48.689 Y203.313 E43.565
G1 X48.944 Y202.869 E43.58701
G1 X49.169 Y202.478 E43.60645
G1 X49.18 Y202.436 E43.60746
G1 X49.324 Y201.896 E43.63146
G1 X49.336 Y201.851 E43.6326
G1 X49.336 Y201.417 E43.65122
G1 X49.335 Y200.899 E43.67306
G1 X49.16 Y200.416 E43.69483
G1 X48.992 Y199.957 E43.71561
G1 X48.603 Y199.459 E43.74279
G1 X43.167 Y192.504 E44.15735
G1 X43.151 Y192.484 E44.15914
G1 X38.309 Y185.247 E44.59957
G1 X38.193 Y185.041 E44.61205
G1 X33.907 Y177.483 E45.07426
G1 X33.799 Y177.253 E45.08839
G1 X30.006 Y169.207 E45.59322
G1 X29.918 Y168.976 E45.60796
G1 X26.915 Y161.076 E46.10656
G1 X26.831 Y160.794 E46.12407
G1 X24.36 Y152.509 E46.63736
G1 X24.297 Y152.217 E46.6554
G1 X22.464 Y143.799 E47.17979
G1 X22.391 Y143.273 E47.2123
G1 X21.202 Y134.775 E47.73726
G1 X21.184 Y134.327 E47.76495
G1 X20.715 Y123.035 E48.46482
G1 X20.714 Y122.934 E48.4714
G1 X20.674 Y120.51 E48.63453
G1 X20.649 Y119.09 E48.73373
G1 X20.534 Y118.403 E48.78238
G1 X20.317 Y117.292 E48.86145
G1 X20.144 Y116.536 E48.91562
G1 X20.068 Y116.201 E48.93961
G1 X20.411 Y116.196 E48.95426
M204 S3000
M205 X10 Y10
G0 F3000 X19.622 Y115.321
G0 X19.552 Y108.327
G0 X19.678 Y97.476
G0 X19.89 Y90.638
G0 X20.468 Y80.948
G0 X21.132 Y73.74
G0 X22.064 Y67.039
G0 X22.811 Y62.765
G0 X23.949 Y57.537
G0 X25.071 Y53.388
G0 X26.401 Y49.367
G0 X27.787 Y45.701
G0 X29.671 Y41.638
G0 X30.62 Y39.797
G0 X33.001 Y35.822
G0 X35.147 Y32.782
G0 X37.076 Y30.398
G0 X39.075 Y28.164
G0 X41.599 Y25.664
G0 X44.066 Y23.489
G0 X47.153 Y21.088
G0 X50.131 Y19.053
G0 X53.113 Y17.246
G0 X56.731 Y15.323
G0 X61.122 Y13.31
G0 X64.5 Y11.987
G0 X68.54 Y10.622
G0 X73.063 Y9.354
G0 X76.942 Y8.453
G0 X82.159 Y7.496
G0 X87.615 Y6.808
G0 X92.126 Y6.441
G0 X97.237 Y6.236
G0 X112.866 Y6.227
G0 X118.127 Y6.46
G0 X122.273 Y6.823
G0 X126.79 Y7.343
G0 X132.745 Y8.394
G0 X137.332 Y9.453
G0 X141.813 Y10.735
G0 X145.582 Y12.017
G0 X150.85 Y14.174
G0 X153.843 Y15.601
G0 X158.478 Y18.15
G0 X161.559 Y20.179
G0 X164.481 Y22.328
G0 X167.53 Y24.85
G0 X170.432 Y27.664
G0 X172.145 Y29.5
G0 X174.056 Y31.779
G0 X175.977 Y34.353
G0 X177.771 Y37.062
G0 X179.475 Y40.005
G0 X180.969 Y42.941
G0 X182.593 Y46.669
G0 X184.092 Y50.701
G0 X185.335 Y54.806
G0 X186.053 Y57.547
G0 X186.755 Y60.622
G0 X187.795 Y65.972
G0 X188.867 Y73.816
G0 X189.524 Y80.811
G0 X190.078 Y89.795
G0 X190.317 Y97.18
G0 X190.462 Y108.516
G0 X190.375 Y115.337
G0 X188.777 Y116.47
M204 S1800
M205 X8 Y8
G1 F1800 X188.776 Y116.469 E48.95436
G1 X188.776 Y116.189 E48.97392
G1 X189.056 Y116.189 E48.98658
G1 X189.057 Y116.189 E48.98665
G1 X189.579 Y116.189 E49.02311
G1 X189.58 Y116.189 E49.02318
G1 X189.922 Y116.189 E49.04707
G1 X189.854 Y116.525 E49.06173
G1 X189.736 Y117.096 E49.10246
G1 X189.604 Y117.67 E49.1436
G1 X189.483 Y118.312 E49.18923
G1 X189.353 Y119.113 E49.24591
G1 X189.351 Y119.13 E49.2471
G1 X189.293 Y122.585 E49.48845
G1 X189.274 Y123.127 E49.52633
G1 X188.856 Y134.582 E50.32696
G1 X188.848 Y134.781 E50.34087
G1 X187.661 Y143.384 E50.94745
G1 X187.593 Y143.702 E50.97016
G1 X185.743 Y152.336 E51.5869
G1 X185.71 Y152.448 E51.59506
G1 X183.235 Y160.799 E52.20342
G1 X183.211 Y160.88 E52.20932
G1 X180.113 Y169.029 E52.81824
