;FLAVOR:Marlin
;TIME:3555
;Filament used: 10.2123m
;Layer height: 0.3
;MINX:5.409
;MINY:29.864
;MINZ:0.3
;MAXX:204.601
;MAXY:182.342
;MAXZ:15
;Generated with Cura_SteamEngine master
M140 S60
M105
M190 S60
M104 S200
M105
M109 S200
M82 ;absolute extrusion mode
G21 ;metric values
G90 ;absolute positioning
M82 ;set extruder to absolute mode
M107 ;start with the fan off
G28 X0 Y0 ;move X/Y to min endstops
G28 Z0 ;move Z to min endstops
G1 Z15.0 F100 ;move the platform down 15mm
G92 E0 ;zero the extruded length
G1 F200 E3 ;extrude 3mm of feed stock
G92 E0 ;zero the extruded length again
G1 F100
G0 Y20 F100
M117 Printing...
G5
G92 E0
G92 E0
G1 F2400 E-6
;LAYER_COUNT:50
;LAYER:0
M106 S255
M204 S3000
M205 X10 Y10
G1 F600 Z0.375
G0 F3000 X14.504 Y30.723 Z0.375
M204 S1800
M205 X8 Y8
;TYPE:SKIRT
G1 F600 Z0.3
G1 F2400 E0
G1 X15.185 Y30.401 E0.07892
G1 X15.897 Y30.154 E0.15788
G1 X16.63 Y29.983 E0.23674
G1 X17.652 Y29.877 E0.34439
G1 X18.195 Y29.864 E0.40129
G1 X19.053 Y29.864 E0.49118
G1 X19.853 Y29.875 E0.57501
G1 X20.604 Y29.925 E0.65386
G1 X21.346 Y30.056 E0.7328
G1 X22.071 Y30.264 E0.81183
G1 X22.769 Y30.547 E0.89074
G1 X23.433 Y30.903 E0.96967
G1 X24.055 Y31.327 E1.04854
G1 X24.629 Y31.815 E1.12747
G1 X25.148 Y32.361 E1.2064
G1 X25.729 Y33.143 E1.30846
G1 X26.291 Y34.02 E1.41759
G1 X27.99 Y36.641 E1.74484
G1 X29.496 Y38.806 E2.02115
G1 X31.046 Y40.907 E2.29469
G1 X32.678 Y42.992 E2.57209
G1 X34.339 Y44.994 E2.84463
G1 X36.083 Y46.978 E3.12139
G1 X37.862 Y48.893 E3.39524
G1 X39.709 Y50.77 E3.67113
G1 X41.614 Y52.6 E3.94789
G1 X43.559 Y54.364 E4.22299
G1 X45.539 Y56.061 E4.4962
G1 X47.614 Y57.741 E4.77592
G1 X49.66 Y59.303 E5.0456
G1 X51.809 Y60.849 E5.32296
G1 X54 Y62.333 E5.60021
G1 X56.21 Y63.741 E5.87475
G1 X58.466 Y65.09 E6.15014
G1 X60.743 Y66.365 E6.42355
G1 X63.084 Y67.591 E6.70042
G1 X65.446 Y68.745 E6.97584
G1 X67.825 Y69.823 E7.24948
G1 X70.273 Y70.853 E7.52773
G1 X72.709 Y71.793 E7.80129
G1 X75.185 Y72.671 E8.07653
G1 X77.678 Y73.477 E8.35103
G1 X80.207 Y74.217 E8.6271
G1 X82.756 Y74.884 E8.90315
G1 X85.352 Y75.487 E9.18237
G1 X87.871 Y75.994 E9.45158
G1 X90.487 Y76.446 E9.72972
G1 X93.043 Y76.814 E10.00027
G1 X95.678 Y77.117 E10.27816
G1 X98.318 Y77.346 E10.55579
G1 X100.925 Y77.498 E10.82938
G1 X103.555 Y77.576 E11.10505
G1 X106.192 Y77.58 E11.38133
G1 X108.802 Y77.51 E11.65487
G1 X111.425 Y77.366 E11.9301
G1 X114.03 Y77.148 E12.20398
G1 X116.657 Y76.853 E12.48093
G1 X119.252 Y76.488 E12.75549
G1 X121.851 Y76.046 E13.03169
G1 X124.434 Y75.533 E13.3076
G1 X126.955 Y74.955 E13.57857
G1 X129.556 Y74.284 E13.86
G1 X132.056 Y73.562 E14.13263
G1 X134.557 Y72.761 E14.40777
G1 X137.035 Y71.891 E14.68292
G1 X139.497 Y70.947 E14.95918
G1 X141.91 Y69.942 E15.23304
G1 X144.314 Y68.86 E15.50924
G1 X146.683 Y67.712 E15.78504
G1 X149.016 Y66.5 E16.06049
G1 X151.311 Y65.223 E16.33565
G1 X153.555 Y63.891 E16.60905
G1 X155.785 Y62.48 E16.88553
G1 X157.968 Y61.01 E17.16126
G1 X160.108 Y59.48 E17.43687
G1 X162.193 Y57.899 E17.71102
G1 X164.241 Y56.252 E17.98636
G1 X166.236 Y54.552 E18.26097
G1 X168.202 Y52.778 E18.53841
G1 X170.089 Y50.977 E18.8117
G1 X171.943 Y49.104 E19.08781
G1 X173.746 Y47.176 E19.36437
G1 X175.482 Y45.211 E19.63908
G1 X177.167 Y43.192 E19.91459
G1 X178.787 Y41.136 E20.18883
G1 X180.359 Y39.019 E20.46509
G1 X181.867 Y36.864 E20.74066
G1 X183.325 Y34.649 E21.01848
G1 X184.16 Y33.316 E21.18328
G1 X184.484 Y32.843 E21.24335
G1 X185.051 Y32.15 E21.33716
G1 X185.591 Y31.625 E21.41606
G1 X186.184 Y31.16 E21.49501
G1 X186.823 Y30.761 E21.57394
G1 X187.501 Y30.432 E21.6529
G1 X188.209 Y30.176 E21.73177
G1 X188.941 Y29.997 E21.81072
G1 X190.058 Y29.876 E21.92844
G1 X190.575 Y29.864 E21.98262
G1 X191.434 Y29.864 E22.07261
G1 X192.233 Y29.875 E22.15633
G1 X192.985 Y29.925 E22.23529
G1 X193.727 Y30.056 E22.31423
G1 X194.451 Y30.264 E22.39316
G1 X195.149 Y30.547 E22.47207
G1 X195.813 Y30.903 E22.551
G1 X196.435 Y31.327 E22.62987
G1 X197.009 Y31.815 E22.7088
G1 X197.528 Y32.361 E22.78773
G1 X197.987 Y32.959 E22.86671
G1 X198.379 Y33.602 E22.94561
G1 X198.701 Y34.283 E23.02453
G1 X198.95 Y34.995 E23.10355
G1 X199.121 Y35.728 E23.18241
G1 X199.228 Y36.774 E23.29257
G1 X199.24 Y37.294 E23.34707
G1 X199.241 Y55.721 E25.27765
G1 X199.234 Y56.559 E25.36545
G1 X199.208 Y58.08 E25.52483
G1 X199.145 Y59.901 E25.71573
G1 X199.086 Y61.027 E25.83386
G1 X198.96 Y62.826 E26.0228
G1 X198.811 Y64.546 E26.20368
G1 X198.638 Y66.418 E26.40065
G1 X198.467 Y69.087 E26.68085
G1 X198.374 Y71.721 E26.95698
G1 X198.357 Y74.359 E27.23337
G1 X198.412 Y76.964 E27.50636
G1 X198.542 Y79.599 E27.78276
G1 X198.745 Y82.201 E28.0562
G1 X198.998 Y84.604 E28.30935
G1 X199.131 Y85.734 E28.42856
G1 X199.437 Y89.164 E28.78934
G1 X199.743 Y91.806 E29.06799
G1 X200.114 Y94.378 E29.34025
G1 X200.566 Y96.985 E29.61746
G1 X201.089 Y99.567 E29.89347
G1 X201.675 Y102.094 E30.16525
G1 X202.349 Y104.665 E30.44371
G1 X203.089 Y107.196 E30.71998
G1 X204.1 Y110.282 E31.06021
G1 X204.421 Y111.333 E31.17534
G1 X204.551 Y112.075 E31.25427
G1 X204.601 Y112.827 E31.33323
G1 X204.572 Y113.58 E31.41218
G1 X204.463 Y114.325 E31.49106
G1 X204.276 Y115.055 E31.57001
G1 X204.102 Y115.546 E31.62459
G1 X203.785 Y116.345 E31.71465
G1 X203.1 Y117.958 E31.89825
G1 X202.555 Y119.197 E32.04006
G1 X201.763 Y120.919 E32.23864
G1 X201.145 Y122.214 E32.38897
G1 X200.308 Y123.891 E32.58534
G1 X199.665 Y125.14 E32.73252
G1 X198.75 Y126.842 E32.93497
G1 X198.021 Y128.151 E33.09195
G1 X197.155 Y129.648 E33.27314
G1 X196.265 Y131.133 E33.45453
G1 X195.437 Y132.468 E33.61911
G1 X194.533 Y133.877 E33.7945
G1 X193.582 Y135.309 E33.9746
G1 X192.878 Y136.34 E34.1054
G1 X191.734 Y137.954 E34.31267
G1 X190.932 Y139.055 E34.45538
G1 X189.796 Y140.558 E34.65276
G1 X188.922 Y141.684 E34.8021
G1 X187.719 Y143.177 E35.00298
G1 X186.84 Y144.238 E35.14734
G1 X185.611 Y145.67 E35.34504
G1 X184.673 Y146.733 E35.49357
G1 X183.452 Y148.073 E35.6835
G1 X182.432 Y149.161 E35.83975
G1 X181.12 Y150.514 E36.03721
G1 X179.923 Y151.706 E36.21419
G1 X178.785 Y152.809 E36.38023
G1 X177.745 Y153.789 E36.52995
G1 X176.394 Y155.021 E36.72151
G1 X175.06 Y156.197 E36.90782
G1 X173.929 Y157.165 E37.06379
G1 X172.751 Y158.143 E37.2242
G1 X171.395 Y159.235 E37.40661
G1 X170.137 Y160.216 E37.57375
G1 X168.814 Y161.216 E37.7475
G1 X167.49 Y162.185 E37.91939
G1 X166.162 Y163.126 E38.08992
G1 X164.762 Y164.085 E38.26771
G1 X163.404 Y164.987 E38.43851
G1 X162.022 Y165.874 E38.61056
G1 X160.648 Y166.725 E38.77988
G1 X159.178 Y167.605 E38.95938
G1 X157.821 Y168.388 E39.12352
G1 X156.336 Y169.217 E39.30171
G1 X154.863 Y170.008 E39.47688
G1 X153.463 Y170.732 E39.64201
G1 X151.961 Y171.481 E39.81785
G1 X150.455 Y172.203 E39.99283
G1 X149.002 Y172.872 E40.16042
G1 X147.485 Y173.544 E40.33425
G1 X145.939 Y174.199 E40.51016
G1 X144.466 Y174.798 E40.67676
G1 X142.881 Y175.412 E40.85484
G1 X141.361 Y175.974 E41.02463
G1 X139.851 Y176.507 E41.1924
G1 X138.195 Y177.063 E41.37541
G1 X136.674 Y177.547 E41.54264
G1 X135.104 Y178.021 E41.71446
G1 X133.478 Y178.484 E41.89159
G1 X131.96 Y178.891 E42.05625
G1 X130.364 Y179.294 E42.22871
G1 X128.689 Y179.689 E42.40901
G1 X127.124 Y180.032 E42.57687
G1 X125.52 Y180.359 E42.74837
G1 X123.868 Y180.67 E42.92449
G1 X122.288 Y180.941 E43.09244
G1 X120.656 Y181.194 E43.26547
G1 X118.99 Y181.427 E43.44172
G1 X117.374 Y181.628 E43.61233
G1 X115.725 Y181.807 E43.78611
G1 X114.138 Y181.955 E43.9531
G1 X112.434 Y182.088 E44.13217
G1 X110.833 Y182.188 E44.30023
G1 X109.135 Y182.267 E44.47832
G1 X107.511 Y182.317 E44.64855
G1 X105.896 Y182.342 E44.81777
G1 X104.223 Y182.342 E44.99305
G1 X102.578 Y182.317 E45.16542
G1 X100.98 Y182.27 E45.33291
G1 X99.278 Y182.193 E45.51141
G1 X97.65 Y182.092 E45.6823
G1 X95.991 Y181.965 E45.85662
G1 X94.396 Y181.818 E46.02444
G1 X92.715 Y181.637 E46.20157
G1 X91.148 Y181.445 E46.36698
G1 X89.444 Y181.208 E46.54722
G1 X87.821 Y180.957 E46.71928
G1 X86.241 Y180.687 E46.88722
G1 X84.591 Y180.379 E47.06307
G1 X82.982 Y180.053 E47.23507
G1 X81.418 Y179.712 E47.40278
G1 X79.757 Y179.322 E47.58154
G1 X78.199 Y178.931 E47.74983
G1 X76.564 Y178.495 E47.92711
G1 X75.027 Y178.058 E48.09453
G1 X73.401 Y177.569 E48.27242
G1 X71.91 Y177.096 E48.4363
G1 X70.256 Y176.543 E48.61902
G1 X68.726 Y176.004 E48.78897
G1 X67.237 Y175.455 E48.95524
G1 X65.664 Y174.848 E49.13189
G1 X64.139 Y174.23 E49.30428
G1 X62.627 Y173.592 E49.47622
G1 X61.1 Y172.916 E49.65118
G1 X59.617 Y172.235 E49.82215
G1 X58.153 Y171.535 E49.99216
G1 X56.684 Y170.807 E50.16393
G1 X55.159 Y170.018 E50.34382
G1 X53.771 Y169.274 E50.50882
G1 X52.294 Y168.453 E50.68586
G1 X50.92 Y167.661 E50.85201
G1 X49.445 Y166.779 E51.03207
G1 X48.072 Y165.93 E51.2012
G1 X46.692 Y165.048 E51.37279
G1 X45.33 Y164.146 E51.54394
G1 X43.93 Y163.188 E51.72167
G1 X42.591 Y162.241 E51.8935
G1 X41.283 Y161.286 E52.06317
G1 X39.98 Y160.304 E52.23412
G1 X38.645 Y159.263 E52.41148
G1 X37.357 Y158.229 E52.58453
G1 X36.164 Y157.241 E52.74681
G1 X34.849 Y156.117 E52.92806
G1 X33.633 Y155.043 E53.09803
G1 X32.412 Y153.929 E53.2712
G1 X31.202 Y152.792 E53.44516
G1 X30.017 Y151.646 E53.61787
G1 X28.859 Y150.489 E53.78937
G1 X27.722 Y149.318 E53.96037
G1 X26.568 Y148.092 E54.13677
G1 X25.51 Y146.933 E54.30118
G1 X24.354 Y145.626 E54.48399
G1 X23.307 Y144.406 E54.65243
G1 X22.273 Y143.162 E54.82191
G1 X21.253 Y141.896 E54.99224
G1 X20.201 Y140.55 E55.17122
G1 X19.216 Y139.247 E55.34235
G1 X18.266 Y137.95 E55.51079
G1 X17.304 Y136.594 E55.68498
G1 X16.362 Y135.22 E55.85951
G1 X15.435 Y133.822 E56.03525
G1 X14.579 Y132.487 E56.2014
G1 X13.69 Y131.055 E56.37799
G1 X12.866 Y129.679 E56.54603
G1 X12.026 Y128.227 E56.72178
G1 X11.24 Y126.82 E56.89063
G1 X10.419 Y125.293 E57.07227
G1 X9.708 Y123.919 E57.23436
G1 X8.95 Y122.401 E57.41212
G1 X8.261 Y120.965 E57.57899
G1 X7.546 Y119.413 E57.75802
G1 X6.892 Y117.935 E57.92735
G1 X6.214 Y116.336 E58.10931
G1 X5.932 Y115.647 E58.18731
G1 X5.684 Y114.936 E58.2662
G1 X5.513 Y114.202 E58.34516
G1 X5.421 Y113.454 E58.42412
G1 X5.409 Y112.701 E58.50302
G1 X5.476 Y111.95 E58.58202
G1 X5.623 Y111.211 E58.66096
G1 X6.04 Y109.848 E58.81029
G1 X6.275 Y109.162 E58.88627
G1 X7.072 Y106.652 E59.16218
G1 X7.784 Y104.166 E59.43311
G1 X8.44 Y101.608 E59.70978
G1 X9.029 Y99.013 E59.98857
G1 X9.529 Y96.461 E60.26102
G1 X9.964 Y93.862 E60.53711
G1 X10.323 Y91.271 E60.81116
G1 X10.614 Y88.627 E61.08984
G1 X10.707 Y87.459 E61.2126
G1 X10.845 Y85.95 E61.37136
G1 X11.003 Y84.592 E61.51459
G1 X11.278 Y81.946 E61.79331
G1 X11.475 Y79.318 E62.06941
G1 X11.597 Y76.717 E62.34222
G1 X11.645 Y74.061 E62.62053
G1 X11.619 Y71.437 E62.89546
G1 X11.519 Y68.807 E63.1712
G1 X11.345 Y66.191 E63.44588
G1 X11.155 Y64.151 E63.66054
G1 X11.051 Y62.96 E63.78579
G1 X10.922 Y61.14 E63.97695
G1 X10.863 Y60.065 E64.08975
G1 X10.793 Y58.109 E64.29481
G1 X10.767 Y56.615 E64.45136
G1 X10.759 Y55.785 E64.53832
G1 X10.76 Y37.632 E66.4402
G1 X10.771 Y36.866 E66.52046
G1 X10.822 Y36.114 E66.59943
G1 X10.953 Y35.373 E66.67827
G1 X11.162 Y34.649 E66.75722
G1 X11.446 Y33.951 E66.83617
G1 X11.802 Y33.287 E66.9151
G1 X12.227 Y32.665 E66.99403
G1 X12.715 Y32.091 E67.07296
G1 X13.262 Y31.573 E67.15189
G1 X13.86 Y31.115 E67.23081
G1 X14.504 Y30.723 E67.3098
M204 S3000
M205 X10 Y10
G0 F3000 X14.662 Y31.598
M204 S1800
M205 X8 Y8
G1 F2400 X15.289 Y31.271 E67.38388
G1 X15.949 Y31.016 E67.45801
G1 X16.633 Y30.837 E67.53209
G1 X17.677 Y30.717 E67.64219
G1 X18.195 Y30.704 E67.69648
G1 X19.053 Y30.704 E67.78637
G1 X19.841 Y30.715 E67.86893
G1 X20.546 Y30.765 E67.94298
G1 X21.242 Y30.894 E68.01714
G1 X21.918 Y31.101 E68.09121
G1 X22.567 Y31.383 E68.16535
G1 X23.18 Y31.736 E68.23946
G1 X23.749 Y32.157 E68.31362
G1 X24.267 Y32.639 E68.38775
G1 X24.727 Y33.176 E68.46183
G1 X25.022 Y33.596 E68.5156
G1 X25.584 Y34.473 E68.62473
G1 X25.849 Y34.902 E68.67756
G1 X27.298 Y37.118 E68.95496
G1 X28.795 Y39.269 E69.22952
G1 X30.381 Y41.419 E69.50944
G1 X32.016 Y43.508 E69.78736
G1 X33.706 Y45.546 E70.06475
G1 X35.465 Y47.547 E70.34388
G1 X37.26 Y49.479 E70.62017
G1 X39.123 Y51.372 E70.89844
G1 X41.026 Y53.2 E71.1749
G1 X43.006 Y54.997 E71.45504
G1 X45.019 Y56.721 E71.73271
G1 X47.057 Y58.372 E72.0075
G1 X49.181 Y59.993 E72.28744
G1 X51.346 Y61.55 E72.56683
G1 X53.526 Y63.028 E72.84277
G1 X55.77 Y64.457 E73.1215
G1 X58.042 Y65.815 E73.39881
G1 X60.349 Y67.107 E73.67584
G1 X62.715 Y68.346 E73.95565
G1 X65.078 Y69.5 E74.23117
G1 X67.484 Y70.591 E74.50795
G1 X69.968 Y71.636 E74.79029
G1 X72.425 Y72.584 E75.0662
G1 X74.922 Y73.47 E75.34379
G1 X77.438 Y74.283 E75.62081
G1 X79.971 Y75.024 E75.89732
G1 X82.531 Y75.694 E76.17456
G1 X85.168 Y76.306 E76.45818
G1 X87.747 Y76.825 E76.7338
G1 X90.327 Y77.271 E77.00811
G1 X92.962 Y77.651 E77.28703
G1 X95.587 Y77.952 E77.56386
G1 X98.266 Y78.185 E77.84559
G1 X100.886 Y78.338 E78.12056
G1 X103.529 Y78.416 E78.39758
G1 X106.179 Y78.42 E78.67522
G1 X108.834 Y78.349 E78.95348
G1 X111.506 Y78.202 E79.23385
G1 X114.124 Y77.983 E79.5091
G1 X116.759 Y77.687 E79.7869
G1 X119.406 Y77.315 E80.06695
G1 X121.977 Y76.878 E80.34018
G1 X124.607 Y76.355 E80.62111
G1 X127.174 Y75.767 E80.89702
G1 X129.755 Y75.101 E81.17629
G1 X132.301 Y74.365 E81.45395
G1 X134.804 Y73.564 E81.72929
G1 X137.338 Y72.674 E82.01068
G1 X139.803 Y71.729 E82.28726
G1 X142.246 Y70.711 E82.56455
G1 X144.677 Y69.618 E82.8438
G1 X147.047 Y68.47 E83.1197
G1 X149.422 Y67.235 E83.40016
G1 X151.731 Y65.95 E83.67701
G1 X154.001 Y64.603 E83.95356
G1 X156.246 Y63.183 E84.23186
G1 X158.445 Y61.702 E84.50963
G1 X160.589 Y60.169 E84.78577
G1 X162.706 Y58.563 E85.06417
G1 X164.813 Y56.869 E85.34742
G1 X166.766 Y55.205 E85.61623
G1 X168.788 Y53.38 E85.9016
G1 X170.672 Y51.582 E86.17445
G1 X172.56 Y49.675 E86.4556
G1 X174.362 Y47.748 E86.73201
G1 X176.117 Y45.762 E87.00968
G1 X177.798 Y43.747 E87.28461
G1 X179.458 Y41.641 E87.56556
G1 X181.045 Y39.504 E87.84443
G1 X182.553 Y37.35 E88.11992
G1 X184.027 Y35.11 E88.40085
G1 X184.872 Y33.762 E88.56753
G1 X185.157 Y33.345 E88.62045
G1 X185.697 Y32.689 E88.70947
G1 X186.209 Y32.201 E88.78358
G1 X186.773 Y31.775 E88.85763
G1 X187.382 Y31.414 E88.9318
G1 X188.028 Y31.125 E89.00594
G1 X188.702 Y30.91 E89.08006
G1 X189.396 Y30.773 E89.15418
G1 X190.082 Y30.716 E89.2263
G1 X191.434 Y30.704 E89.36795
G1 X192.221 Y30.715 E89.45041
G1 X192.926 Y30.765 E89.52446
G1 X193.622 Y30.894 E89.59862
G1 X194.298 Y31.101 E89.67269
G1 X194.947 Y31.383 E89.74683
G1 X195.56 Y31.737 E89.82099
G1 X196.129 Y32.157 E89.89509
G1 X196.647 Y32.639 E89.96922
G1 X197.107 Y33.176 E90.0433
G1 X197.504 Y33.761 E90.11737
G1 X197.832 Y34.388 E90.19151
G1 X198.087 Y35.048 E90.26564
G1 X198.267 Y35.732 E90.33974
G1 X198.368 Y36.432 E90.41384
G1 X198.398 Y37.118 E90.48578
G1 X198.401 Y55.721 E92.4348
G1 X198.394 Y56.552 E92.52187
G1 X198.368 Y58.066 E92.68051
G1 X198.305 Y59.871 E92.86974
G1 X198.247 Y60.982 E92.98629
G1 X198.123 Y62.767 E93.17376
G1 X197.974 Y64.473 E93.35318
G1 X197.795 Y66.424 E93.55844
G1 X197.628 Y69.039 E93.83297
G1 X197.535 Y71.672 E94.109
G1 X197.517 Y74.336 E94.38811
G1 X197.574 Y77.023 E94.66969
G1 X197.703 Y79.635 E94.94368
G1 X197.909 Y82.278 E95.22143
G1 X198.169 Y84.745 E95.48133
G1 X198.297 Y85.832 E95.596
G1 X198.603 Y89.263 E95.95689
G1 X198.91 Y91.914 E96.23649
G1 X199.288 Y94.538 E96.51424
G1 X199.742 Y97.152 E96.79221
G1 X200.267 Y99.745 E97.06939
G1 X200.858 Y102.294 E97.34353
G1 X201.54 Y104.894 E97.62514
G1 X202.276 Y107.409 E97.89969
G1 X203.317 Y110.587 E98.25006
G1 X203.612 Y111.564 E98.35698
G1 X203.726 Y112.262 E98.43108
G1 X203.762 Y112.968 E98.50514
G1 X203.717 Y113.674 E98.57926
G1 X203.593 Y114.371 E98.65343
G1 X203.321 Y115.237 E98.74853
G1 X203.004 Y116.036 E98.83859
G1 X202.328 Y117.628 E99.01979
G1 X201.787 Y118.859 E99.16067
G1 X201 Y120.567 E99.3577
G1 X200.387 Y121.852 E99.50686
G1 X199.557 Y123.515 E99.70159
G1 X198.918 Y124.755 E99.84774
G1 X198.011 Y126.444 E100.04859
G1 X197.287 Y127.742 E100.20431
G1 X196.428 Y129.227 E100.38405
G1 X195.545 Y130.701 E100.56407
G1 X194.723 Y132.025 E100.72734
G1 X193.826 Y133.424 E100.90145
G1 X192.882 Y134.844 E101.0801
G1 X192.184 Y135.866 E101.20977
G1 X191.049 Y137.468 E101.41546
G1 X190.253 Y138.559 E101.55695
